P2
455 592
255
255 255 255 255 255 255 255 255 255 255 255 255 255 255 255 255 255 255 255 255 255 255 255 255 255 255 255 255 255 255 255 255 255 255 255 255 255 255 255 255 255 255 255 255 255 255 255 255 255 255 255 255 255 255 255 255 255 255 255 255 255 255 255 255 255 255 255 255 255 255 255 255 255 255 255 255 255 255 255 255 255 255 255 255 255 255 255 255 255 255 255 255 255 255 255 255 255 255 255 255 255 255 255 255 255 255 255 255 255 255 255 255 255 255 255 255 255 255 255 255 255 255 255 255 255 255 255 255 255 255 255 255 255 255 255 255 255 255 255 255 255 255 255 255 255 255 255 255 255 255 255 255 255 255 255 255 255 255 255 255 255 255 255 255 255 255 255 255 255 255 255 255 255 255 255 255 255 255 255 255 255 255 255 255 255 255 255 255 255 255 255 255 255 255 255 255 255 255 255 255 255 255 255 255 255 255 255 255 255 255 255 255 255 255 255 255 255 255 255 255 255 255 255 255 255 255 255 255 255 255 255 255 255 255 255 255 255 255 255 255 255 255 255 255 255 255 255 255 255 255 255 255 255 255 255 255 255 255 255 255 255 255 255 255 255 255 255 255 255 255 255 255 255 255 255 255 255 255 255 255 255 255 255 255 255 255 255 255 255 255 255 255 255 255 255 255 255 255 255 255 255 255 255 255 255 255 255 255 255 255 255 255 255 255 255 255 255 255 255 255 255 255 255 255 255 255 255 255 255 255 255 255 255 255 255 255 255 255 255 255 255 255 255 255 255 255 255 255 255 255 255 255 255 255 255 255 255 255 255 255 255 255 255 255 255 255 255 255 255 255 255 255 255 255 255 255 255 255 255 255 255 255 255 255 255 255 255 255 255 255 255 255 255 255 255 255 255 255 255 255 255 255 255 255 255 255 255 255 255 255 255 255 255 255 255 255 255 255 255 255 255 255 255 255 255 255 255 255 255 255 255 255 255 255 255 255 255 255 255 255 255 255 255 255 255 255 255 255 255 255 255 255 255 255 255 
255 255 255 255 255 255 255 255 255 255 255 255 255 255 255 255 255 255 255 255 255 255 255 255 255 255 255 255 255 255 255 255 255 255 255 255 255 255 255 255 255 255 255 255 255 255 255 255 255 255 255 255 255 255 255 255 255 255 255 255 255 255 255 255 255 255 255 255 255 255 255 255 255 255 255 255 255 255 255 255 255 255 255 255 255 255 255 255 255 255 255 255 255 255 255 255 255 255 255 255 255 255 255 255 255 255 255 255 255 255 255 255 255 255 255 255 255 255 255 255 255 255 255 255 255 255 255 255 255 255 255 255 255 255 255 255 255 255 255 255 255 255 255 255 255 255 255 255 255 255 255 255 255 255 255 255 255 255 255 255 255 255 255 255 255 255 255 255 255 255 255 255 255 255 255 255 255 255 255 255 255 255 255 255 255 255 255 255 255 255 255 255 255 255 255 255 255 255 255 255 255 255 255 255 255 255 255 255 255 255 255 255 255 255 255 255 255 255 255 255 255 255 255 255 255 255 255 255 255 255 255 255 255 255 255 255 255 255 255 255 255 255 255 255 255 255 255 255 255 255 255 255 255 255 255 255 255 255 255 255 255 255 255 255 255 255 255 255 255 255 255 255 255 255 255 255 255 255 255 255 255 255 255 255 255 255 255 255 255 255 255 255 255 255 255 255 255 255 255 255 255 255 255 255 255 255 255 255 255 255 255 255 255 255 255 255 255 255 255 255 255 255 255 255 255 255 255 255 255 255 255 255 255 255 255 255 255 255 255 255 255 255 255 255 255 255 255 255 255 255 255 255 255 255 255 255 255 255 255 255 255 255 255 255 255 255 255 255 255 255 255 255 255 255 255 255 255 255 255 255 255 255 255 255 255 255 255 255 255 255 255 255 255 255 255 255 255 255 255 255 255 255 255 255 255 255 255 255 255 255 255 255 255 255 255 255 255 255 255 255 255 255 255 255 255 255 255 255 255 255 255 255 255 255 255 255 255 255 255 255 255 255 255 255 255 255 255 255 255 255 255 255 255 255 255 
255 255 255 255 255 255 255 255 255 255 255 255 255 255 255 255 255 255 255 255 255 255 255 255 255 255 255 255 255 255 255 255 255 255 255 255 255 255 255 255 255 255 255 255 255 255 255 255 255 255 255 255 255 255 255 255 255 255 255 255 255 255 255 255 255 255 255 255 255 255 255 255 255 255 255 255 255 255 255 255 255 255 255 255 255 255 255 255 255 255 255 255 255 255 255 255 255 255 255 255 255 255 255 255 255 255 255 255 255 255 255 255 255 255 255 255 255 255 255 255 255 255 255 255 255 255 255 255 255 255 255 255 255 255 255 255 255 255 255 255 255 255 255 255 255 255 255 255 255 255 255 255 255 255 255 255 255 255 255 255 255 255 255 255 255 255 255 255 255 255 255 255 255 255 255 255 255 255 255 255 255 255 255 255 255 255 255 255 255 255 255 255 255 255 255 255 255 255 255 255 255 255 255 255 255 255 255 255 255 255 255 255 255 255 255 255 255 255 255 255 255 255 255 255 255 255 255 255 255 255 255 255 255 255 255 255 255 255 255 255 255 255 255 255 255 255 255 255 255 255 255 255 255 255 255 255 255 255 255 255 255 255 255 255 255 255 255 255 255 255 255 255 255 255 255 255 255 255 255 255 255 255 255 255 255 255 255 255 255 255 255 255 255 255 255 255 255 255 255 255 255 255 255 255 255 255 255 255 255 255 255 255 255 255 255 255 255 255 255 255 255 255 255 255 255 255 255 255 255 255 255 255 255 255 255 255 255 255 255 255 255 255 255 255 255 255 255 255 255 255 255 255 255 255 255 255 255 255 255 255 255 255 255 255 255 255 255 255 255 255 255 255 255 255 255 255 255 255 255 255 255 255 255 255 255 255 255 255 255 255 255 255 255 255 255 255 255 255 255 255 255 255 255 255 255 255 255 255 255 255 255 255 255 255 255 255 255 255 255 255 255 255 255 255 255 255 255 255 255 255 255 255 255 255 255 255 255 255 255 255 255 255 255 255 255 255 255 255 255 255 255 255 255 255 255 
255 255 255 255 255 255 255 255 255 255 255 255 255 255 255 255 255 255 255 255 255 255 255 255 255 255 255 255 255 255 255 255 255 255 255 255 255 255 255 255 255 255 255 255 255 255 255 255 255 255 255 255 255 255 255 255 255 255 255 255 255 255 255 255 255 255 255 255 255 255 255 255 255 255 255 255 255 255 255 255 255 255 255 255 255 255 255 255 255 255 255 255 255 255 255 255 255 255 255 255 255 255 255 255 255 255 255 255 255 255 255 255 255 255 255 255 255 255 255 255 255 255 255 255 255 255 255 255 255 255 255 255 255 255 255 255 255 255 255 255 255 255 255 255 255 255 255 255 255 255 255 255 255 255 255 255 255 255 255 255 255 255 255 255 255 255 255 255 255 255 255 255 255 255 255 255 255 255 255 255 255 255 255 255 255 255 255 255 255 255 255 255 255 255 255 255 255 255 255 255 255 255 255 255 255 255 255 255 255 255 255 255 255 255 255 255 255 255 255 255 255 255 255 255 255 255 255 255 255 255 255 255 255 255 255 255 255 255 255 255 255 255 255 255 255 255 255 255 255 255 255 255 255 255 255 255 255 255 255 255 255 255 255 255 255 255 255 255 255 255 255 255 255 255 255 255 255 255 255 255 255 255 255 255 255 255 255 255 255 255 255 255 255 255 255 255 255 255 255 255 255 255 255 255 255 255 255 255 255 255 255 255 255 255 255 255 255 255 255 255 255 255 255 255 255 255 255 255 255 255 255 255 255 255 255 255 255 255 255 255 255 255 255 255 255 255 255 255 255 255 255 255 255 255 255 255 255 255 255 255 255 255 255 255 255 255 255 255 255 255 255 255 255 255 255 255 255 255 255 255 255 255 255 255 255 255 255 255 255 255 255 255 255 255 255 255 255 255 255 255 255 255 255 255 255 255 255 255 255 255 255 255 255 255 255 255 255 255 255 255 255 255 255 255 255 255 255 255 255 255 255 255 255 255 255 255 255 255 255 255 255 255 255 255 255 255 255 255 255 255 255 255 255 255 255 
255 255 255 255 255 255 255 255 255 255 255 255 255 255 255 255 255 255 255 255 255 255 255 255 255 255 255 255 255 255 255 255 255 255 255 255 255 255 255 255 255 255 255 255 255 255 255 255 255 255 255 255 255 255 255 255 255 255 255 255 255 255 255 255 255 255 255 255 255 255 255 255 255 255 255 255 255 255 255 255 255 255 255 255 255 255 255 255 255 255 255 255 255 255 255 255 255 255 255 255 255 255 255 255 255 255 255 255 255 255 255 255 255 255 255 255 255 255 255 255 255 255 255 255 255 255 255 255 255 255 255 255 255 255 255 255 255 255 255 255 255 255 255 255 255 255 255 255 255 255 255 255 255 255 255 255 255 255 255 255 255 255 255 255 255 255 255 255 255 255 255 255 255 255 255 255 255 255 255 255 255 255 255 255 255 255 255 255 255 255 255 255 255 255 255 255 255 255 255 255 255 255 255 255 255 255 255 255 255 255 255 255 255 255 255 255 255 255 255 255 255 255 255 255 255 255 255 255 255 255 255 255 255 255 255 255 255 255 255 255 255 255 255 255 255 255 255 255 255 255 255 255 255 255 255 255 255 255 255 255 255 255 255 255 255 255 255 255 255 255 255 255 255 255 255 255 255 255 255 255 255 255 255 255 255 255 255 255 255 255 255 255 255 255 255 255 255 255 255 255 255 255 255 255 255 255 255 255 255 255 255 255 255 255 255 255 255 255 255 255 255 255 255 255 255 255 255 255 255 255 255 255 255 255 255 255 255 255 255 255 255 255 255 255 255 255 255 255 255 255 255 255 255 255 255 255 255 255 255 255 255 255 255 255 255 255 255 255 255 255 255 255 255 255 255 255 255 255 255 255 255 255 255 255 255 255 255 255 255 255 255 255 255 255 255 255 255 255 255 255 255 255 255 255 255 255 255 255 255 255 255 255 255 255 255 255 255 255 255 255 255 255 255 255 255 255 255 255 255 255 255 255 255 255 255 255 255 255 255 255 255 255 255 255 255 255 255 255 255 255 255 255 255 255 255 
255 255 255 255 255 255 255 255 255 255 255 255 255 255 255 255 255 255 255 255 255 255 255 255 255 255 255 255 255 255 255 255 255 255 255 255 255 255 255 255 255 255 255 255 255 255 255 255 255 255 255 255 255 255 255 255 255 255 255 255 255 255 255 255 255 255 255 255 255 255 255 255 255 255 255 255 255 255 255 255 255 255 255 255 255 255 255 255 255 255 255 255 255 255 255 255 255 255 255 255 255 255 255 255 255 255 255 255 255 255 255 255 255 255 255 255 255 255 255 255 255 255 255 255 255 255 255 255 255 255 255 255 255 255 255 255 255 255 255 255 255 255 255 255 255 255 255 255 255 255 255 255 255 255 255 255 255 255 255 255 255 255 255 255 255 255 255 255 255 255 255 255 255 255 255 255 255 255 255 255 255 255 255 255 255 255 255 255 255 255 255 255 255 255 255 255 255 255 255 255 255 255 255 255 255 255 255 255 255 255 255 255 255 255 255 255 255 255 255 255 255 255 255 255 255 255 255 255 255 255 255 255 255 255 255 255 255 255 255 255 255 255 255 255 255 255 255 255 255 255 255 255 255 255 255 255 255 255 255 255 255 255 255 255 255 255 255 255 255 255 255 255 255 255 255 255 255 255 255 255 255 255 255 255 255 255 255 255 255 255 255 255 255 255 255 255 255 255 255 255 255 255 255 255 255 255 255 255 255 255 255 255 255 255 255 255 255 255 255 255 255 255 255 255 255 255 255 255 255 255 255 255 255 255 255 255 255 255 255 255 255 255 255 255 255 255 255 255 255 255 255 255 255 255 255 255 255 255 255 255 255 255 255 255 255 255 255 255 255 255 255 255 255 255 255 255 255 255 255 255 255 255 255 255 255 255 255 255 255 255 255 255 255 255 255 255 255 255 255 255 255 255 255 255 255 255 255 255 255 255 255 255 255 255 255 255 255 255 255 255 255 255 255 255 255 255 255 255 255 255 255 255 255 255 255 255 255 255 255 255 255 255 255 255 255 255 255 255 255 255 255 255 255 255 255 
255 255 255 255 255 255 255 255 255 255 255 255 255 255 255 255 255 255 255 255 255 255 255 255 255 255 255 255 255 255 255 255 255 255 255 255 255 255 255 255 255 255 255 255 255 255 255 255 255 255 255 255 255 255 255 255 255 255 255 255 255 255 255 255 255 255 255 255 255 255 255 255 255 255 255 255 255 255 255 255 255 255 255 255 255 255 255 255 255 255 255 255 255 255 255 255 255 255 255 255 255 255 255 255 255 255 255 255 255 255 255 255 255 255 255 255 255 255 255 255 255 255 255 255 255 255 255 255 255 255 255 255 255 255 255 255 255 255 255 255 255 255 255 255 255 255 255 255 255 255 255 255 255 255 255 255 255 255 255 255 255 255 255 255 255 255 255 255 255 255 255 255 255 255 255 255 255 255 255 255 255 255 255 255 255 255 255 255 255 255 255 255 255 255 255 255 255 255 255 255 255 255 255 255 255 255 255 255 255 255 255 255 255 255 255 255 255 255 255 255 255 255 255 255 255 255 255 255 255 255 255 255 255 255 255 255 255 255 255 255 255 255 255 255 255 255 255 255 255 255 255 255 255 255 255 255 255 255 255 255 255 255 255 255 255 255 255 255 255 255 255 255 255 255 255 255 255 255 255 255 255 255 255 255 255 255 255 255 255 255 255 255 255 255 255 255 255 255 255 255 255 255 255 255 255 255 255 255 255 255 255 255 255 255 255 255 255 255 255 255 255 255 255 255 255 255 255 255 255 255 255 255 255 255 255 255 255 255 255 255 255 255 255 255 255 255 255 255 255 255 255 255 255 255 255 255 255 255 255 255 255 255 255 255 255 255 255 255 255 255 255 255 255 255 255 255 255 255 255 255 255 255 255 255 255 255 255 255 255 255 255 255 255 255 255 255 255 255 255 255 255 255 255 255 255 255 255 255 255 255 255 255 255 255 255 255 255 255 255 255 255 255 255 255 255 255 255 255 255 255 255 255 255 255 255 255 255 255 255 255 255 255 255 255 255 255 255 255 255 255 255 255 255 255 255 
255 255 255 255 255 255 255 255 255 255 255 255 255 255 255 255 255 255 255 255 255 255 255 255 255 255 255 255 255 255 255 255 255 255 255 255 255 255 255 255 255 255 255 255 255 255 255 255 255 255 255 255 255 255 255 255 255 255 255 255 255 255 255 255 255 255 255 255 255 255 255 255 255 255 255 255 255 255 255 255 255 255 255 255 255 255 255 255 255 255 255 255 255 255 255 255 255 255 255 255 255 255 255 255 255 255 255 255 255 255 255 255 255 255 255 255 255 255 255 255 255 255 255 255 255 255 255 255 255 255 255 255 255 255 255 255 255 255 255 255 255 255 255 255 255 255 255 255 255 255 255 255 255 255 255 255 255 255 255 255 255 255 255 255 255 255 255 255 255 255 255 255 255 255 255 255 255 255 255 255 255 255 255 255 255 255 255 255 255 255 255 255 255 255 255 255 255 255 255 255 255 255 255 255 255 255 255 255 255 255 255 255 255 255 255 255 255 255 255 255 255 255 255 255 255 255 255 255 255 255 255 255 255 255 255 255 255 255 255 255 255 255 255 255 255 255 255 255 255 255 255 255 255 255 255 255 255 255 255 255 255 255 255 255 255 255 255 255 255 255 255 255 255 255 255 255 255 255 255 255 255 255 255 255 255 255 255 255 255 255 255 255 255 255 255 255 255 255 255 255 255 255 255 255 255 255 255 255 255 255 255 255 255 255 255 255 255 255 255 255 255 255 255 255 255 255 255 255 255 255 255 255 255 255 255 255 255 255 255 255 255 255 255 255 255 255 255 255 255 255 255 255 255 255 255 255 255 255 255 255 255 255 255 255 255 255 255 255 255 255 255 255 255 255 255 255 255 255 255 255 255 255 255 255 255 255 255 255 255 255 255 255 255 255 255 255 255 255 255 255 255 255 255 255 255 255 255 255 255 255 255 255 255 255 255 255 255 255 255 255 255 255 255 255 255 255 255 255 255 255 255 255 255 255 255 255 255 255 255 255 255 255 255 255 255 255 255 255 255 255 255 255 255 255 255 
255 255 255 255 255 255 255 255 255 255 255 255 255 255 255 255 255 255 255 255 255 255 255 255 255 255 255 255 255 255 255 255 255 255 255 255 255 255 255 255 255 255 255 255 255 255 255 255 255 255 255 255 255 255 255 255 255 255 255 255 255 255 255 255 255 255 255 255 255 255 255 255 255 255 255 255 255 255 255 255 255 255 255 255 255 255 255 255 255 255 255 255 255 255 255 255 255 255 255 255 255 255 255 255 255 255 255 255 255 255 255 255 255 255 255 255 255 255 255 255 255 255 255 255 255 255 255 255 255 255 255 255 255 255 255 255 255 255 255 255 255 255 255 255 255 255 255 255 255 255 255 255 255 255 255 255 255 255 255 255 255 255 255 255 255 255 255 255 255 255 255 255 255 255 255 255 255 255 255 255 255 255 255 255 255 255 255 255 255 255 255 255 255 255 255 255 255 255 255 255 255 255 255 255 255 255 255 255 255 255 255 255 255 255 255 255 255 255 255 255 255 255 255 255 255 255 255 255 255 255 255 255 255 255 255 255 255 255 255 255 255 255 255 255 255 255 255 255 255 255 255 255 255 255 255 255 255 255 255 255 255 255 255 255 255 255 255 255 255 255 255 255 255 255 255 255 255 255 255 255 255 255 255 255 255 255 255 255 255 255 255 255 255 255 255 255 255 255 255 255 255 255 255 255 255 255 255 255 255 255 255 255 255 255 255 255 255 255 255 255 255 255 255 255 255 255 255 255 255 255 255 255 255 255 255 255 255 255 255 255 255 255 255 255 255 255 255 255 255 255 255 255 255 255 255 255 255 255 255 255 255 255 255 255 255 255 255 255 255 255 255 255 255 255 255 255 255 255 255 255 255 255 255 255 255 255 255 255 255 255 255 255 255 255 255 255 255 255 255 255 255 255 255 255 255 255 255 255 255 255 255 255 255 255 255 255 255 255 255 255 255 255 255 255 255 255 255 255 255 255 255 255 255 255 255 255 255 255 255 255 255 255 255 255 255 255 255 255 255 255 255 255 255 255 255 
255 255 255 255 255 255 255 255 255 255 255 255 255 255 255 255 255 255 255 255 255 255 255 255 255 255 255 255 255 255 255 255 255 255 255 255 255 255 255 255 255 255 255 255 255 255 255 255 255 255 255 255 255 255 255 255 255 255 255 255 255 255 255 255 255 255 255 255 255 255 255 255 255 255 255 255 255 255 255 255 255 255 255 255 255 255 255 255 255 255 255 255 255 255 255 255 255 255 255 255 255 255 255 255 255 255 255 255 255 255 255 255 255 255 255 255 255 255 255 255 255 255 255 255 255 255 255 255 255 255 255 255 255 255 255 255 255 255 255 255 255 255 255 255 255 255 255 255 255 255 255 255 255 255 255 255 255 255 255 255 255 255 255 255 255 255 255 255 255 255 255 255 255 255 255 255 255 255 255 255 255 255 255 255 255 255 255 255 255 255 255 255 255 255 255 255 255 255 255 255 255 255 255 255 255 255 255 255 255 255 255 255 255 255 255 255 255 255 255 255 255 255 255 255 255 255 255 255 255 255 255 255 255 255 255 255 255 255 255 255 255 255 255 255 255 255 255 255 255 255 255 255 255 255 255 255 255 255 255 255 255 255 255 255 255 255 255 255 255 255 255 255 255 255 255 255 255 255 255 255 255 255 255 255 255 255 255 255 255 255 255 255 255 255 255 255 255 255 255 255 255 255 255 255 255 255 255 255 255 255 255 255 255 255 255 255 255 255 255 255 255 255 255 255 255 255 255 255 255 255 255 255 255 255 255 255 255 255 255 255 255 255 255 255 255 255 255 255 255 255 255 255 255 255 255 255 255 255 255 255 255 255 255 255 255 255 255 255 255 255 255 255 255 255 255 255 255 255 255 255 255 255 255 255 255 255 255 255 255 255 255 255 255 255 255 255 255 255 255 255 255 255 255 255 255 255 255 255 255 255 255 255 255 255 255 255 255 255 255 255 255 255 255 255 255 255 255 255 255 255 255 255 255 255 255 255 255 255 255 255 255 255 255 255 255 255 255 255 255 255 255 255 255 255 255 
255 255 255 255 255 255 255 255 255 255 255 255 255 255 255 255 255 255 255 255 255 255 255 255 255 255 255 255 255 255 255 255 255 255 255 255 255 255 255 255 255 255 255 255 255 255 255 255 255 255 255 255 255 255 255 255 255 255 255 255 255 255 255 255 255 255 255 255 255 255 255 255 255 255 255 255 255 255 255 255 255 255 255 255 255 255 255 255 255 255 255 255 255 255 255 255 255 255 255 255 255 255 255 255 255 255 255 255 255 255 255 255 255 255 255 255 255 255 255 255 255 255 255 255 255 255 255 255 255 255 255 255 255 255 255 255 255 255 255 255 255 255 255 255 255 255 255 255 255 255 255 255 255 255 255 255 255 255 255 255 255 255 255 255 255 255 255 255 255 255 255 255 255 255 255 255 255 255 255 255 255 255 255 255 255 255 255 255 255 255 255 255 255 255 255 255 255 255 255 255 255 255 255 255 255 255 255 255 255 255 255 255 255 255 255 255 255 255 255 255 255 255 255 255 255 255 255 255 255 255 255 255 255 255 255 255 255 255 255 255 255 255 255 255 255 255 255 255 255 255 255 255 255 255 255 255 255 255 255 255 255 255 255 255 255 255 255 255 255 255 255 255 255 255 255 255 255 255 255 255 255 255 255 255 255 255 255 255 255 255 255 255 255 255 255 255 255 255 255 255 255 255 255 255 255 255 255 255 255 255 255 255 255 255 255 255 255 255 255 255 255 255 255 255 255 255 255 255 255 255 255 255 255 255 255 255 255 255 255 255 255 255 255 255 255 255 255 255 255 255 255 255 255 255 255 255 255 255 255 255 255 255 255 255 255 255 255 255 255 255 255 255 255 255 255 255 255 255 255 255 255 255 255 255 255 255 255 255 255 255 255 255 255 255 255 255 255 255 255 255 255 255 255 255 255 255 255 255 255 255 255 255 255 255 255 255 255 255 255 255 255 255 255 255 255 255 255 255 255 255 255 255 255 255 255 255 255 255 255 255 255 255 255 255 255 255 255 255 255 255 255 255 255 255 255 
255 255 255 255 255 255 255 255 255 255 255 255 255 255 255 255 255 255 255 255 255 255 255 255 255 255 255 255 255 255 255 255 255 255 255 255 255 255 255 255 255 255 255 255 255 255 255 255 255 255 255 255 255 255 255 255 255 255 255 255 255 255 255 255 255 255 255 255 255 255 255 255 255 255 255 255 255 255 255 255 255 255 255 255 255 255 255 255 255 255 255 255 255 255 255 255 255 255 255 255 255 255 255 255 255 255 255 255 255 255 255 255 255 255 255 255 255 255 255 255 255 255 255 255 255 255 255 255 255 255 255 255 255 255 255 255 255 255 255 255 255 255 255 255 255 255 255 255 255 255 255 255 255 255 255 255 255 255 255 255 255 255 255 255 255 255 255 255 255 255 255 255 255 255 255 255 255 255 255 255 255 255 255 255 255 255 255 255 255 255 255 255 255 255 255 255 255 255 255 255 255 255 255 255 255 255 255 255 255 255 255 255 255 255 255 255 255 255 255 255 255 255 255 255 255 255 255 255 255 255 255 255 255 255 255 255 255 255 255 255 255 255 255 255 255 255 255 255 255 255 255 255 255 255 255 255 255 255 255 255 255 255 255 255 255 255 255 255 255 255 255 255 255 255 255 255 255 255 255 255 255 255 255 255 255 255 255 255 255 255 255 255 255 255 255 255 255 255 255 255 255 255 255 255 255 255 255 255 255 255 255 255 255 255 255 255 255 255 255 255 255 255 255 255 255 255 255 255 255 255 255 255 255 255 255 255 255 255 255 255 255 255 255 255 255 255 255 255 255 255 255 255 255 255 255 255 255 255 255 255 255 255 255 255 255 255 255 255 255 255 255 255 255 255 255 255 255 255 255 255 255 255 255 255 255 255 255 255 255 255 255 255 255 255 255 255 255 255 255 255 255 255 255 255 255 255 255 255 255 255 255 255 255 255 255 255 255 255 255 255 255 255 255 255 255 255 255 255 255 255 255 255 255 255 255 255 255 255 255 255 255 255 255 255 255 255 255 255 255 255 255 255 255 255 255 
255 255 255 255 255 255 255 255 255 255 255 255 255 255 255 255 255 255 255 255 255 255 255 255 255 255 255 255 255 255 255 255 255 255 255 255 255 255 255 255 255 255 255 255 255 255 255 255 255 255 255 255 255 255 255 255 255 255 255 255 255 255 255 255 255 255 255 255 255 255 255 255 255 255 255 255 255 255 255 255 255 255 255 255 255 255 255 255 255 255 255 255 255 255 255 255 255 255 255 255 255 255 255 255 255 255 255 255 255 255 255 255 255 255 255 255 255 255 255 255 255 255 255 255 255 255 255 255 255 255 255 255 255 255 255 255 255 255 255 255 255 255 255 255 255 255 255 255 255 255 255 255 255 255 255 255 255 255 255 255 255 255 255 255 255 255 255 255 255 255 255 255 255 255 255 255 255 255 255 255 255 255 255 255 255 255 255 255 255 255 255 255 255 255 255 255 255 255 255 255 255 255 255 255 255 255 255 255 255 255 255 255 255 255 255 255 255 255 255 255 255 255 255 255 255 255 255 255 255 255 255 255 255 255 255 255 255 255 255 255 255 255 255 255 255 255 255 255 255 255 255 255 255 255 255 255 255 255 255 255 255 255 255 255 255 255 255 255 255 255 255 255 255 255 255 255 255 255 255 255 255 255 255 255 255 255 255 255 255 255 255 255 255 255 255 255 255 255 255 255 255 255 255 255 255 255 255 255 255 255 255 255 255 255 255 255 255 255 255 255 255 255 255 255 255 255 255 255 255 255 255 255 255 255 255 255 255 255 255 255 255 255 255 255 255 255 255 255 255 255 255 255 255 255 255 255 255 255 255 255 255 255 255 255 255 255 255 255 255 255 255 255 255 255 255 255 255 255 255 255 255 255 255 255 255 255 255 255 255 255 255 255 255 255 255 255 255 255 255 255 255 255 255 255 255 255 255 255 255 255 255 255 255 255 255 255 255 255 255 255 255 255 255 255 255 255 255 255 255 255 255 255 255 255 255 255 255 255 255 255 255 255 255 255 255 255 255 255 255 255 255 255 255 255 255 
255 255 255 255 255 255 255 255 255 255 255 255 255 255 255 255 255 255 255 255 255 255 255 255 255 255 255 255 255 255 255 255 255 255 255 255 255 255 255 255 255 255 255 255 255 255 255 255 255 255 255 255 255 255 255 255 255 255 255 255 255 255 255 255 255 255 255 255 255 255 255 255 255 255 255 255 255 255 255 255 255 255 255 255 255 255 255 255 255 255 255 255 255 255 255 255 255 255 255 255 255 255 255 255 255 255 255 255 255 255 255 255 255 255 255 255 255 255 255 255 255 255 255 255 255 255 255 255 255 255 255 255 255 255 255 255 255 255 255 255 255 255 255 255 255 255 255 255 255 255 255 255 255 255 255 255 255 255 255 255 255 255 255 255 255 255 255 255 255 255 255 255 255 255 255 255 255 255 255 255 255 255 255 255 255 255 255 255 255 255 255 255 255 255 255 255 255 255 255 255 255 255 255 255 255 255 255 255 255 255 255 255 255 255 255 255 255 255 255 255 255 255 255 255 255 255 255 255 255 255 255 255 255 255 255 255 255 255 255 255 255 255 255 255 255 255 255 255 255 255 255 255 255 255 255 255 255 255 255 255 255 255 255 255 255 255 255 255 255 255 255 255 255 255 255 255 255 255 255 255 255 255 255 255 255 255 255 255 255 255 255 255 255 255 255 255 255 255 255 255 255 255 255 255 255 255 255 255 255 255 255 255 255 255 255 255 255 255 255 255 255 255 255 255 255 255 255 255 255 255 255 255 255 255 255 255 255 255 255 255 255 255 255 255 255 255 255 255 255 255 255 255 255 255 255 255 255 255 255 255 255 255 255 255 255 255 255 255 255 255 255 255 255 255 255 255 255 255 255 255 255 255 255 255 255 255 255 255 255 255 255 255 255 255 255 255 255 255 255 255 255 255 255 255 255 255 255 255 255 255 255 255 255 255 255 255 255 255 255 255 255 255 255 255 255 255 255 255 255 255 255 255 255 255 255 255 255 255 255 255 255 255 255 255 255 255 255 255 255 255 255 255 255 255 255 
255 255 255 255 255 255 255 255 255 255 255 255 255 255 255 255 255 255 255 255 255 255 255 255 255 255 255 255 255 255 255 255 255 255 255 255 255 255 255 255 255 255 255 255 255 255 255 255 255 255 255 255 255 255 255 255 255 255 255 255 255 255 255 255 255 255 255 255 255 255 255 255 255 255 255 255 255 255 255 255 255 255 255 255 255 255 255 255 255 255 255 255 255 255 255 255 255 255 255 255 255 255 255 255 255 255 255 255 255 255 255 255 255 255 255 255 255 255 255 255 255 255 255 255 255 255 255 255 255 255 255 255 255 255 255 255 255 255 255 255 255 255 255 255 255 255 255 255 255 255 255 255 255 255 255 255 255 255 255 255 255 255 255 255 255 255 255 255 255 255 255 255 255 255 255 255 255 255 255 255 255 255 255 255 255 255 255 255 255 255 255 255 255 255 255 255 255 255 255 255 255 255 255 255 255 255 255 255 255 255 255 255 255 255 255 255 255 255 255 255 255 255 255 255 255 255 255 255 255 255 255 255 255 255 255 255 255 255 255 255 255 255 255 255 255 255 255 255 255 255 255 255 255 255 255 255 255 255 255 255 255 255 255 255 255 255 255 255 255 255 255 255 255 255 255 255 255 255 255 255 255 255 255 255 255 255 255 255 255 255 255 255 255 255 255 255 255 255 255 255 255 255 255 255 255 255 255 255 255 255 255 255 255 255 255 255 255 255 255 255 255 255 255 255 255 255 255 255 255 255 255 255 255 255 255 255 255 255 255 255 255 255 255 255 255 255 255 255 255 255 255 255 255 255 255 255 255 255 255 255 255 255 255 255 255 255 255 255 255 255 255 255 255 255 255 255 255 255 255 255 255 255 255 255 255 255 255 255 255 255 255 255 255 255 255 255 255 255 255 255 255 255 255 255 255 255 255 255 255 255 255 255 255 255 255 255 255 255 255 255 255 255 255 255 255 255 255 255 255 255 255 255 255 255 255 255 255 255 255 255 255 255 255 255 255 255 255 255 255 255 255 255 255 255 255 
255 255 255 255 255 255 255 255 255 255 255 255 255 255 255 255 255 255 255 255 255 255 255 255 255 255 255 255 255 255 255 255 255 255 255 255 255 255 255 255 255 255 255 255 255 255 255 255 255 255 255 255 255 255 255 255 255 255 255 255 255 255 255 255 255 255 255 255 255 255 255 255 255 255 255 255 255 255 255 255 255 255 255 255 255 255 255 255 255 255 255 255 255 255 255 255 255 255 255 255 255 255 255 255 255 255 255 255 255 255 255 255 255 255 255 255 255 255 255 255 255 255 255 255 255 255 255 255 255 255 255 255 255 255 255 255 255 255 255 255 255 255 255 255 255 255 255 255 255 255 255 255 255 255 255 255 255 255 255 255 255 255 255 255 255 255 255 255 255 255 255 255 255 255 255 255 255 255 255 255 255 255 255 255 255 255 255 255 255 255 255 255 255 255 255 255 255 255 255 255 255 255 255 255 255 255 255 255 255 255 255 255 255 255 255 255 255 255 255 255 255 255 255 255 255 255 255 255 255 255 255 255 255 255 255 255 255 255 255 255 255 255 255 255 255 255 255 255 255 255 255 255 255 255 255 255 255 255 255 255 255 255 255 255 255 255 255 255 255 255 255 255 255 255 255 255 255 255 255 255 255 255 255 255 255 255 255 255 255 255 255 255 255 255 255 255 255 255 255 255 255 255 255 255 255 255 255 255 255 255 255 255 255 255 255 255 255 255 255 255 255 255 255 255 255 255 255 255 255 255 255 255 255 255 255 255 255 255 255 255 255 255 255 255 255 255 255 255 255 255 255 255 255 255 255 255 255 255 255 255 255 255 255 255 255 255 255 255 255 255 255 255 255 255 255 255 255 255 255 255 255 255 255 255 255 255 255 255 255 255 255 255 255 255 255 255 255 255 255 255 255 255 255 255 255 255 255 255 255 255 255 255 255 255 255 255 255 255 255 255 255 255 255 255 255 255 255 255 255 255 255 255 255 255 255 255 255 255 255 255 255 255 255 255 255 255 255 255 255 255 255 255 255 255 255 
255 255 255 255 255 255 255 255 255 255 255 255 255 255 255 255 255 255 255 255 255 255 255 255 255 255 255 255 255 255 255 255 255 255 255 255 255 255 255 255 255 255 255 255 255 255 255 255 255 255 255 255 255 255 255 255 255 255 255 255 255 255 255 255 255 255 255 255 255 255 255 255 255 255 255 255 255 255 255 255 255 255 255 255 255 255 255 255 255 255 255 255 255 255 255 255 255 255 255 255 255 255 255 255 255 255 255 255 255 255 255 255 255 255 255 255 255 255 255 255 255 255 255 255 255 255 255 255 255 255 255 255 255 255 255 255 255 255 255 255 255 255 255 255 255 255 255 255 255 255 255 255 255 255 255 255 255 255 255 255 255 255 255 255 255 255 255 255 255 255 255 255 255 255 255 255 255 255 255 255 255 255 255 255 255 255 255 255 255 255 255 255 255 255 255 255 255 255 255 255 255 255 255 255 255 255 255 255 255 255 255 255 255 255 255 255 255 255 255 255 255 255 255 255 255 255 255 255 255 255 255 255 255 255 255 255 255 255 255 255 255 255 255 255 255 255 255 255 255 255 255 255 255 255 255 255 255 255 255 255 255 255 255 255 255 255 255 255 255 255 255 255 255 255 255 255 255 255 255 255 255 255 255 255 255 255 255 255 255 255 255 255 255 255 255 255 255 255 255 255 255 255 255 255 255 255 255 255 255 255 255 255 255 255 255 255 255 255 255 255 255 255 255 255 255 255 255 255 255 255 255 255 255 255 255 255 255 255 255 255 255 255 255 255 255 255 255 255 255 255 255 255 255 255 255 255 255 255 255 255 255 255 255 255 255 255 255 255 255 255 255 255 255 255 255 255 255 255 255 255 255 255 255 255 255 255 255 255 255 255 255 255 255 255 255 255 255 255 255 255 255 255 255 255 255 255 255 255 255 255 255 255 255 255 255 255 255 255 255 255 255 255 255 255 255 255 255 255 255 255 255 255 255 255 255 255 255 255 255 255 255 255 255 255 255 255 255 255 255 255 255 255 255 255 255 
255 255 255 255 255 255 255 255 255 255 255 255 255 255 255 255 255 255 255 255 255 255 255 255 255 255 255 255 255 255 255 255 255 255 255 255 255 255 255 255 255 255 255 255 255 255 255 255 255 255 255 255 255 255 255 255 255 255 255 255 255 255 255 255 255 255 255 255 255 255 255 255 255 255 255 255 255 255 255 255 255 255 255 255 255 255 255 255 255 255 255 255 255 255 255 255 255 255 255 255 255 255 255 255 255 255 255 255 255 255 255 255 255 255 255 255 255 255 255 255 255 255 255 255 255 255 255 255 255 255 255 255 255 255 255 255 255 255 255 255 255 255 255 255 255 255 255 255 255 255 255 255 255 255 255 255 255 255 255 255 255 255 255 255 255 255 255 255 255 255 255 255 255 255 255 255 255 255 255 255 255 255 255 255 255 255 255 255 255 255 255 255 255 255 255 255 255 255 255 255 255 255 255 255 255 255 255 255 255 255 255 255 255 255 255 255 255 255 255 255 255 255 255 255 255 255 255 255 255 255 255 255 255 255 255 255 255 255 255 255 255 255 255 255 255 255 255 255 255 255 255 255 255 255 255 255 255 255 255 255 255 255 255 255 255 255 255 255 255 255 255 255 255 255 255 255 255 255 255 255 255 255 255 255 255 255 255 255 255 255 255 255 255 255 255 255 255 255 255 255 255 255 255 255 255 255 255 255 255 255 255 255 255 255 255 255 255 255 255 255 255 255 255 255 255 255 255 255 255 255 255 255 255 255 255 255 255 255 255 255 255 255 255 255 255 255 255 255 255 255 255 255 255 255 255 255 255 255 255 255 255 255 255 255 255 255 255 255 255 255 255 255 255 255 255 255 255 255 255 255 255 255 255 255 255 255 255 255 255 255 255 255 255 255 255 255 255 255 255 255 255 255 255 255 255 255 255 255 255 255 255 255 255 255 255 255 255 255 255 255 255 255 255 255 255 255 255 255 255 255 255 255 255 255 255 255 255 255 255 255 255 255 255 255 255 255 255 255 255 255 255 255 255 255 255 
255 255 255 255 255 255 255 255 255 255 255 255 255 255 255 255 255 255 255 255 255 255 255 255 255 255 255 255 255 255 255 255 255 255 255 255 255 255 255 255 255 255 255 255 255 255 255 255 255 255 255 255 255 255 255 255 255 255 255 255 255 255 255 255 255 255 255 255 255 255 255 255 255 255 255 255 255 255 255 255 255 255 255 255 255 255 255 255 255 255 255 255 255 255 255 255 255 255 255 255 255 255 255 255 255 255 255 255 255 255 255 255 255 255 255 255 255 255 255 255 255 255 255 255 255 255 255 255 255 255 255 255 255 255 255 255 255 255 255 255 255 255 255 255 255 255 255 255 255 255 255 255 255 255 255 255 255 255 255 255 255 255 255 255 255 255 255 255 255 255 255 255 255 255 255 255 255 255 255 255 255 255 255 255 255 255 255 255 255 255 255 255 255 255 255 255 255 255 255 255 255 255 255 255 255 255 255 255 255 255 255 255 255 255 255 255 255 255 255 255 255 255 255 255 255 255 255 255 255 255 255 255 255 255 255 255 255 255 255 255 255 255 255 255 255 255 255 255 255 255 255 255 255 255 255 255 255 255 255 255 255 255 255 255 255 255 255 255 255 255 255 255 255 255 255 255 255 255 255 255 255 255 255 255 255 255 255 255 255 255 255 255 255 255 255 255 255 255 255 255 255 255 255 255 255 255 255 255 255 255 255 255 255 255 255 255 255 255 255 255 255 255 255 255 255 255 255 255 255 255 255 255 255 255 255 255 255 255 255 255 255 255 255 255 255 255 255 255 255 255 255 255 255 255 255 255 255 255 255 255 255 255 255 255 255 255 255 255 255 255 255 255 255 255 255 255 255 255 255 255 255 255 255 255 255 255 255 255 255 255 255 255 255 255 255 255 255 255 255 255 255 255 255 255 255 255 255 255 255 255 255 255 255 255 255 255 255 255 255 255 255 255 255 255 255 255 255 255 255 255 255 255 255 255 255 255 255 255 255 255 255 255 255 255 255 255 255 255 255 255 255 255 255 255 255 
255 255 255 255 255 255 255 255 255 255 255 255 255 255 255 255 255 255 255 255 255 255 255 255 255 255 255 255 255 255 255 255 255 255 255 255 255 255 255 255 255 255 255 255 255 255 255 255 255 255 255 255 255 255 255 255 255 255 255 255 255 255 255 255 255 255 255 255 255 255 255 255 255 255 255 255 255 255 255 255 255 255 255 255 255 255 255 255 255 255 255 255 255 255 255 255 255 255 255 255 255 255 255 255 255 255 255 255 255 255 255 255 255 255 255 255 255 255 255 255 255 255 255 255 255 255 255 255 255 255 255 255 255 255 255 255 255 255 255 255 255 255 255 255 255 255 255 255 255 255 255 255 255 255 255 255 255 255 255 255 255 255 255 255 255 255 255 255 255 255 255 255 255 255 255 255 255 255 255 255 255 255 255 255 255 255 255 255 255 255 255 255 255 255 255 255 255 255 255 255 255 255 255 255 255 255 255 255 255 255 255 255 255 255 255 255 255 255 255 255 255 255 255 255 255 255 255 255 255 255 255 255 255 255 255 255 255 255 255 255 255 255 255 255 255 255 255 255 255 255 255 255 255 255 255 255 255 255 255 255 255 255 255 255 255 255 255 255 255 255 255 255 255 255 255 255 255 255 255 255 255 255 255 255 255 255 255 255 255 255 255 255 255 255 255 255 255 255 255 255 255 255 255 255 255 255 255 255 255 255 255 255 255 255 255 255 255 255 255 255 255 255 255 255 255 255 255 255 255 255 255 255 255 255 255 255 255 255 255 255 255 255 255 255 255 255 255 255 255 255 255 255 255 255 255 255 255 255 255 255 255 255 255 255 255 255 255 255 255 255 255 255 255 255 255 255 255 255 255 255 255 255 255 255 255 255 255 255 255 255 255 255 255 255 255 255 255 255 255 255 255 255 255 255 255 255 255 255 255 255 255 255 255 255 255 255 255 255 255 255 255 255 255 255 255 255 255 255 255 255 255 255 255 255 255 255 255 255 255 255 255 255 255 255 255 255 255 255 255 255 255 255 255 255 255 
255 255 255 255 255 255 255 255 255 255 255 255 255 255 255 255 255 255 255 255 255 255 255 255 255 255 255 255 255 255 255 255 255 255 255 255 255 255 255 255 255 255 255 255 255 255 255 255 255 255 255 255 255 255 255 255 255 255 255 255 255 255 255 255 255 255 255 255 255 255 255 255 255 255 255 255 255 255 255 255 255 255 255 255 255 255 255 255 255 255 255 255 255 255 255 255 255 255 255 255 255 255 255 255 255 255 255 255 255 255 255 255 255 255 255 255 255 255 255 255 255 255 255 255 255 255 255 255 255 255 255 255 255 255 255 255 255 255 255 255 255 255 255 255 255 255 255 255 255 255 255 255 255 255 255 255 255 255 255 255 255 255 255 255 255 255 255 255 255 255 255 255 255 255 255 255 255 255 255 255 255 255 255 255 255 255 255 255 255 255 255 255 255 255 255 255 255 255 255 255 255 255 255 255 255 255 255 255 255 255 255 255 255 255 255 255 255 255 255 255 255 255 255 255 255 255 255 255 255 255 255 255 255 255 255 255 255 255 255 255 255 255 255 255 255 255 255 255 255 255 255 255 255 255 255 255 255 255 255 255 255 255 255 255 255 255 255 255 255 255 255 255 255 255 255 255 255 255 255 255 255 255 255 255 255 255 255 255 255 255 255 255 255 255 255 255 255 255 255 255 255 255 255 255 255 255 255 255 255 255 255 255 255 255 255 255 255 255 255 255 255 255 255 255 255 255 255 255 255 255 255 255 255 255 255 255 255 255 255 255 255 255 255 255 255 255 255 255 255 255 255 255 255 255 255 255 255 255 255 255 255 255 255 255 255 255 255 255 255 255 255 255 255 255 255 255 255 255 255 255 255 255 255 255 255 255 255 255 255 255 255 255 255 255 255 255 255 255 255 255 255 255 255 255 255 255 255 255 255 255 255 255 255 255 255 255 255 255 255 255 255 255 255 255 255 255 255 255 255 255 255 255 255 255 255 255 255 255 255 255 255 255 255 255 255 255 255 255 255 255 255 255 255 255 255 
255 255 255 255 255 255 255 255 255 255 255 255 255 255 255 255 255 255 255 255 255 255 255 255 255 255 255 255 255 255 255 255 255 255 255 255 255 255 255 255 255 255 255 255 255 255 255 255 255 255 255 255 255 255 255 255 255 255 255 255 255 255 255 255 255 255 255 255 255 255 255 255 255 255 255 255 255 255 255 255 255 255 255 255 255 255 255 255 255 255 255 255 255 255 255 255 255 255 255 255 255 255 255 255 255 255 255 255 255 255 255 255 255 255 255 255 255 255 255 255 255 255 255 255 255 255 255 255 255 255 255 255 255 255 255 255 255 255 255 255 255 255 255 255 255 255 255 255 255 255 255 255 255 255 255 255 255 255 255 255 255 255 255 255 255 255 255 255 255 255 255 255 255 255 255 255 255 255 255 255 255 255 255 255 255 255 255 255 255 255 255 255 255 255 255 255 255 255 255 255 255 255 255 255 255 255 255 255 255 255 255 255 255 255 255 255 255 255 255 255 255 255 255 255 255 255 255 255 255 255 255 255 255 255 255 255 255 255 255 255 255 255 255 255 255 255 255 255 255 255 255 255 255 255 255 255 255 255 255 255 255 255 255 255 255 255 255 255 255 255 255 255 255 255 255 255 255 255 255 255 255 255 255 255 255 255 255 255 255 255 255 255 255 255 255 255 255 255 255 255 255 255 255 255 255 255 255 255 255 255 255 255 255 255 255 255 255 255 255 255 255 255 255 255 255 255 255 255 255 255 255 255 255 255 255 255 255 255 255 255 255 255 255 255 255 255 255 255 255 255 255 255 255 255 255 255 255 255 255 255 255 255 255 255 255 255 255 255 255 255 255 255 255 255 255 255 255 255 255 255 255 255 255 255 255 255 255 255 255 255 255 255 255 255 255 255 255 255 255 255 255 255 255 255 255 255 255 255 255 255 255 255 255 255 255 255 255 255 255 255 255 255 255 255 255 255 255 255 255 255 255 255 255 255 255 255 255 255 255 255 255 255 255 255 255 255 255 255 255 255 255 255 255 255 255 
255 255 255 255 255 255 255 255 255 255 255 255 255 255 255 255 255 255 255 255 255 255 255 255 255 255 255 255 255 255 255 255 255 255 255 255 255 255 255 255 255 255 255 255 255 255 255 255 255 255 255 255 255 255 255 255 255 255 255 255 255 255 255 255 255 255 255 255 255 255 255 255 255 255 255 255 255 255 255 255 255 255 255 255 255 255 255 255 255 255 255 255 255 255 255 255 255 255 255 255 255 255 255 255 255 255 255 255 255 255 255 255 255 255 255 255 255 255 255 255 255 255 255 255 255 255 255 255 255 255 255 255 255 255 255 255 255 255 255 255 255 255 255 255 255 255 255 255 255 255 255 255 255 255 255 255 255 255 255 255 255 255 255 255 255 255 255 255 255 255 255 255 255 255 255 255 255 255 255 255 255 255 255 255 255 255 255 255 255 255 255 255 255 255 255 255 255 255 255 255 255 255 255 255 255 255 255 255 255 255 255 255 255 255 255 255 255 255 255 255 255 255 255 255 255 255 255 255 255 255 255 255 255 255 255 255 255 255 255 255 255 255 255 255 255 255 255 255 255 255 255 255 255 255 255 255 255 255 255 255 255 255 255 255 255 255 255 255 255 255 255 255 255 255 255 255 255 255 255 255 255 255 255 255 255 255 255 255 255 255 255 255 255 255 255 255 255 255 255 255 255 255 255 255 255 255 255 255 255 255 255 255 255 255 255 255 255 255 255 255 255 255 255 255 255 255 255 255 255 255 255 255 255 255 255 255 255 255 255 255 255 255 255 255 255 255 255 255 255 255 255 255 255 255 255 255 255 255 255 255 255 255 255 255 255 255 255 255 255 255 255 255 255 255 255 255 255 255 255 255 255 255 255 255 255 255 255 255 255 255 255 255 255 255 255 255 255 255 255 255 255 255 255 255 255 255 255 255 255 255 255 255 255 255 255 255 255 255 255 255 255 255 255 255 255 255 255 255 255 255 255 255 255 255 255 255 255 255 255 255 255 255 255 255 255 255 255 255 255 255 255 255 255 255 255 
255 255 255 255 255 255 255 255 255 255 255 255 255 255 255 255 255 255 255 255 255 255 255 255 255 255 255 255 255 255 255 255 255 255 255 255 255 255 255 255 255 255 255 255 255 255 255 255 255 255 255 255 255 255 255 255 255 255 255 255 255 255 255 255 255 255 255 255 255 255 255 255 255 255 255 255 255 255 255 255 255 255 255 255 255 255 255 255 255 255 255 255 255 255 255 255 255 255 255 255 255 255 255 255 255 255 255 255 255 255 255 255 255 255 255 255 255 255 255 255 255 255 255 255 255 255 255 255 255 255 255 255 255 255 255 255 255 255 255 255 255 255 255 255 255 255 255 255 255 255 255 255 255 255 255 255 255 255 255 255 255 255 255 255 255 255 255 255 255 255 255 255 255 255 255 255 255 255 255 255 255 255 255 255 255 255 255 255 255 255 255 255 255 255 255 255 255 255 255 255 255 255 255 255 255 255 255 255 255 255 255 255 255 255 255 255 255 255 255 255 255 255 255 255 255 255 255 255 255 255 255 255 255 255 255 255 255 255 255 255 255 255 255 255 255 255 255 255 255 255 255 255 255 255 255 255 255 255 255 255 255 255 255 255 255 255 255 255 255 255 255 255 255 255 255 255 255 255 255 255 255 255 255 255 255 255 255 255 255 255 255 255 255 255 255 255 255 255 255 255 255 255 255 255 255 255 255 255 255 255 255 255 255 255 255 255 255 255 255 255 255 255 255 255 255 255 255 255 255 255 255 255 255 255 255 255 255 255 255 255 255 255 255 255 255 255 255 255 255 255 255 255 255 255 255 255 255 255 255 255 255 255 255 255 255 255 255 255 255 255 255 255 255 255 255 255 255 255 255 255 255 255 255 255 255 255 255 255 255 255 255 255 255 255 255 255 255 255 255 255 255 255 255 255 255 255 255 255 255 255 255 255 255 255 255 255 255 255 255 255 255 255 255 255 255 255 255 255 255 255 255 255 255 255 255 255 255 255 255 255 255 255 255 255 255 255 255 255 255 255 255 255 255 255 255 
255 255 255 255 255 255 255 255 255 255 255 255 255 255 255 255 255 255 255 255 255 255 255 255 255 255 255 255 255 255 255 255 255 255 255 255 255 255 255 255 255 255 255 255 255 255 255 255 255 255 255 255 255 255 255 255 255 255 255 255 255 255 255 255 255 255 255 255 255 255 255 255 255 255 255 255 255 255 255 255 255 255 255 255 255 255 255 255 255 255 255 255 255 255 255 255 255 255 255 255 255 255 255 255 255 255 255 255 255 255 255 255 255 255 255 255 255 255 255 255 255 255 255 255 255 255 255 255 255 255 255 255 255 255 255 255 255 255 255 255 255 255 255 255 255 255 255 255 255 255 255 255 255 255 255 255 255 255 255 255 255 255 255 255 255 255 255 255 255 255 255 255 255 255 255 255 255 255 255 255 255 255 255 255 255 255 255 255 255 255 255 255 255 255 255 255 255 255 255 255 255 255 255 255 255 255 255 255 255 255 255 255 255 255 255 255 255 255 255 255 255 255 255 255 255 255 255 255 255 255 255 255 255 255 255 255 255 255 255 255 255 255 255 255 255 255 255 255 255 255 255 255 255 255 255 255 255 255 255 255 255 255 255 255 255 255 255 255 255 255 255 255 255 255 255 255 255 255 255 255 255 255 255 255 255 255 255 255 255 255 255 255 255 255 255 255 255 255 255 255 255 255 255 255 255 255 255 255 255 255 255 255 255 255 255 255 255 255 255 255 255 255 255 255 255 255 255 255 255 255 255 255 255 255 255 255 255 255 255 255 255 255 255 255 255 255 255 255 255 255 255 255 255 255 255 255 255 255 255 255 255 255 255 255 255 255 255 255 255 255 255 255 255 255 255 255 255 255 255 255 255 255 255 255 255 255 255 255 255 255 255 255 255 255 255 255 255 255 255 255 255 255 255 255 255 255 255 255 255 255 255 255 255 255 255 255 255 255 255 255 255 255 255 255 255 255 255 255 255 255 255 255 255 255 255 255 255 255 255 255 255 255 255 255 255 255 255 255 255 255 255 255 255 255 255 
255 255 255 255 255 255 255 255 255 255 255 255 255 255 255 255 255 255 255 255 255 255 255 255 255 255 255 255 255 255 255 255 255 255 255 255 255 255 255 255 255 255 255 255 255 255 255 255 255 255 255 255 255 255 255 255 255 255 255 255 255 255 255 255 255 255 255 255 255 255 255 255 255 255 255 255 255 255 255 255 255 255 255 255 255 255 255 255 255 255 255 255 255 255 255 255 255 255 255 255 255 255 255 255 255 255 255 255 255 255 255 255 255 255 255 255 255 255 255 255 255 255 255 255 255 255 255 255 255 255 255 255 255 255 255 255 255 255 255 255 255 255 255 255 255 255 255 255 255 255 255 255 255 255 255 255 255 255 255 255 255 255 255 255 255 255 255 255 255 255 255 255 255 255 255 255 255 255 255 255 255 255 255 255 255 255 255 255 255 255 255 255 255 255 255 255 255 255 255 255 255 255 255 255 255 255 255 255 255 255 255 255 255 255 255 255 255 255 255 255 255 255 255 255 255 255 255 255 255 255 255 255 255 255 255 255 255 255 255 255 255 255 255 255 255 255 255 255 255 255 255 255 255 255 255 255 255 255 255 255 255 255 255 255 255 255 255 255 255 255 255 255 255 255 255 255 255 255 255 255 255 255 255 255 255 255 255 255 255 255 255 255 255 255 255 255 255 255 255 255 255 255 255 255 255 255 255 255 255 255 255 255 255 255 255 255 255 255 255 255 255 255 255 255 255 255 255 255 255 255 255 255 255 255 255 255 255 255 255 255 255 255 255 255 255 255 255 255 255 255 255 255 255 255 255 255 255 255 255 255 255 255 255 255 255 255 255 255 255 255 255 255 255 255 255 255 255 255 255 255 255 255 255 255 255 255 255 255 255 255 255 255 255 255 255 255 255 255 255 255 255 255 255 255 255 255 255 255 255 255 255 255 255 255 255 255 255 255 255 255 255 255 255 255 255 255 255 255 255 255 255 255 255 255 255 255 255 255 255 255 255 255 255 255 255 255 255 255 255 255 255 255 255 255 255 
255 255 255 255 255 255 255 255 255 255 255 255 255 255 255 255 255 255 255 255 255 255 255 255 255 255 255 255 255 255 255 255 255 255 255 255 255 255 255 255 255 255 255 255 255 255 255 255 255 255 255 255 255 255 254 253 255 254 253 253 255 255 255 253 253 254 254 255 254 254 255 253 254 254 254 255 254 254 254 253 253 253 254 254 254 253 254 254 254 253 255 254 254 254 255 254 255 254 253 254 254 254 253 253 254 254 255 253 255 254 254 254 254 254 254 255 255 255 255 255 255 253 254 255 254 254 254 254 254 254 253 253 253 255 254 255 254 253 255 253 255 253 253 255 254 253 254 255 253 253 254 254 255 255 255 254 254 254 254 253 254 254 255 254 254 255 254 254 255 254 255 254 253 255 253 255 255 254 253 254 255 253 255 254 253 255 255 255 255 253 253 255 253 255 254 255 253 253 253 255 254 255 253 253 255 254 253 253 250 247 254 255 252 247 210 175 169 77 74 79 50 0 0 0 0 0 1 0 0 0 0 0 0 1 0 0 0 25 85 79 63 135 184 184 238 248 255 255 249 249 251 253 254 251 251 252 253 253 255 253 254 254 255 254 255 255 253 254 253 254 254 254 254 253 255 254 254 255 254 254 254 254 255 254 254 253 253 253 255 254 254 254 254 253 255 254 254 254 254 254 254 255 255 253 255 254 254 254 253 255 254 254 254 253 254 253 255 255 254 254 253 254 255 253 253 254 254 254 253 255 255 253 253 254 255 255 254 254 254 255 254 253 254 255 254 253 253 254 254 254 255 255 254 255 254 255 254 254 254 255 254 255 254 253 253 255 255 254 254 254 255 255 253 255 254 254 254 254 254 255 255 254 255 255 254 255 255 255 255 254 253 255 253 255 253 253 254 254 254 253 255 255 255 255 255 255 255 255 255 255 255 255 255 255 255 255 255 255 255 255 255 255 255 255 255 255 255 255 255 255 255 255 255 255 255 255 255 255 255 255 255 255 255 255 255 255 255 255 255 255 255 255 255 255 255 
255 255 255 255 255 255 255 255 255 255 255 255 255 255 255 255 255 255 255 255 255 255 255 255 255 255 255 255 255 255 255 255 255 255 255 255 255 255 255 255 255 255 255 255 255 255 255 255 255 255 255 255 255 255 253 255 253 254 255 254 254 253 254 253 253 254 255 255 254 254 254 255 254 253 254 254 255 254 254 253 255 253 255 255 255 254 255 254 254 254 254 254 254 255 255 253 253 255 253 254 253 255 254 255 255 255 255 254 253 255 253 253 253 253 254 254 254 253 254 253 254 255 255 253 253 255 253 253 254 252 254 253 253 254 254 254 254 253 255 255 254 254 254 255 255 255 254 254 254 253 253 254 254 253 254 255 253 253 254 255 254 254 253 253 254 254 253 254 254 253 253 255 254 254 254 255 253 255 253 254 254 253 254 253 254 253 254 254 253 255 254 254 253 253 254 254 254 253 253 253 255 253 252 252 252 247 253 255 251 208 123 50 9 0 0 0 0 3 3 4 2 1 0 0 0 1 0 0 0 0 0 0 1 1 0 0 0 1 3 3 5 0 0 0 0 0 35 56 166 216 255 255 250 248 252 252 253 255 254 254 254 253 255 255 254 253 254 253 253 254 253 253 255 255 253 254 253 254 255 253 253 254 254 255 254 254 253 255 254 253 254 253 254 254 253 254 253 254 254 255 254 253 255 253 254 253 254 254 254 254 254 254 254 254 253 253 254 254 255 254 253 254 253 253 254 254 255 254 255 254 253 255 254 254 254 254 254 254 253 254 254 254 254 253 254 253 254 254 254 254 255 254 254 254 253 253 254 254 254 253 254 253 254 252 254 253 254 254 255 254 254 254 253 254 253 254 255 254 253 254 254 254 254 254 253 254 254 254 253 255 253 255 253 255 254 255 254 254 254 255 254 255 255 255 255 255 255 255 255 255 255 255 255 255 255 255 255 255 255 255 255 255 255 255 255 255 255 255 255 255 255 255 255 255 255 255 255 255 255 255 255 255 255 255 255 255 255 255 255 255 255 255 255 255 255 
255 255 255 255 255 255 255 255 255 255 255 255 255 255 255 255 255 255 255 255 255 255 255 255 255 255 255 255 255 255 255 255 255 255 255 255 255 255 255 255 255 255 255 255 255 255 255 255 255 255 255 255 255 255 253 254 252 253 253 254 254 254 253 255 254 255 253 253 255 254 253 255 255 254 254 255 254 254 254 254 254 254 253 253 254 255 254 255 254 254 255 253 254 254 254 255 253 255 253 253 254 254 253 253 254 253 253 254 255 254 254 254 253 253 255 254 253 253 253 254 255 253 253 254 253 254 253 254 254 254 255 254 254 254 254 253 255 255 253 254 253 253 255 254 254 253 253 253 254 254 253 253 254 253 254 255 255 254 254 255 254 253 253 255 254 254 255 255 254 253 253 253 254 254 253 255 254 254 253 253 254 253 254 254 253 253 253 255 254 254 254 254 254 254 254 254 253 254 253 254 255 252 245 253 255 228 140 51 1 0 1 7 2 1 0 0 0 0 0 1 0 0 0 0 0 1 0 0 0 0 0 0 1 0 0 1 0 0 0 0 0 1 0 0 1 3 4 7 0 0 10 74 173 247 255 249 249 254 255 252 252 253 253 255 254 253 253 252 254 255 254 253 255 253 253 255 255 253 254 255 253 254 253 254 254 254 255 253 254 253 253 254 254 254 254 253 253 253 253 254 253 255 253 254 254 254 254 254 254 253 254 254 254 255 255 255 253 254 253 255 253 253 254 254 255 253 254 253 254 254 253 254 254 255 254 254 253 255 253 255 253 255 254 255 254 254 253 255 254 253 254 255 254 253 254 254 253 255 254 253 254 253 254 254 254 254 254 253 253 254 254 255 255 254 253 254 255 254 254 254 255 254 254 254 253 254 255 254 254 254 253 254 254 253 253 255 254 254 254 254 254 255 255 255 255 255 255 255 255 255 255 255 255 255 255 255 255 255 255 255 255 255 255 255 255 255 255 255 255 255 255 255 255 255 255 255 255 255 255 255 255 255 255 255 255 255 255 255 255 255 255 255 255 255 255 
255 255 255 255 255 255 255 255 255 255 255 255 255 255 255 255 255 255 255 255 255 255 255 255 255 255 255 255 255 255 255 255 255 255 255 255 255 255 255 255 255 255 255 255 255 255 255 255 255 255 255 255 255 255 254 253 254 253 253 255 254 255 253 255 253 254 253 254 254 253 253 254 254 254 254 254 254 255 253 254 253 254 255 253 254 253 253 253 255 255 253 254 253 253 253 255 255 254 253 255 254 253 253 252 254 253 253 253 253 254 255 254 254 254 254 253 255 254 254 254 253 254 255 254 253 254 254 254 254 255 254 254 253 253 255 254 254 254 253 254 255 253 254 255 255 253 253 253 253 253 253 253 255 253 254 254 253 253 255 253 254 254 255 253 254 254 254 254 253 254 255 252 253 254 255 254 254 254 254 253 255 253 253 255 253 254 254 254 253 254 254 253 255 254 255 255 253 255 255 248 248 255 238 124 21 0 1 6 2 0 1 0 1 0 0 0 0 0 0 0 0 0 0 0 0 0 0 0 0 0 0 1 0 0 0 0 0 0 0 0 0 0 0 0 0 0 0 1 1 0 2 4 0 0 47 180 255 255 245 250 253 253 254 254 254 254 253 255 254 254 254 253 254 253 253 254 255 253 253 254 254 255 253 254 254 254 255 253 254 254 255 255 253 254 255 254 254 254 252 254 254 254 253 254 254 255 253 254 254 255 253 253 255 254 254 255 253 255 253 255 255 253 254 254 254 254 254 254 255 253 254 253 253 253 253 254 255 253 254 255 253 254 254 254 254 253 253 254 254 255 254 255 253 254 253 254 254 254 254 254 253 253 253 255 254 254 254 253 254 254 255 254 254 254 254 255 253 255 254 255 253 253 254 254 254 255 254 254 254 254 254 255 254 255 253 254 253 255 254 253 255 255 255 255 255 255 255 255 255 255 255 255 255 255 255 255 255 255 255 255 255 255 255 255 255 255 255 255 255 255 255 255 255 255 255 255 255 255 255 255 255 255 255 255 255 255 255 255 255 255 255 255 255 255 255 
255 255 255 255 255 255 255 255 255 255 255 255 255 255 255 255 255 255 255 255 255 255 255 255 255 255 255 255 255 255 255 255 255 255 255 255 255 255 255 255 255 255 255 255 255 255 255 255 255 255 255 255 255 255 254 254 255 254 252 254 254 253 254 254 254 254 253 255 255 253 254 253 254 254 253 254 253 254 254 254 254 253 253 254 254 255 254 253 254 255 254 254 253 253 254 253 253 254 254 254 254 253 253 254 254 253 254 254 254 253 254 253 254 254 254 254 254 254 254 253 253 254 255 254 253 253 254 254 254 253 254 253 254 254 253 255 254 254 254 253 253 254 254 253 254 254 254 252 254 253 253 254 253 253 253 255 254 253 254 254 254 255 253 254 253 254 254 254 253 253 255 254 253 253 254 254 253 254 254 255 254 254 254 253 254 253 255 254 254 254 253 254 255 254 254 255 254 243 253 255 185 39 0 1 4 1 2 1 0 0 0 0 0 0 0 0 0 1 0 1 0 0 1 0 0 0 0 0 0 0 0 0 0 0 0 0 0 0 0 0 1 0 0 0 0 0 0 0 0 0 0 1 2 1 4 0 10 96 218 255 248 247 255 255 254 254 254 253 253 253 255 254 254 254 254 253 253 255 254 253 253 253 255 255 254 255 253 255 254 254 254 254 254 255 255 253 254 254 255 254 255 254 255 253 253 255 254 254 254 255 253 253 254 254 254 253 253 253 254 254 253 253 252 254 253 254 255 254 254 254 255 253 253 253 253 255 254 253 254 253 254 254 254 254 255 253 253 254 253 253 254 255 253 254 253 254 254 255 254 253 253 254 254 253 254 254 255 253 253 254 254 254 255 254 255 253 254 254 253 253 254 253 254 254 254 254 253 253 255 255 255 253 253 255 254 252 255 254 254 254 255 255 255 255 255 255 255 255 255 255 255 255 255 255 255 255 255 255 255 255 255 255 255 255 255 255 255 255 255 255 255 255 255 255 255 255 255 255 255 255 255 255 255 255 255 255 255 255 255 255 255 255 255 255 255 
255 255 255 255 255 255 255 255 255 255 255 255 255 255 255 255 255 255 255 255 255 255 255 255 255 255 255 255 255 255 255 255 255 255 255 255 255 255 255 255 255 255 255 255 255 255 255 255 255 255 255 255 255 255 254 254 254 254 253 254 253 255 255 254 255 253 254 254 254 254 253 253 254 253 254 254 254 254 254 254 253 254 252 255 255 254 255 253 254 254 255 254 254 255 253 254 254 254 253 253 254 254 254 254 254 254 253 255 253 254 253 254 254 255 253 255 254 253 254 253 253 254 253 254 254 254 253 255 255 253 255 254 254 253 253 255 255 255 253 254 252 253 254 254 254 255 254 253 254 253 253 254 254 253 253 254 254 255 253 254 254 254 252 254 253 254 253 253 254 253 255 255 255 253 254 254 253 254 253 254 254 254 254 253 254 254 254 254 253 255 254 255 254 255 254 241 255 250 158 16 0 5 1 3 1 0 0 0 0 0 0 0 0 0 0 0 0 1 0 1 0 0 0 0 0 0 0 0 0 0 0 0 0 0 0 0 0 0 1 0 0 0 0 0 0 0 0 0 0 0 0 0 0 0 1 2 3 4 0 36 188 255 250 247 255 254 253 253 254 253 253 254 253 254 254 253 254 253 254 253 254 254 254 253 254 254 253 254 253 255 254 255 253 254 253 254 255 253 253 255 253 253 255 254 254 254 255 253 254 253 254 254 255 254 253 254 254 254 255 253 253 255 253 254 254 253 255 254 254 255 254 253 255 254 254 255 253 254 253 254 255 254 254 254 254 254 255 254 254 253 253 255 254 254 254 253 254 253 254 253 255 253 255 253 255 253 254 254 253 254 253 255 253 254 255 253 253 255 254 254 255 253 253 255 254 255 253 255 253 254 255 254 254 253 254 254 254 254 254 255 255 255 255 255 255 255 255 255 255 255 255 255 255 255 255 255 255 255 255 255 255 255 255 255 255 255 255 255 255 255 255 255 255 255 255 255 255 255 255 255 255 255 255 255 255 255 255 255 255 255 255 255 255 255 255 
255 255 255 255 255 255 255 255 255 255 255 255 255 255 255 255 255 255 255 255 255 255 255 255 255 255 255 255 255 255 255 255 255 255 255 255 255 255 255 255 255 255 255 255 255 255 255 255 255 255 255 255 255 255 254 255 253 254 254 253 254 253 253 255 253 253 254 253 254 254 253 254 253 253 253 254 255 255 253 253 254 253 252 254 254 254 254 253 253 254 253 253 254 254 253 254 254 253 253 255 253 254 254 254 254 254 254 255 254 254 254 254 254 255 254 254 255 253 253 253 254 254 254 254 253 255 254 255 253 254 255 253 254 254 254 253 255 253 254 252 254 254 254 255 253 255 254 254 254 254 254 254 254 254 253 253 254 255 254 255 254 253 255 253 254 252 254 254 254 253 254 254 255 254 254 253 255 253 253 254 253 254 254 254 255 254 254 254 253 254 254 255 254 243 255 250 113 3 1 3 2 1 0 0 0 0 0 0 0 0 0 0 0 0 0 0 0 0 0 0 0 0 0 0 0 0 0 0 0 0 0 0 0 0 0 0 0 0 1 0 0 0 0 0 0 0 0 0 0 0 0 0 0 0 0 0 0 1 2 2 0 33 188 255 249 247 255 255 254 252 253 253 253 253 254 254 255 254 255 254 255 253 255 252 253 254 254 253 253 255 254 255 253 254 253 255 254 253 253 254 254 252 254 254 254 254 254 253 253 254 254 255 254 253 253 254 255 253 254 254 254 253 254 254 253 254 255 253 253 254 254 253 255 254 253 253 254 253 253 255 255 253 254 253 254 254 255 253 254 253 254 254 254 254 254 254 254 254 254 253 255 254 254 253 255 253 253 254 253 254 254 255 253 253 253 254 254 254 254 253 253 254 254 255 255 253 254 254 254 253 255 254 255 254 254 255 253 254 255 253 255 255 255 255 255 255 255 255 255 255 255 255 255 255 255 255 255 255 255 255 255 255 255 255 255 255 255 255 255 255 255 255 255 255 255 255 255 255 255 255 255 255 255 255 255 255 255 255 255 255 255 255 255 255 255 
255 255 255 255 255 255 255 255 255 255 255 255 255 255 255 255 255 255 255 255 255 255 255 255 255 255 255 255 255 255 255 255 255 255 255 255 255 255 255 255 255 255 255 255 255 255 255 255 255 255 255 255 255 255 255 254 254 254 252 254 255 253 254 255 253 254 254 253 254 254 252 254 254 254 254 254 253 254 254 253 255 253 254 254 254 254 253 253 254 253 253 253 254 254 254 254 253 253 253 254 253 254 254 254 254 253 254 253 254 254 254 254 254 254 253 255 253 253 253 254 254 255 254 255 253 254 254 253 253 254 254 253 253 253 255 253 254 254 253 254 253 255 253 254 253 255 253 255 254 253 254 255 254 254 254 252 254 253 254 254 254 253 255 253 254 253 254 253 253 253 254 254 255 253 254 254 253 254 254 253 253 253 255 254 254 254 253 254 254 255 254 244 254 252 119 4 1 3 4 0 0 0 0 0 0 0 0 1 0 1 0 0 0 0 0 0 0 0 0 0 0 0 0 0 0 0 0 0 0 0 0 0 0 0 0 0 0 0 0 0 0 0 0 0 0 0 0 0 0 0 0 0 0 0 0 1 0 0 0 2 4 2 0 29 191 255 250 249 255 254 254 254 253 254 253 255 253 253 254 254 254 254 253 254 253 254 255 254 254 254 254 253 254 253 255 255 254 253 253 253 253 254 253 254 253 254 254 253 254 254 254 253 254 253 253 254 254 253 253 253 254 254 254 253 253 254 255 254 253 254 254 253 254 254 253 253 254 254 253 254 253 253 254 254 254 254 254 254 253 254 255 255 253 253 254 253 254 255 254 254 254 254 255 254 254 254 254 254 253 254 254 254 253 254 253 255 253 253 254 254 254 254 254 253 254 254 254 253 254 254 253 253 255 253 255 254 254 254 255 254 255 255 255 255 255 255 255 255 255 255 255 255 255 255 255 255 255 255 255 255 255 255 255 255 255 255 255 255 255 255 255 255 255 255 255 255 255 255 255 255 255 255 255 255 255 255 255 255 255 255 255 255 255 255 255 
255 255 255 255 255 255 255 255 255 255 255 255 255 255 255 255 255 255 255 255 255 255 255 255 255 255 255 255 255 255 255 255 255 255 255 255 255 255 255 255 255 255 255 255 255 255 255 255 255 255 255 255 255 255 254 253 255 253 254 254 254 254 254 254 253 254 253 254 255 254 254 253 253 254 255 254 253 254 254 254 253 253 254 254 254 253 254 254 254 254 254 253 254 254 254 254 252 253 253 254 254 255 254 255 254 254 254 253 255 253 253 253 253 254 253 253 253 253 254 254 254 253 253 255 253 253 254 253 254 253 253 254 254 254 254 254 254 254 253 253 254 254 253 254 254 253 253 254 252 254 254 254 255 254 255 253 254 253 254 253 254 254 253 252 253 254 253 254 253 253 255 254 253 253 254 254 253 254 254 254 253 253 254 255 254 254 254 255 255 247 252 255 159 11 1 4 3 0 0 0 0 0 0 0 0 0 0 0 0 0 0 0 0 0 0 0 0 1 0 0 0 0 0 0 0 1 0 0 0 0 0 0 0 0 0 0 0 0 0 0 0 0 0 0 0 0 0 0 0 0 0 0 0 1 0 0 0 0 0 0 0 0 4 1 0 46 218 255 247 251 255 252 253 254 253 255 254 254 253 253 254 254 253 254 254 252 253 254 254 255 253 252 255 252 255 253 253 254 253 254 253 254 253 253 254 255 254 254 255 254 255 253 254 254 253 254 255 254 254 252 254 253 255 253 254 254 254 255 254 252 253 254 255 254 253 253 253 253 254 253 254 253 254 255 254 253 254 255 254 254 253 254 254 254 254 255 253 253 254 254 254 254 254 255 253 255 254 254 254 252 254 253 254 254 253 254 254 254 253 254 254 254 254 254 254 254 253 254 253 254 254 254 254 254 254 255 255 253 255 255 254 255 255 255 255 255 255 255 255 255 255 255 255 255 255 255 255 255 255 255 255 255 255 255 255 255 255 255 255 255 255 255 255 255 255 255 255 255 255 255 255 255 255 255 255 255 255 255 255 255 255 255 255 255 255 
255 255 255 255 255 255 255 255 255 255 255 255 255 255 255 255 255 255 255 255 255 255 255 255 255 255 255 255 255 255 255 255 255 255 255 255 255 255 255 255 255 255 255 255 255 255 255 255 255 255 255 255 255 255 254 253 254 252 255 253 255 254 253 254 253 255 253 254 253 254 253 254 254 254 255 252 253 254 254 255 254 254 253 254 255 253 254 254 254 255 253 254 255 253 253 253 254 254 253 254 254 255 253 254 254 254 255 253 254 254 253 253 254 255 254 253 254 254 253 254 255 253 254 254 254 254 253 254 253 254 255 253 254 254 254 253 255 254 255 253 255 255 255 254 254 253 253 255 254 255 255 254 254 253 255 254 253 254 254 254 254 255 253 254 253 254 253 254 254 255 253 255 254 254 255 254 254 254 255 254 253 254 253 253 254 255 255 252 248 255 200 19 0 3 4 0 0 0 0 0 0 0 0 0 0 0 0 0 0 0 0 0 0 0 0 0 1 0 0 0 0 0 0 0 1 1 0 0 0 0 0 1 0 0 0 0 0 0 0 0 0 0 0 0 0 0 0 0 0 0 0 0 0 0 0 0 0 0 0 0 0 0 0 0 5 1 0 89 245 255 246 254 255 252 254 254 254 254 254 254 254 254 254 255 255 253 254 255 254 254 254 254 254 254 254 253 254 253 254 253 253 255 254 253 254 254 255 255 253 254 254 254 254 254 254 255 253 253 255 254 253 253 255 254 253 254 253 254 253 253 254 254 254 255 254 254 253 254 254 253 255 254 254 255 253 254 254 254 254 253 252 255 253 254 254 253 254 253 254 253 254 254 253 254 253 255 254 255 254 254 254 254 253 254 254 254 255 254 253 254 253 254 254 254 254 254 254 255 253 253 254 255 253 255 255 254 254 254 255 255 255 255 255 255 255 255 255 255 255 255 255 255 255 255 255 255 255 255 255 255 255 255 255 255 255 255 255 255 255 255 255 255 255 255 255 255 255 255 255 255 255 255 255 255 255 255 255 255 255 255 255 255 255 255 255 
255 255 255 255 255 255 255 255 255 255 255 255 255 255 255 255 255 255 255 255 255 255 255 255 255 255 255 255 255 255 255 255 255 255 255 255 255 255 255 255 255 255 255 255 255 255 255 255 255 255 255 255 255 255 255 255 253 254 254 254 254 254 254 254 253 253 254 254 253 254 254 254 254 254 254 254 253 255 253 254 254 254 254 254 255 254 253 254 253 254 253 253 255 254 254 254 255 254 253 254 254 254 253 255 253 254 253 254 254 254 253 252 254 253 254 255 254 255 253 253 254 254 254 254 254 255 252 255 253 254 254 254 254 253 254 253 255 253 254 255 254 254 255 253 254 254 254 254 255 254 253 254 254 254 254 253 254 254 253 252 254 253 254 255 253 254 254 254 255 254 253 255 254 253 254 253 253 255 253 255 254 254 253 255 255 254 246 255 247 72 0 3 4 0 0 0 0 0 0 0 0 0 0 0 0 0 0 0 0 0 0 0 0 0 0 0 1 0 0 0 0 0 0 0 0 0 0 0 0 0 0 1 0 0 0 0 0 0 1 0 0 0 0 0 0 0 0 0 0 0 0 1 0 0 0 0 0 0 0 0 0 0 0 0 0 1 5 0 0 154 255 252 249 255 254 254 253 253 253 255 254 253 254 253 255 254 254 254 254 254 253 254 254 254 253 254 255 253 254 254 254 255 254 254 253 253 254 254 254 253 254 254 253 255 253 254 254 253 255 253 254 253 253 254 253 254 254 254 253 255 255 254 254 254 254 254 253 254 253 254 255 253 254 254 253 254 254 253 254 253 254 254 254 253 254 253 255 254 254 254 255 254 253 252 254 253 254 254 254 254 254 253 254 255 254 254 253 254 254 254 254 253 253 253 253 254 253 254 255 253 253 254 254 254 255 254 254 254 255 253 254 255 255 255 255 255 255 255 255 255 255 255 255 255 255 255 255 255 255 255 255 255 255 255 255 255 255 255 255 255 255 255 255 255 255 255 255 255 255 255 255 255 255 255 255 255 255 255 255 255 255 255 255 255 255 
255 255 255 255 255 255 255 255 255 255 255 255 255 255 255 255 255 255 255 255 255 255 255 255 255 255 255 255 255 255 255 255 255 255 255 255 255 255 255 255 255 255 255 255 255 255 255 255 255 255 255 255 255 255 254 254 253 254 254 254 253 254 254 254 254 254 255 255 253 253 255 253 253 253 254 255 254 253 253 253 253 254 255 254 254 255 253 255 253 253 255 253 253 254 254 254 254 255 254 254 254 254 253 255 254 253 252 253 255 253 254 254 254 253 254 254 255 253 253 254 254 255 254 253 253 255 254 254 254 254 253 254 254 253 254 253 254 253 253 254 254 253 254 254 254 254 255 253 253 255 253 253 254 254 253 253 254 254 254 254 254 253 254 253 254 253 254 254 253 253 254 253 255 253 254 254 253 254 254 254 254 252 253 255 251 251 255 145 0 1 6 0 0 0 0 0 0 1 0 0 0 0 0 0 0 0 0 0 0 0 0 0 0 0 0 0 0 0 0 0 0 0 0 0 0 0 0 0 0 0 0 0 0 0 0 0 0 0 0 1 0 0 0 0 0 0 0 0 0 0 0 0 1 0 0 0 0 0 0 0 0 0 0 1 0 0 0 3 7 0 33 230 255 247 253 255 253 254 253 254 254 254 253 252 254 254 254 253 253 254 253 254 254 254 253 252 255 255 254 254 254 254 254 253 253 254 253 254 255 253 255 253 254 254 253 254 253 254 254 253 255 253 254 254 253 255 254 254 254 254 255 254 255 253 254 253 253 253 254 255 254 254 253 253 254 253 254 254 255 253 253 254 255 253 254 254 254 255 254 254 253 252 253 254 255 253 255 254 253 253 254 253 254 254 254 254 254 254 255 254 255 254 254 254 254 253 254 253 255 253 253 254 254 255 253 255 254 253 254 254 254 255 255 255 255 255 255 255 255 255 255 255 255 255 255 255 255 255 255 255 255 255 255 255 255 255 255 255 255 255 255 255 255 255 255 255 255 255 255 255 255 255 255 255 255 255 255 255 255 255 255 255 255 255 255 
255 255 255 255 255 255 255 255 255 255 255 255 255 255 255 255 255 255 255 255 255 255 255 255 255 255 255 255 255 255 255 255 255 255 255 255 255 255 255 255 255 255 255 255 255 255 255 255 255 255 255 255 255 255 254 252 254 254 253 254 253 254 253 254 254 254 254 254 255 252 255 254 254 254 254 254 254 253 255 253 253 255 253 255 253 254 254 255 254 253 254 254 253 253 254 254 253 254 255 253 253 255 254 253 255 253 254 254 253 254 254 254 255 253 253 254 254 253 253 254 254 254 255 253 254 254 255 253 254 255 253 254 254 254 255 254 253 254 254 254 255 255 255 253 254 254 254 254 254 254 254 254 254 254 253 255 253 255 254 255 253 254 254 254 255 254 255 253 253 254 255 253 254 254 254 254 253 254 253 254 254 254 252 248 254 238 36 0 8 1 0 0 0 1 0 0 0 0 0 0 0 0 0 0 0 0 0 0 0 0 0 0 0 0 0 0 0 0 0 0 0 0 0 0 0 0 0 0 0 0 0 0 0 0 0 0 0 0 0 0 1 0 0 0 0 0 0 0 0 0 0 0 0 0 0 0 0 0 0 0 0 0 0 0 0 0 0 0 0 5 4 0 132 255 251 250 255 253 254 253 254 254 254 254 254 254 254 254 254 254 254 254 254 254 253 253 254 254 254 253 254 254 253 254 253 254 253 254 254 253 254 253 254 253 254 255 253 254 254 255 254 254 254 255 254 254 254 254 255 253 255 253 255 253 254 254 254 254 254 255 254 254 253 254 254 253 254 254 253 254 252 255 254 254 254 254 254 255 255 254 254 253 253 254 254 255 253 254 254 254 254 254 253 253 254 254 254 254 255 254 253 254 254 254 255 253 255 254 253 254 254 254 253 255 253 254 254 253 254 255 253 255 255 255 255 255 255 255 255 255 255 255 255 255 255 255 255 255 255 255 255 255 255 255 255 255 255 255 255 255 255 255 255 255 255 255 255 255 255 255 255 255 255 255 255 255 255 255 255 255 255 255 255 255 255 
255 255 255 255 255 255 255 255 255 255 255 255 255 255 255 255 255 255 255 255 255 255 255 255 255 255 255 255 255 255 255 255 255 255 255 255 255 255 255 255 255 255 255 255 255 255 255 255 255 255 255 255 255 255 254 254 253 255 253 255 253 255 254 253 254 254 254 254 254 253 253 254 254 254 254 254 254 254 255 254 255 255 253 253 253 253 254 254 254 254 254 255 254 253 255 254 254 253 254 253 254 253 254 252 255 254 253 254 253 254 255 253 253 254 254 252 255 253 254 253 254 254 254 253 254 254 254 254 252 254 253 255 254 254 254 254 253 252 254 254 254 254 254 253 254 253 253 253 254 254 255 253 254 254 255 254 254 254 254 255 253 254 255 254 254 255 255 254 253 253 252 254 254 253 254 254 254 255 253 253 255 252 252 255 151 0 3 5 0 0 0 0 0 0 0 0 0 0 0 0 0 0 0 0 0 0 0 0 0 1 0 0 0 0 0 0 1 0 0 0 0 0 0 0 0 0 0 0 0 0 0 0 0 0 0 0 0 1 0 0 0 0 0 0 0 0 0 0 0 0 0 0 0 0 0 0 0 0 0 0 0 0 0 0 0 0 0 0 0 0 0 9 0 29 227 255 249 252 253 254 253 254 254 255 255 253 255 254 254 252 253 253 254 255 254 254 253 254 254 254 255 254 253 255 254 255 253 253 253 253 254 254 253 254 253 255 253 253 255 254 253 255 254 254 253 253 255 254 255 255 254 253 255 254 253 254 254 254 254 255 255 254 253 254 254 253 254 254 254 253 254 255 252 253 254 253 253 254 254 255 254 254 254 253 254 254 253 254 255 254 253 254 254 254 254 254 253 255 253 253 254 253 253 254 254 253 253 253 253 254 254 255 253 254 255 254 255 254 254 253 254 255 255 255 255 255 255 255 255 255 255 255 255 255 255 255 255 255 255 255 255 255 255 255 255 255 255 255 255 255 255 255 255 255 255 255 255 255 255 255 255 255 255 255 255 255 255 255 255 255 255 255 255 255 255 
255 255 255 255 255 255 255 255 255 255 255 255 255 255 255 255 255 255 255 255 255 255 255 255 255 255 255 255 255 255 255 255 255 255 255 255 255 255 255 255 255 255 255 255 255 255 255 255 255 255 255 255 255 255 253 255 254 252 253 255 254 255 255 252 253 255 255 253 254 254 253 254 254 254 254 253 254 254 253 254 254 255 254 253 254 253 254 253 253 255 253 254 255 253 253 254 255 254 254 254 253 253 253 252 255 254 254 253 254 254 254 254 253 254 254 254 255 254 253 253 254 254 254 254 254 253 254 255 253 253 254 254 254 255 254 254 254 254 252 254 254 252 254 254 254 254 254 254 253 254 254 254 253 253 254 254 253 253 253 254 255 254 253 254 253 255 254 255 254 254 254 254 255 253 255 254 255 254 254 253 253 251 248 76 0 8 0 0 0 0 0 0 0 0 0 0 0 0 0 0 0 0 0 0 0 0 0 0 0 0 0 0 0 0 0 0 0 1 0 0 0 0 0 0 0 0 0 0 0 0 0 0 0 0 0 0 0 0 0 0 0 0 0 0 0 0 0 0 0 0 0 0 0 0 0 0 0 0 1 0 0 0 0 0 0 0 0 0 0 0 0 0 2 4 0 134 255 251 251 254 254 254 253 255 254 254 253 253 254 254 253 255 253 253 253 255 253 254 253 254 254 254 254 254 254 254 253 254 254 254 254 255 254 253 253 254 254 254 254 254 254 254 254 254 254 254 253 254 255 254 253 254 253 254 255 253 253 253 254 254 253 254 254 254 254 253 253 253 255 253 253 252 254 254 254 253 254 254 253 255 252 254 254 253 254 254 255 254 254 254 254 253 253 254 255 253 254 253 253 254 255 254 253 255 253 255 254 254 254 253 253 253 254 253 253 255 255 254 255 253 255 255 255 255 255 255 255 255 255 255 255 255 255 255 255 255 255 255 255 255 255 255 255 255 255 255 255 255 255 255 255 255 255 255 255 255 255 255 255 255 255 255 255 255 255 255 255 255 255 255 255 255 255 255 255 
255 255 255 255 255 255 255 255 255 255 255 255 255 255 255 255 255 255 255 255 255 255 255 255 255 255 255 255 255 255 255 255 255 255 255 255 255 255 255 255 255 255 255 255 255 255 255 255 255 255 255 255 255 255 255 254 254 253 254 255 253 255 253 253 253 255 254 253 254 253 254 255 254 255 253 254 254 255 253 254 253 254 254 253 255 253 254 254 254 252 253 254 255 253 254 254 254 254 255 254 254 253 254 254 254 253 254 253 254 254 253 255 254 254 252 255 252 254 254 254 253 254 254 255 255 253 253 255 253 253 254 254 254 254 254 254 253 255 253 254 254 253 254 254 255 255 254 254 253 254 253 254 253 254 253 254 253 253 253 254 253 255 254 254 254 255 253 254 255 254 255 254 255 253 254 254 254 255 254 249 254 234 12 1 6 0 0 0 0 0 0 0 0 0 0 0 0 0 0 0 0 0 0 1 0 1 0 1 0 0 0 0 0 1 0 0 0 0 0 0 0 0 0 0 0 0 0 0 0 0 0 0 0 0 0 0 0 0 0 0 0 0 0 0 0 0 0 0 0 0 0 0 0 0 0 0 0 0 0 0 0 0 0 0 0 0 0 0 0 0 0 0 0 0 7 0 55 247 250 250 255 255 255 254 254 254 254 253 254 255 254 254 254 254 254 254 255 254 254 254 253 255 254 254 254 253 254 254 254 254 253 255 254 254 254 253 254 255 255 254 255 253 254 254 254 255 254 254 253 254 254 255 254 255 254 254 253 254 253 253 253 255 253 254 254 253 254 254 254 255 253 253 254 255 254 254 254 254 254 253 253 254 255 253 254 255 254 254 254 254 255 254 254 254 254 253 254 253 254 253 253 254 254 255 255 255 254 255 253 254 254 254 254 254 253 255 254 254 255 254 255 255 255 255 255 255 255 255 255 255 255 255 255 255 255 255 255 255 255 255 255 255 255 255 255 255 255 255 255 255 255 255 255 255 255 255 255 255 255 255 255 255 255 255 255 255 255 255 255 255 255 255 255 255 255 
255 255 255 255 255 255 255 255 255 255 255 255 255 255 255 255 255 255 255 255 255 255 255 255 255 255 255 255 255 255 255 255 255 255 255 255 255 255 255 255 255 255 255 255 255 255 255 255 255 255 255 255 255 255 255 254 254 254 254 254 254 254 254 254 253 254 254 254 253 253 254 255 253 252 253 255 254 254 253 253 254 254 253 253 254 254 254 255 254 253 253 254 255 253 253 255 254 255 254 253 254 254 255 254 254 253 254 254 255 253 254 255 255 253 254 254 253 253 254 253 254 254 255 254 255 253 254 253 253 254 254 253 253 254 253 254 253 254 255 253 253 254 254 254 254 254 254 254 254 255 253 253 254 253 255 254 254 252 253 255 253 255 255 253 254 254 253 253 254 254 255 254 254 254 253 253 253 254 249 255 164 0 6 1 0 0 0 0 0 0 0 0 0 0 0 0 0 0 0 0 0 1 0 0 0 0 0 0 0 0 0 0 0 0 0 0 0 0 0 0 0 0 0 0 0 0 0 1 1 0 0 0 0 0 0 0 0 0 0 1 0 1 0 0 0 0 0 0 0 0 0 0 0 0 0 0 0 0 0 0 0 1 1 0 0 0 0 0 0 0 0 0 0 0 0 3 3 7 220 255 252 255 255 255 253 253 254 254 253 255 254 254 253 254 254 253 254 253 254 254 254 254 254 254 255 252 254 254 254 254 253 255 253 255 254 254 253 254 254 253 253 254 255 254 255 255 254 253 253 255 254 254 254 254 253 255 255 254 254 253 253 254 253 255 254 252 254 255 254 254 254 255 253 254 253 254 253 254 255 253 254 253 255 255 254 253 253 254 254 253 254 255 253 254 253 254 253 255 254 254 253 254 254 254 255 254 253 254 254 255 254 255 254 254 255 255 254 253 254 254 254 255 255 255 255 255 255 255 255 255 255 255 255 255 255 255 255 255 255 255 255 255 255 255 255 255 255 255 255 255 255 255 255 255 255 255 255 255 255 255 255 255 255 255 255 255 255 255 255 255 255 255 255 255 255 
255 255 255 255 255 255 255 255 255 255 255 255 255 255 255 255 255 255 255 255 255 255 255 255 255 255 255 255 255 255 255 255 255 255 255 255 255 255 255 255 255 255 255 255 255 255 255 255 255 255 255 255 255 255 253 254 253 255 253 254 254 254 255 254 254 254 254 253 255 254 253 255 254 253 254 253 254 254 253 253 254 255 252 255 253 254 253 254 255 254 253 254 255 254 254 254 253 255 254 254 254 254 255 253 255 254 254 254 253 254 253 254 254 254 254 253 255 254 253 253 255 254 254 253 254 253 254 254 254 255 253 253 253 254 253 253 254 254 254 253 253 254 255 255 254 253 253 255 253 253 253 254 254 253 254 255 253 254 254 255 254 255 254 254 253 254 254 253 254 254 255 254 254 255 254 251 252 248 255 74 0 9 0 0 0 0 0 0 0 0 0 1 0 0 0 0 0 0 0 0 0 0 0 0 0 0 0 0 0 0 0 0 0 0 0 1 0 0 0 0 0 0 0 0 0 0 0 1 0 0 0 0 0 0 0 0 0 1 0 0 0 0 0 0 0 0 0 0 0 0 0 0 0 0 1 0 0 0 0 0 0 0 0 0 1 0 0 0 0 0 0 0 0 0 0 0 0 7 0 187 255 247 255 253 253 253 254 253 254 253 253 254 253 253 254 254 253 254 254 254 254 255 254 253 254 253 255 254 254 254 254 252 254 253 254 253 253 253 253 254 253 254 254 255 254 253 254 254 254 253 254 254 253 254 255 254 254 253 253 254 254 255 254 252 254 253 254 253 254 254 255 254 253 254 254 253 253 254 254 254 254 254 255 254 254 253 254 254 254 254 254 253 253 253 254 253 253 255 254 255 254 255 253 254 254 253 255 253 254 253 255 255 253 253 255 255 254 254 254 255 254 255 255 255 255 255 255 255 255 255 255 255 255 255 255 255 255 255 255 255 255 255 255 255 255 255 255 255 255 255 255 255 255 255 255 255 255 255 255 255 255 255 255 255 255 255 255 255 255 255 255 255 255 255 255 
255 255 255 255 255 255 255 255 255 255 255 255 255 255 255 255 255 255 255 255 255 255 255 255 255 255 255 255 255 255 255 255 255 255 255 255 255 255 255 255 255 255 255 255 255 255 255 255 255 255 255 255 255 255 255 253 254 254 253 254 254 254 253 254 254 253 253 254 254 254 254 252 254 254 255 253 254 255 253 253 253 254 253 253 253 255 254 254 254 253 253 255 255 255 252 254 254 254 252 254 253 254 254 255 255 254 254 254 254 255 253 254 253 254 253 254 254 255 253 255 253 253 254 254 254 253 254 254 254 254 253 254 255 253 254 253 253 255 254 254 254 254 255 253 254 253 253 255 255 252 253 254 254 254 254 254 254 254 255 253 253 255 254 254 254 254 254 254 255 253 254 254 255 254 255 250 251 253 48 1 3 0 0 0 0 0 0 0 1 0 0 0 0 0 0 0 0 1 0 0 0 0 1 0 0 0 0 0 0 0 0 0 0 0 0 0 0 0 0 0 0 0 0 0 0 0 0 0 0 0 0 0 0 0 0 0 0 0 0 0 0 0 0 0 0 0 0 0 0 0 0 0 0 0 0 0 0 0 0 0 0 0 0 0 0 0 0 0 0 0 0 0 0 0 0 0 0 0 10 0 87 255 249 252 252 254 254 254 253 253 253 255 254 254 255 252 255 254 254 255 253 254 254 255 253 254 254 254 254 254 254 253 254 255 253 254 254 254 253 254 254 253 253 255 254 253 254 254 254 255 253 254 254 253 255 254 253 254 254 254 253 254 254 254 253 253 254 254 254 255 254 253 255 254 253 254 253 255 253 253 255 254 254 254 253 254 255 254 253 254 254 253 254 253 254 253 253 254 254 254 255 254 254 254 254 253 255 253 254 253 254 253 254 254 253 254 255 253 255 254 255 255 255 255 255 255 255 255 255 255 255 255 255 255 255 255 255 255 255 255 255 255 255 255 255 255 255 255 255 255 255 255 255 255 255 255 255 255 255 255 255 255 255 255 255 255 255 255 255 255 255 255 255 255 255 
255 255 255 255 255 255 255 255 255 255 255 255 255 255 255 255 255 255 255 255 255 255 255 255 255 255 255 255 255 255 255 255 255 255 255 255 255 255 255 255 255 255 255 255 255 255 255 255 255 255 255 255 255 255 255 253 254 253 253 254 253 254 254 254 255 253 253 254 254 254 254 253 254 254 254 254 254 255 254 253 254 253 255 253 254 255 254 254 254 255 253 255 254 254 253 254 254 254 253 254 254 255 254 255 253 254 255 252 254 255 254 254 253 254 254 253 254 255 255 254 254 252 254 253 254 253 254 253 255 253 255 254 254 253 255 253 254 254 253 255 255 253 254 254 254 253 254 254 255 253 254 253 254 254 253 253 254 253 254 254 254 254 254 254 253 254 252 254 255 255 254 254 255 255 253 251 230 1 2 2 0 0 0 0 0 0 0 0 0 0 0 0 0 0 0 0 0 0 0 0 0 0 1 1 0 0 0 1 0 0 0 0 0 0 0 0 0 0 0 0 1 0 0 0 0 0 0 0 0 0 0 0 1 0 0 0 0 0 0 0 0 0 0 0 0 0 0 0 0 0 0 0 0 0 0 0 0 0 1 0 0 0 1 0 0 0 0 0 0 0 0 0 0 0 0 0 0 0 2 5 0 42 247 250 250 254 254 254 254 254 254 253 254 252 254 253 254 254 255 253 255 254 254 254 253 255 253 254 255 253 254 255 253 255 253 254 255 254 255 253 254 253 254 254 255 254 253 255 253 254 254 254 253 254 255 255 253 254 255 254 253 254 254 255 253 255 254 253 255 253 254 254 254 254 253 255 253 255 254 253 254 253 254 254 254 255 254 254 253 255 254 254 253 254 254 255 253 254 253 254 253 254 253 254 254 254 253 253 254 254 255 254 254 253 254 253 253 254 254 254 254 255 255 255 255 255 255 255 255 255 255 255 255 255 255 255 255 255 255 255 255 255 255 255 255 255 255 255 255 255 255 255 255 255 255 255 255 255 255 255 255 255 255 255 255 255 255 255 255 255 255 255 255 255 255 
255 255 255 255 255 255 255 255 255 255 255 255 255 255 255 255 255 255 255 255 255 255 255 255 255 255 255 255 255 255 255 255 255 255 255 255 255 255 255 255 255 255 255 255 255 255 255 255 255 255 255 255 255 255 255 253 255 254 255 253 254 253 253 254 253 253 253 255 254 255 254 253 252 254 254 255 254 253 253 255 253 255 255 253 254 253 254 255 254 253 253 255 254 254 254 254 253 253 255 254 253 253 254 254 254 254 252 253 254 253 254 254 254 254 253 255 253 254 254 253 254 253 254 254 254 254 253 254 254 254 255 253 254 253 255 253 253 254 253 255 254 254 253 255 254 253 254 254 255 254 254 255 253 254 253 253 254 255 253 253 254 255 252 253 254 254 253 254 253 254 254 253 252 253 253 226 0 6 0 1 0 0 0 0 0 0 0 0 0 0 0 0 0 1 0 0 0 0 0 0 0 0 0 0 0 0 0 0 1 0 0 0 0 0 0 0 1 0 0 0 0 0 0 0 0 0 1 0 0 0 0 1 0 0 0 0 0 0 0 0 1 0 0 0 0 0 0 0 0 0 0 0 0 0 0 0 0 0 0 0 0 0 0 0 0 0 0 1 0 0 0 0 0 0 0 0 0 1 0 0 1 5 6 245 250 254 255 253 255 254 255 253 254 253 253 255 253 254 255 253 255 255 255 253 254 255 253 254 253 254 253 253 255 254 254 253 255 254 254 253 254 255 254 254 253 254 255 253 253 254 254 254 253 254 253 254 253 254 253 254 253 254 252 255 254 254 254 255 252 253 254 255 255 255 254 254 254 253 254 253 254 253 254 254 254 253 254 254 253 255 254 253 253 255 255 254 253 254 254 253 254 254 254 253 254 254 253 254 254 254 254 253 254 253 255 254 254 253 255 255 253 255 255 255 255 255 255 255 255 255 255 255 255 255 255 255 255 255 255 255 255 255 255 255 255 255 255 255 255 255 255 255 255 255 255 255 255 255 255 255 255 255 255 255 255 255 255 255 255 255 255 255 255 255 255 
255 255 255 255 255 255 255 255 255 255 255 255 255 255 255 255 255 255 255 255 255 255 255 255 255 255 255 255 255 255 255 255 255 255 255 255 255 255 255 255 255 255 255 255 255 255 255 255 255 255 255 255 255 255 255 254 254 255 255 253 254 253 253 254 253 255 254 254 253 253 255 253 253 253 253 255 254 254 254 255 254 253 254 255 254 254 253 253 254 253 254 253 255 255 253 254 253 253 253 254 255 253 254 253 254 253 253 254 255 253 254 253 253 254 253 255 254 254 253 255 254 253 255 255 253 254 254 253 254 255 253 254 254 255 254 254 253 253 254 253 253 254 253 255 253 254 254 255 254 254 254 255 253 253 254 254 254 253 254 253 253 253 253 253 254 255 254 254 254 253 255 252 248 255 203 0 4 0 0 0 1 0 0 0 0 0 0 0 0 0 0 0 0 0 0 0 0 0 0 0 0 0 0 0 0 0 0 1 0 0 0 0 0 0 0 0 0 0 0 0 0 0 0 0 1 0 0 0 0 0 0 0 0 0 0 0 0 0 0 0 0 0 1 0 0 1 0 0 0 0 0 0 0 0 0 0 0 0 0 0 0 0 0 1 0 0 0 0 0 0 0 0 0 0 0 1 0 0 0 0 0 0 4 5 227 252 254 255 254 255 255 254 253 253 254 254 253 253 253 254 253 254 254 255 255 254 252 254 254 254 254 254 254 255 255 254 254 254 254 255 253 254 253 254 254 255 254 253 254 253 253 255 255 253 255 254 254 254 253 254 253 255 254 255 253 253 255 254 253 253 254 253 254 254 254 253 254 254 254 253 254 254 254 254 255 255 254 255 254 253 254 254 254 253 255 254 253 254 253 254 255 254 253 254 253 253 253 254 254 254 255 254 254 254 254 254 254 254 254 255 255 255 255 255 255 255 255 255 255 255 255 255 255 255 255 255 255 255 255 255 255 255 255 255 255 255 255 255 255 255 255 255 255 255 255 255 255 255 255 255 255 255 255 255 255 255 255 255 255 255 255 255 255 255 255 
255 255 255 255 255 255 255 255 255 255 255 255 255 255 255 255 255 255 255 255 255 255 255 255 255 255 255 255 255 255 255 255 255 255 255 255 255 255 255 255 255 255 255 255 255 255 255 255 255 255 255 255 255 255 253 254 255 253 253 254 254 253 255 255 254 254 253 253 254 254 253 253 253 254 253 254 254 255 253 253 255 254 253 253 254 254 254 253 254 254 255 253 253 255 253 253 253 253 253 254 253 253 254 253 254 253 253 253 255 253 253 255 253 253 254 253 254 255 252 253 254 254 255 253 253 254 254 253 253 255 254 254 253 253 253 254 255 254 255 254 253 254 255 253 253 253 254 253 254 253 254 254 254 254 253 253 255 254 255 255 253 253 255 253 254 253 255 254 254 254 255 250 255 184 0 7 1 0 0 1 0 0 0 0 0 0 0 0 0 0 0 0 1 0 0 0 0 0 0 0 0 0 1 0 0 0 0 1 0 0 0 0 0 0 0 0 0 0 0 0 0 0 0 0 0 0 1 0 0 0 0 0 1 1 0 0 0 0 0 0 1 0 0 0 0 0 0 0 0 0 0 0 0 0 1 0 0 0 0 0 0 0 0 0 0 0 0 0 0 0 0 0 0 1 0 0 0 0 0 0 0 0 0 4 0 213 253 253 255 254 255 255 253 253 253 253 253 254 253 254 254 254 255 254 255 253 253 254 253 255 254 254 255 253 255 255 254 255 254 253 253 254 254 253 254 255 253 253 255 254 253 254 254 255 254 254 253 254 254 254 254 253 253 253 254 253 253 253 255 254 253 254 254 255 254 253 254 254 254 254 255 253 254 255 255 254 254 254 254 254 255 254 253 254 253 254 253 255 254 253 253 255 255 254 253 254 254 255 253 253 254 254 253 255 254 254 254 254 254 254 254 255 255 255 255 255 255 255 255 255 255 255 255 255 255 255 255 255 255 255 255 255 255 255 255 255 255 255 255 255 255 255 255 255 255 255 255 255 255 255 255 255 255 255 255 255 255 255 255 255 255 255 255 255 255 
255 255 255 255 255 255 255 255 255 255 255 255 255 255 255 255 255 255 255 255 255 255 255 255 255 255 255 255 255 255 255 255 255 255 255 255 255 255 255 255 255 255 255 255 255 255 255 255 255 255 255 255 255 255 254 253 255 254 254 253 254 254 254 254 253 254 254 254 255 254 254 254 254 254 254 254 253 255 255 254 253 254 253 254 253 253 253 254 253 253 255 254 254 255 254 254 255 254 253 254 254 255 253 255 254 254 254 254 254 254 253 253 253 254 253 254 254 253 253 254 253 253 254 253 254 254 254 253 254 255 254 253 254 254 254 253 253 254 255 254 254 253 254 254 254 254 254 254 255 254 253 253 254 253 253 254 255 254 253 254 254 254 254 254 255 254 253 254 255 255 249 255 175 0 4 1 1 0 0 0 0 0 0 0 0 0 0 0 0 0 0 0 0 0 0 0 1 0 0 0 0 0 0 0 0 0 0 0 0 0 0 0 1 0 0 0 0 0 0 0 0 0 0 0 1 0 0 0 0 0 0 0 0 1 1 0 0 0 0 0 0 0 0 0 0 0 0 1 0 0 0 0 0 0 0 0 0 0 0 0 0 0 0 0 0 0 0 0 0 1 0 0 0 0 0 0 0 0 0 0 0 0 0 0 4 0 203 254 251 255 255 253 254 253 253 253 254 255 254 254 253 254 254 254 253 253 252 254 254 254 253 255 253 252 255 253 254 253 254 254 253 254 254 253 255 253 254 254 253 254 254 254 253 255 254 254 253 254 255 255 254 253 253 253 253 253 253 254 253 253 254 254 255 253 254 253 254 254 254 253 255 253 254 253 254 254 254 254 254 254 254 254 254 253 253 254 254 254 254 254 253 254 254 253 254 255 254 254 254 254 253 253 254 253 253 255 255 254 255 255 254 255 255 255 255 255 255 255 255 255 255 255 255 255 255 255 255 255 255 255 255 255 255 255 255 255 255 255 255 255 255 255 255 255 255 255 255 255 255 255 255 255 255 255 255 255 255 255 255 255 255 255 255 255 255 
255 255 255 255 255 255 255 255 255 255 255 255 255 255 255 255 255 255 255 255 255 255 255 255 255 255 255 255 255 255 255 255 255 255 255 255 255 255 255 255 255 255 255 255 255 255 255 255 255 255 255 255 255 255 255 253 254 254 253 254 254 255 253 254 254 253 253 254 253 254 255 254 254 253 255 253 254 254 255 254 253 254 253 255 253 255 252 253 254 254 255 255 255 254 255 253 253 254 254 254 254 253 254 253 254 254 255 255 253 253 253 252 254 254 254 253 254 253 254 255 254 253 253 253 254 255 253 253 254 253 254 255 253 253 254 253 252 254 254 254 254 254 252 253 254 254 253 255 255 254 253 254 254 253 253 254 253 253 254 253 253 255 254 254 253 254 254 254 255 249 255 173 0 5 0 0 1 0 0 0 0 0 0 0 0 0 0 0 0 0 0 0 0 0 0 0 0 0 0 0 0 0 0 0 0 0 0 0 0 0 0 0 0 0 0 0 0 0 0 0 0 0 0 0 0 0 0 0 0 0 0 0 0 0 0 0 0 0 0 0 0 0 0 0 0 0 0 0 0 0 0 0 0 0 0 0 0 0 0 0 0 0 0 0 0 0 1 0 0 0 0 0 0 0 0 1 1 0 0 0 0 0 0 0 0 4 0 193 255 249 253 252 254 253 254 254 255 253 255 254 253 253 254 254 254 254 253 254 253 254 254 255 254 254 254 253 254 254 254 255 253 254 255 254 254 253 253 255 254 255 254 254 254 253 255 254 253 254 254 255 254 253 254 254 253 253 253 255 253 254 254 254 254 253 254 254 255 254 254 253 254 252 254 253 254 254 253 254 255 254 254 254 255 253 253 254 253 254 254 253 254 254 254 254 254 253 254 253 254 254 254 252 253 254 254 255 255 255 254 254 254 255 255 255 255 255 255 255 255 255 255 255 255 255 255 255 255 255 255 255 255 255 255 255 255 255 255 255 255 255 255 255 255 255 255 255 255 255 255 255 255 255 255 255 255 255 255 255 255 255 255 255 255 255 255 
255 255 255 255 255 255 255 255 255 255 255 255 255 255 255 255 255 255 255 255 255 255 255 255 255 255 255 255 255 255 255 255 255 255 255 255 255 255 255 255 255 255 255 255 255 255 255 255 255 255 255 255 255 255 255 254 253 253 254 255 254 254 253 253 255 253 254 253 255 253 255 255 253 254 253 254 253 253 254 253 253 255 253 254 254 254 254 254 253 255 253 255 254 254 254 255 254 254 255 253 254 253 253 254 254 254 253 254 254 254 254 253 254 254 254 254 254 255 254 253 255 253 253 254 253 255 254 254 254 254 253 255 254 253 253 254 255 253 254 253 254 253 254 253 253 255 254 254 255 255 253 253 254 253 253 253 255 253 254 253 254 255 254 254 253 254 255 255 248 255 151 0 5 0 0 0 0 0 0 0 0 0 0 0 0 0 0 0 0 0 1 0 0 0 0 0 0 0 0 0 0 0 0 0 0 0 0 0 0 0 0 0 0 0 0 0 0 0 0 0 0 0 0 0 0 0 0 0 0 0 0 0 0 0 0 0 0 0 0 0 0 0 0 0 0 0 0 0 0 0 0 0 0 0 1 0 0 0 0 0 0 0 0 0 0 0 0 0 0 0 1 0 0 0 0 0 0 0 0 0 0 0 0 0 0 0 6 0 181 255 250 252 252 253 253 254 255 253 255 253 253 254 254 253 254 254 253 253 253 253 253 253 254 253 254 253 254 255 254 255 254 254 253 254 254 254 254 254 253 254 253 254 254 254 253 254 254 253 254 254 254 253 255 253 254 254 254 254 254 253 253 254 255 254 253 255 254 253 254 253 254 255 253 254 254 254 254 254 255 253 255 253 253 254 254 254 254 254 254 254 254 255 253 253 254 254 253 254 252 253 254 254 254 255 255 254 255 254 254 253 254 255 255 255 255 255 255 255 255 255 255 255 255 255 255 255 255 255 255 255 255 255 255 255 255 255 255 255 255 255 255 255 255 255 255 255 255 255 255 255 255 255 255 255 255 255 255 255 255 255 255 255 255 255 255 
255 255 255 255 255 255 255 255 255 255 255 255 255 255 255 255 255 255 255 255 255 255 255 255 255 255 255 255 255 255 255 255 255 255 255 255 255 255 255 255 255 255 255 255 255 255 255 255 255 255 255 255 255 255 254 253 252 254 254 254 253 253 254 255 253 254 255 254 255 253 253 254 253 254 253 255 253 254 253 253 255 253 254 254 254 254 253 255 253 253 254 255 253 254 254 255 254 253 255 253 254 253 254 255 253 255 253 254 253 254 254 254 252 253 254 255 255 253 255 254 255 253 253 255 254 254 255 254 254 255 253 253 254 254 254 254 255 254 255 253 253 253 253 254 253 254 254 254 254 254 253 254 255 253 253 254 255 254 254 253 254 255 254 254 254 253 255 247 255 135 0 5 1 1 0 0 0 0 0 0 0 0 1 0 0 0 0 0 0 0 0 1 0 0 0 0 0 0 0 0 0 0 0 0 0 0 0 1 0 0 0 0 0 1 0 0 0 0 0 0 0 0 0 0 0 0 0 0 0 0 0 0 0 0 0 0 0 1 0 0 0 0 0 0 0 0 0 0 0 0 0 0 0 0 0 0 0 0 0 0 0 0 1 0 0 0 0 0 0 1 0 0 0 0 0 0 0 0 0 0 0 0 0 0 0 0 0 4 0 177 255 250 252 254 254 254 254 254 253 254 254 253 254 253 254 254 253 254 253 254 254 253 253 253 255 254 255 253 253 255 254 255 253 254 253 253 255 254 254 253 253 254 253 254 253 255 254 254 253 253 254 254 253 253 255 255 254 254 254 254 253 254 253 255 253 253 253 254 255 254 255 254 254 253 253 254 254 254 253 254 253 254 253 255 255 254 254 254 254 255 254 253 254 253 253 254 253 255 253 254 255 254 254 254 254 255 255 253 253 253 254 255 255 255 255 255 255 255 255 255 255 255 255 255 255 255 255 255 255 255 255 255 255 255 255 255 255 255 255 255 255 255 255 255 255 255 255 255 255 255 255 255 255 255 255 255 255 255 255 255 255 255 255 255 255 
255 255 255 255 255 255 255 255 255 255 255 255 255 255 255 255 255 255 255 255 255 255 255 255 255 255 255 255 255 255 255 255 255 255 255 255 255 255 255 255 255 255 255 255 255 255 255 255 255 255 255 255 255 255 253 254 254 254 254 253 253 253 255 254 252 254 253 254 254 253 252 254 254 253 255 254 253 255 253 254 255 254 254 255 254 255 253 253 254 253 253 254 253 254 254 254 254 253 253 254 253 253 255 253 254 254 254 254 254 254 253 254 254 254 254 253 255 254 255 254 254 253 253 254 254 254 254 253 254 253 254 252 254 254 255 253 255 253 255 254 252 253 254 254 254 254 254 255 252 253 254 255 253 254 254 255 253 255 253 253 253 254 254 255 255 254 250 255 137 0 4 0 0 0 0 0 0 0 0 0 0 0 1 0 0 0 0 0 0 0 0 0 0 0 0 0 0 0 0 0 0 0 0 0 0 0 0 0 0 0 0 0 0 0 0 0 0 0 0 0 0 0 0 0 0 0 0 0 0 0 0 0 0 0 0 0 0 0 0 0 0 0 0 0 0 0 0 0 0 0 0 0 0 0 0 0 0 0 0 0 0 0 0 0 1 0 0 0 0 0 0 0 0 1 0 0 0 0 0 0 0 0 1 0 0 0 0 0 5 0 199 253 254 255 255 255 253 253 253 255 255 253 255 253 255 253 253 253 253 253 254 253 253 254 253 254 254 253 253 254 255 254 255 254 254 253 253 255 255 253 254 254 254 253 254 255 253 254 254 254 255 255 254 253 254 254 252 254 253 254 253 255 253 255 254 254 254 254 254 255 254 253 255 253 253 254 253 253 254 254 254 254 253 254 254 253 253 253 253 255 253 253 254 254 254 254 253 254 253 255 253 254 254 253 255 255 254 254 253 254 254 255 255 255 255 255 255 255 255 255 255 255 255 255 255 255 255 255 255 255 255 255 255 255 255 255 255 255 255 255 255 255 255 255 255 255 255 255 255 255 255 255 255 255 255 255 255 255 255 255 255 255 255 255 255 
255 255 255 255 255 255 255 255 255 255 255 255 255 255 255 255 255 255 255 255 255 255 255 255 255 255 255 255 255 255 255 255 255 255 255 255 255 255 255 255 255 255 255 255 255 255 255 255 255 255 255 255 255 255 254 254 255 254 255 254 254 254 254 253 254 253 253 253 254 253 253 255 254 254 253 252 254 253 253 255 254 254 254 254 255 255 253 252 254 255 253 254 255 254 255 254 254 254 254 254 254 253 254 254 253 254 253 255 253 254 254 253 254 255 253 254 255 255 253 253 254 255 255 253 253 253 254 254 254 254 254 253 254 254 253 253 253 254 252 254 254 253 255 253 254 254 255 254 254 254 254 253 254 253 253 253 254 254 253 253 254 253 253 254 255 250 255 123 0 4 0 0 0 0 0 0 0 0 0 0 0 0 0 0 0 0 0 0 0 0 0 0 0 0 0 0 0 0 0 0 0 0 0 0 0 0 1 0 0 0 0 0 0 0 0 0 1 0 0 0 0 0 0 0 0 0 0 0 0 0 1 0 0 0 0 1 0 0 0 0 0 0 0 0 0 0 0 0 0 0 0 0 0 0 0 0 0 0 0 0 0 0 0 0 0 1 0 0 0 0 0 0 0 0 0 0 0 0 0 0 0 0 0 0 0 0 0 0 0 4 0 234 252 254 255 253 254 253 253 254 254 255 255 253 254 253 253 253 255 253 254 253 255 253 254 253 253 254 254 254 255 254 254 255 254 254 253 254 254 255 255 254 255 254 254 253 254 252 255 253 255 255 254 253 255 254 254 253 253 254 253 255 253 254 254 255 254 253 254 253 254 255 254 254 254 254 254 254 255 253 254 253 254 253 254 254 254 254 254 253 254 254 253 253 254 253 254 255 254 254 253 253 255 254 255 254 254 254 255 255 254 255 255 255 255 255 255 255 255 255 255 255 255 255 255 255 255 255 255 255 255 255 255 255 255 255 255 255 255 255 255 255 255 255 255 255 255 255 255 255 255 255 255 255 255 255 255 255 255 255 255 255 255 255 255 
255 255 255 255 255 255 255 255 255 255 255 255 255 255 255 255 255 255 255 255 255 255 255 255 255 255 255 255 255 255 255 255 255 255 255 255 255 255 255 255 255 255 255 255 255 255 255 255 255 255 255 255 255 255 255 254 253 254 252 254 255 254 253 254 254 253 253 254 253 254 254 255 254 255 254 253 254 253 254 254 255 253 254 253 253 255 254 253 253 255 255 253 255 253 253 253 253 253 253 254 254 255 253 254 254 254 254 254 255 255 255 254 253 253 253 255 255 253 255 254 254 254 255 254 254 254 255 254 254 255 253 253 253 255 254 254 253 254 253 254 254 254 254 253 254 253 253 254 255 253 253 254 255 253 253 254 255 255 254 253 254 255 253 254 250 255 204 0 6 0 0 0 0 0 0 0 0 0 0 0 0 0 0 0 0 0 0 0 0 0 0 0 0 0 0 0 0 0 0 0 0 0 0 0 0 0 0 0 0 0 0 0 0 0 0 0 0 0 0 0 0 0 0 0 0 0 0 0 0 0 0 0 0 0 0 0 0 0 1 0 0 0 0 0 1 0 0 0 0 1 0 0 0 0 0 0 0 0 0 0 0 0 1 0 0 1 0 0 0 0 0 0 0 0 0 0 0 0 0 0 1 0 0 1 0 0 0 0 0 0 3 3 242 252 254 253 253 253 253 253 253 253 253 255 253 254 254 254 255 254 255 254 252 253 254 254 254 253 255 255 253 254 254 253 254 254 254 254 254 252 253 254 253 254 255 255 254 253 253 254 254 254 253 255 253 255 254 253 254 254 253 254 253 254 253 255 254 254 253 253 254 255 253 255 254 255 253 254 253 253 254 253 254 253 254 254 254 255 255 254 254 255 253 253 253 254 255 254 255 253 255 253 254 254 253 254 254 253 255 254 254 255 255 255 255 255 255 255 255 255 255 255 255 255 255 255 255 255 255 255 255 255 255 255 255 255 255 255 255 255 255 255 255 255 255 255 255 255 255 255 255 255 255 255 255 255 255 255 255 255 255 255 255 255 255 
255 255 255 255 255 255 255 255 255 255 255 255 255 255 255 255 255 255 255 255 255 255 255 255 255 255 255 255 255 255 255 255 255 255 255 255 255 255 255 255 255 255 255 255 255 255 255 255 255 255 255 255 255 255 255 255 253 254 253 254 253 255 253 254 254 253 253 255 254 254 253 255 254 253 255 254 254 253 253 253 253 254 254 255 253 253 253 253 254 255 255 254 253 253 253 253 254 253 254 255 255 252 254 253 254 254 254 254 255 255 253 253 253 254 254 255 254 254 254 254 254 253 255 254 255 254 254 254 254 255 253 253 254 255 254 255 253 253 255 254 253 253 253 253 254 254 253 254 255 253 253 253 254 255 254 254 254 255 255 254 254 254 254 252 255 204 0 4 0 0 0 0 0 0 0 0 0 0 0 0 0 0 0 0 0 0 0 0 0 0 0 0 0 0 0 0 0 0 1 0 0 0 0 0 0 0 0 0 0 0 0 0 0 0 0 0 0 0 0 0 0 0 0 0 0 0 0 0 0 0 0 0 0 0 0 0 0 0 1 0 1 0 0 0 0 0 0 0 0 0 0 0 0 0 0 0 0 0 0 0 0 0 0 0 0 0 0 0 1 1 0 0 0 0 1 0 0 0 0 0 0 0 0 0 0 0 0 0 0 0 1 3 6 234 253 252 253 254 254 254 254 253 254 254 253 255 255 253 254 254 253 254 253 254 254 254 255 252 254 255 254 254 254 253 255 254 254 253 255 253 254 253 254 254 254 255 253 255 254 255 255 253 255 254 253 254 254 254 254 253 253 254 253 255 253 255 254 255 254 253 254 253 254 254 253 254 253 254 253 254 254 254 253 253 254 255 254 254 254 253 254 253 254 253 255 255 254 253 254 253 255 255 255 253 253 254 255 255 254 254 254 255 255 255 255 255 255 255 255 255 255 255 255 255 255 255 255 255 255 255 255 255 255 255 255 255 255 255 255 255 255 255 255 255 255 255 255 255 255 255 255 255 255 255 255 255 255 255 255 255 255 255 255 255 255 
255 255 255 255 255 255 255 255 255 255 255 255 255 255 255 255 255 255 255 255 255 255 255 255 255 255 255 255 255 255 255 255 255 255 255 255 255 255 255 255 255 255 255 255 255 255 255 255 255 255 255 255 255 255 255 253 253 255 254 254 254 253 254 254 253 255 254 254 253 255 253 253 254 254 252 254 255 254 255 253 253 254 255 254 254 254 254 255 253 255 254 255 254 253 253 253 254 254 255 254 253 253 253 253 253 254 254 254 254 253 253 254 253 255 253 253 254 253 255 254 253 253 253 254 254 253 254 254 254 255 255 253 255 253 254 253 253 253 253 255 253 253 254 253 254 253 254 253 254 253 253 253 254 253 254 253 254 253 254 254 255 254 252 254 198 0 4 0 0 0 0 0 0 0 0 0 0 0 0 0 0 0 0 0 0 0 0 0 0 0 0 0 0 0 0 0 0 0 0 0 0 0 0 0 0 0 1 0 0 0 0 0 0 0 1 0 0 0 1 0 0 0 0 0 0 0 0 0 0 0 0 0 0 0 0 0 0 0 0 0 0 0 0 0 0 0 0 0 0 0 0 0 0 0 0 0 0 0 0 0 0 0 0 0 0 0 0 0 0 0 0 0 0 0 0 0 0 0 1 0 0 0 0 0 0 0 0 0 0 0 0 0 4 13 254 250 254 255 254 254 254 254 255 253 253 253 254 254 254 254 253 254 253 254 254 255 254 253 254 255 255 253 255 255 254 254 252 253 255 253 255 254 253 253 255 254 253 255 254 253 254 253 253 255 254 254 255 255 253 254 254 254 255 253 254 255 253 254 254 254 253 254 254 254 253 254 255 254 254 254 254 254 254 255 254 254 254 252 253 253 254 253 254 252 254 255 253 253 254 255 254 254 254 255 254 253 254 255 254 254 254 255 255 255 255 255 255 255 255 255 255 255 255 255 255 255 255 255 255 255 255 255 255 255 255 255 255 255 255 255 255 255 255 255 255 255 255 255 255 255 255 255 255 255 255 255 255 255 255 255 255 255 255 255 255 
255 255 255 255 255 255 255 255 255 255 255 255 255 255 255 255 255 255 255 255 255 255 255 255 255 255 255 255 255 255 255 255 255 255 255 255 255 255 255 255 255 255 255 255 255 255 255 255 255 255 255 255 255 255 253 254 254 253 254 253 253 253 255 253 253 254 254 253 253 253 255 253 254 254 253 255 254 253 254 255 254 253 255 254 254 253 253 254 253 253 254 254 255 253 255 254 253 254 254 254 255 255 253 254 254 254 253 254 254 253 254 254 253 254 253 253 253 253 253 254 254 255 253 253 254 253 254 254 254 255 254 253 254 253 255 254 255 254 253 254 253 254 254 255 253 253 253 253 254 255 254 255 255 253 254 254 255 253 253 254 255 253 251 242 0 3 0 0 1 0 0 0 0 0 0 0 0 0 0 0 0 0 0 0 0 0 0 0 0 0 0 0 0 0 0 0 0 0 0 0 0 0 1 0 0 0 0 0 0 0 0 0 0 0 0 0 0 0 0 0 0 0 0 0 0 0 0 0 0 0 0 0 0 0 0 0 0 0 0 0 1 0 0 0 0 0 0 0 0 0 0 0 0 0 0 0 0 0 0 0 1 0 0 0 0 0 0 0 0 0 0 0 1 0 0 0 0 0 0 0 0 0 0 0 0 0 0 0 0 0 0 0 1 1 48 255 250 255 255 252 254 253 254 254 255 254 255 254 254 254 254 254 253 254 253 254 254 254 254 253 254 253 254 254 254 254 253 254 253 254 255 253 253 253 253 254 254 253 253 254 252 253 253 254 254 254 254 254 253 255 254 253 254 253 253 254 253 254 253 254 254 255 254 254 254 254 254 253 253 253 254 253 254 253 254 254 254 253 253 255 253 254 254 253 254 254 253 255 253 254 255 253 254 255 255 254 254 254 255 254 254 255 255 255 255 255 255 255 255 255 255 255 255 255 255 255 255 255 255 255 255 255 255 255 255 255 255 255 255 255 255 255 255 255 255 255 255 255 255 255 255 255 255 255 255 255 255 255 255 255 255 255 255 255 255 
255 255 255 255 255 255 255 255 255 255 255 255 255 255 255 255 255 255 255 255 255 255 255 255 255 255 255 255 255 255 255 255 255 255 255 255 255 255 255 255 255 255 255 255 255 255 255 255 255 255 255 255 255 255 254 255 253 253 253 254 253 253 254 253 254 254 254 255 253 255 253 254 253 254 255 255 255 254 254 254 254 254 255 253 254 253 254 255 253 253 255 254 255 254 253 254 253 254 254 254 253 254 255 254 253 254 253 254 255 254 255 253 253 253 254 255 254 255 254 254 254 253 254 254 254 255 254 255 253 255 255 253 254 255 253 253 253 255 253 253 253 253 253 255 255 255 253 252 254 255 254 255 254 255 255 254 254 255 253 255 254 253 247 13 1 0 0 0 0 0 0 0 0 0 0 0 0 0 0 0 0 0 0 0 0 0 0 0 0 0 0 0 0 0 0 1 0 0 0 0 0 0 0 0 0 0 0 0 0 0 0 0 0 0 0 0 0 1 0 0 0 0 0 0 0 0 0 0 0 0 0 0 0 0 0 0 0 0 0 0 0 0 0 0 0 0 0 0 0 0 0 0 0 0 0 0 0 0 1 0 0 0 0 0 0 0 0 0 0 0 1 0 0 0 0 0 0 0 0 0 0 0 0 0 0 0 0 0 0 0 0 0 0 2 0 102 255 251 255 253 253 253 255 255 254 255 254 254 253 253 253 253 255 255 253 254 254 255 254 254 254 253 255 255 253 253 255 254 253 255 252 254 253 254 253 254 253 254 254 254 253 253 253 254 253 255 254 254 255 255 255 254 254 253 254 253 255 254 254 255 254 253 253 254 254 253 253 254 253 254 254 253 254 254 253 253 255 254 254 253 254 254 254 254 254 254 254 253 253 253 255 254 254 253 255 255 254 255 254 255 253 255 255 255 255 255 255 255 255 255 255 255 255 255 255 255 255 255 255 255 255 255 255 255 255 255 255 255 255 255 255 255 255 255 255 255 255 255 255 255 255 255 255 255 255 255 255 255 255 255 255 255 255 255 255 
255 255 255 255 255 255 255 255 255 255 255 255 255 255 255 255 255 255 255 255 255 255 255 255 255 255 255 255 255 255 255 255 255 255 255 255 255 255 255 255 255 255 255 255 255 255 255 255 255 255 255 255 255 255 254 253 254 253 254 253 253 254 254 254 254 254 253 255 254 253 254 253 254 253 254 254 254 255 254 253 254 253 255 253 254 255 253 253 254 255 254 255 253 254 253 254 255 254 254 254 255 254 254 253 253 254 253 254 254 254 254 253 254 254 255 253 254 252 254 255 254 255 254 255 254 254 254 253 254 253 254 253 253 254 254 254 253 253 254 254 254 254 254 254 255 253 255 253 254 255 254 253 254 254 254 254 255 253 254 255 251 251 24 4 0 0 0 0 0 0 0 0 0 0 0 0 0 0 0 0 0 0 0 0 0 0 0 1 0 0 0 0 0 0 0 0 0 1 0 0 0 0 0 0 0 0 0 0 0 0 0 0 0 0 0 0 0 0 0 0 0 0 0 0 0 0 0 0 0 0 0 0 0 0 0 0 0 0 0 0 0 0 0 0 0 0 0 0 0 0 0 0 0 0 0 0 0 0 0 0 0 0 0 0 0 1 0 0 0 0 0 0 0 0 0 0 0 0 0 0 0 0 0 0 0 0 0 0 0 0 0 0 0 0 3 0 164 255 251 253 253 253 254 254 253 253 255 253 253 253 253 253 254 253 254 253 254 254 254 255 255 254 253 254 253 254 253 254 254 253 254 254 253 253 255 253 253 255 253 254 254 253 255 254 253 253 255 253 254 255 254 255 253 254 255 253 253 254 255 253 254 254 253 254 254 253 253 254 253 255 253 254 254 253 254 254 254 254 254 253 253 253 254 254 253 254 255 253 254 254 253 255 254 254 254 255 254 253 254 254 255 255 255 255 255 255 255 255 255 255 255 255 255 255 255 255 255 255 255 255 255 255 255 255 255 255 255 255 255 255 255 255 255 255 255 255 255 255 255 255 255 255 255 255 255 255 255 255 255 255 255 255 255 255 255 
255 255 255 255 255 255 255 255 255 255 255 255 255 255 255 255 255 255 255 255 255 255 255 255 255 255 255 255 255 255 255 255 255 255 255 255 255 255 255 255 255 255 255 255 255 255 255 255 255 255 255 255 255 255 254 254 254 254 254 254 254 253 254 255 255 255 254 254 255 254 253 253 254 254 255 255 254 253 253 253 253 253 254 253 254 253 254 254 255 254 254 253 254 254 254 254 254 254 253 253 253 254 255 254 255 253 254 255 254 254 255 254 254 255 255 254 254 252 254 254 253 255 255 253 254 254 253 253 254 253 254 255 255 253 255 255 254 254 254 254 253 254 255 253 253 254 252 255 253 254 254 254 253 253 254 254 254 254 254 248 255 76 0 1 0 0 0 0 0 0 0 0 0 0 0 0 0 0 0 0 0 0 0 0 0 0 0 0 0 0 1 0 0 0 0 0 0 0 0 0 0 0 0 0 0 0 0 0 0 0 0 0 0 0 0 0 0 0 0 0 0 0 0 0 0 0 0 0 1 0 0 0 1 0 0 0 0 0 0 0 0 0 0 0 0 0 0 0 0 0 0 0 0 0 0 0 0 0 0 0 0 0 0 0 0 0 0 0 1 0 0 0 0 0 0 0 0 0 0 0 0 0 0 0 0 0 0 0 0 0 0 0 0 0 0 7 0 218 251 251 253 255 254 253 254 253 254 253 255 254 253 253 254 255 253 253 255 254 254 253 253 254 255 255 253 254 253 253 253 255 254 254 253 254 253 255 254 254 254 254 255 253 255 254 255 253 254 253 254 255 254 254 253 253 254 255 254 255 254 253 255 255 254 253 253 254 255 255 254 253 253 253 253 254 255 253 254 253 254 254 253 253 254 254 254 254 255 254 253 253 253 253 255 254 254 255 253 253 255 254 255 255 255 255 255 255 255 255 255 255 255 255 255 255 255 255 255 255 255 255 255 255 255 255 255 255 255 255 255 255 255 255 255 255 255 255 255 255 255 255 255 255 255 255 255 255 255 255 255 255 255 255 255 255 255 
255 255 255 255 255 255 255 255 255 255 255 255 255 255 255 255 255 255 255 255 255 255 255 255 255 255 255 255 255 255 255 255 255 255 255 255 255 255 255 255 255 255 255 255 255 255 255 255 255 255 255 255 255 255 255 255 254 255 253 254 255 253 253 253 255 253 253 254 253 255 253 255 254 254 255 253 253 254 254 254 253 254 254 255 253 254 254 254 253 254 255 254 253 255 254 254 253 253 255 253 253 253 254 254 255 254 254 254 254 253 254 254 254 254 253 254 254 253 253 254 254 254 254 254 254 253 254 254 254 255 253 253 253 254 254 253 255 254 253 254 253 253 254 253 253 254 253 255 253 255 253 255 254 254 254 253 254 255 251 255 126 0 2 0 0 0 0 0 0 0 0 0 0 0 0 0 0 0 0 0 0 0 0 0 0 0 0 0 0 0 0 0 0 0 0 0 0 0 0 0 0 0 0 0 0 0 0 0 0 0 0 1 0 0 0 0 0 0 0 0 0 0 0 0 0 1 0 0 1 0 0 0 0 0 0 0 0 0 0 0 0 0 0 1 0 0 0 0 0 0 0 0 0 0 0 0 0 0 0 0 0 0 0 0 0 0 0 0 0 0 0 0 0 0 0 0 0 0 0 0 0 0 0 0 1 0 0 0 0 0 0 0 0 0 0 1 4 3 242 251 255 255 254 253 254 253 254 254 254 253 253 255 254 255 254 254 255 253 255 253 255 254 254 253 254 253 255 254 252 255 253 255 253 254 255 255 253 253 254 254 254 254 253 254 253 253 254 254 255 252 254 253 255 254 253 255 255 253 254 255 254 255 253 255 254 254 254 253 253 253 254 255 253 254 254 253 255 253 253 254 255 253 254 255 253 254 253 254 253 253 253 253 253 255 253 255 254 253 255 254 254 255 255 255 255 255 255 255 255 255 255 255 255 255 255 255 255 255 255 255 255 255 255 255 255 255 255 255 255 255 255 255 255 255 255 255 255 255 255 255 255 255 255 255 255 255 255 255 255 255 255 255 255 255 255 
255 255 255 255 255 255 255 255 255 255 255 255 255 255 255 255 255 255 255 255 255 255 255 255 255 255 255 255 255 255 255 255 255 255 255 255 255 255 255 255 255 255 255 255 255 255 255 255 255 255 255 255 255 255 255 254 253 253 254 254 253 253 253 253 253 254 254 253 254 253 254 254 254 253 254 253 253 255 253 253 254 254 254 253 253 254 254 253 253 253 254 254 254 254 255 254 253 253 253 254 254 254 254 254 254 255 255 254 253 255 255 254 254 255 253 254 253 254 255 253 254 254 254 253 255 253 254 253 253 255 254 253 254 253 255 253 254 254 253 255 253 254 255 254 254 254 255 254 253 254 253 255 255 253 254 255 254 255 254 175 0 4 0 0 0 1 0 0 0 0 0 0 0 0 0 0 0 0 0 0 0 0 0 0 0 0 0 0 0 0 0 0 0 0 0 0 0 0 0 0 0 0 0 0 0 0 0 0 0 0 0 0 0 0 0 0 0 0 0 0 0 0 1 0 0 0 0 0 0 0 0 0 0 0 0 0 0 0 0 0 0 0 0 0 0 0 0 0 0 0 0 0 0 0 0 0 0 0 0 0 0 0 0 0 0 0 0 0 0 0 0 0 0 0 0 0 0 0 0 0 0 0 0 0 0 0 0 0 0 0 0 0 0 0 1 0 0 1 33 255 249 255 253 253 254 253 255 253 253 253 253 253 255 253 254 253 253 254 253 253 254 255 254 254 253 254 254 254 253 253 255 254 255 254 255 253 253 253 255 253 255 255 253 255 254 254 254 253 255 253 254 254 254 253 253 255 254 254 253 254 254 255 253 255 253 253 255 253 253 254 255 254 254 255 254 254 254 253 253 253 254 253 255 255 254 255 252 254 254 253 253 255 253 255 254 253 255 254 255 253 254 255 255 255 255 255 255 255 255 255 255 255 255 255 255 255 255 255 255 255 255 255 255 255 255 255 255 255 255 255 255 255 255 255 255 255 255 255 255 255 255 255 255 255 255 255 255 255 255 255 255 255 255 255 255 
255 255 255 255 255 255 255 255 255 255 255 255 255 255 255 255 255 255 255 255 255 255 255 255 255 255 255 255 255 255 255 255 255 255 255 255 255 255 255 255 255 255 255 255 255 255 255 255 255 255 255 255 255 255 253 253 254 253 254 254 254 254 253 253 253 254 253 254 255 254 254 254 254 253 254 253 253 253 253 255 255 254 254 253 253 253 254 254 254 253 254 254 253 254 254 254 253 254 255 254 255 255 254 254 253 253 254 253 254 254 254 254 253 254 255 254 254 253 255 253 254 254 254 253 255 254 253 253 254 254 254 254 255 254 253 253 254 253 254 254 253 253 254 254 255 255 254 254 255 253 255 255 254 254 253 253 255 251 243 8 2 0 0 0 0 0 0 0 0 0 0 0 0 0 0 0 0 0 0 0 0 0 0 0 0 0 0 0 0 0 0 0 0 0 0 0 0 0 1 0 1 0 0 0 0 0 0 0 0 0 0 0 0 0 0 0 0 0 0 0 0 0 0 0 0 0 0 0 0 0 0 0 0 0 0 0 0 0 0 0 0 0 0 0 0 0 0 0 0 0 0 0 0 0 0 0 0 0 0 0 0 0 0 0 0 0 0 0 0 0 0 0 0 0 0 0 0 0 0 0 0 0 0 0 0 0 1 0 0 0 0 0 0 0 0 0 0 0 0 107 255 254 254 252 255 253 255 254 253 254 255 253 254 254 254 253 253 255 254 254 253 254 254 253 255 254 252 254 255 254 254 254 254 255 254 253 255 253 254 253 255 255 253 253 254 255 254 253 253 255 254 254 254 255 254 253 254 254 254 254 254 253 254 254 255 254 254 253 253 254 254 253 253 255 254 254 253 254 252 254 255 254 254 253 255 253 255 254 253 253 252 255 254 253 255 253 255 254 253 254 254 255 255 255 255 255 255 255 255 255 255 255 255 255 255 255 255 255 255 255 255 255 255 255 255 255 255 255 255 255 255 255 255 255 255 255 255 255 255 255 255 255 255 255 255 255 255 255 255 255 255 255 255 255 255 
255 255 255 255 255 255 255 255 255 255 255 255 255 255 255 255 255 255 255 255 255 255 255 255 255 255 255 255 255 255 255 255 255 255 255 255 255 255 255 255 255 255 255 255 255 255 255 255 255 255 255 255 255 255 254 253 255 253 255 254 254 255 255 253 255 254 253 255 254 255 253 255 255 253 254 253 253 252 253 255 254 255 254 254 253 254 255 254 254 253 254 254 253 254 254 254 255 254 255 254 254 254 254 254 253 253 255 253 254 253 255 255 252 254 253 255 255 254 254 254 254 254 255 253 255 254 253 254 254 253 254 254 253 254 253 254 255 254 255 255 253 254 254 253 254 255 253 255 253 254 254 255 255 254 254 254 249 255 11 4 0 0 0 0 0 0 0 0 0 0 0 0 0 0 0 0 0 0 0 0 0 0 0 0 0 0 0 0 0 0 0 0 0 0 0 0 0 0 0 0 0 0 0 0 0 0 0 0 0 0 0 0 0 1 0 0 0 0 0 0 0 0 0 0 0 0 0 0 0 0 0 0 0 0 0 0 0 0 0 0 0 0 0 0 0 0 0 0 0 0 0 0 0 0 0 0 0 0 0 0 0 0 0 0 0 0 0 0 0 0 0 0 0 0 0 0 0 0 0 0 0 0 0 1 0 0 0 0 0 0 0 0 0 1 0 0 0 0 2 0 186 253 252 252 254 255 254 253 253 254 253 253 255 253 253 255 253 255 253 254 254 254 254 255 253 253 254 254 254 253 255 254 254 254 255 253 254 255 254 254 253 254 253 253 253 254 254 254 254 254 254 253 255 255 253 255 254 253 253 254 253 252 255 255 254 254 253 255 254 255 255 253 253 254 253 254 253 253 255 254 254 253 254 253 253 254 254 253 253 253 254 253 254 254 255 255 254 255 254 254 254 255 255 255 255 255 255 255 255 255 255 255 255 255 255 255 255 255 255 255 255 255 255 255 255 255 255 255 255 255 255 255 255 255 255 255 255 255 255 255 255 255 255 255 255 255 255 255 255 255 255 255 255 255 255 
255 255 255 255 255 255 255 255 255 255 255 255 255 255 255 255 255 255 255 255 255 255 255 255 255 255 255 255 255 255 255 255 255 255 255 255 255 255 255 255 255 255 255 255 255 255 255 255 255 255 255 255 255 255 255 253 254 253 254 255 254 254 255 253 253 254 254 253 254 254 255 254 253 255 254 254 253 254 254 253 253 254 254 253 254 255 253 253 255 254 255 253 253 254 254 253 255 254 253 254 255 254 254 255 253 253 255 254 255 254 254 253 254 254 253 255 253 254 253 255 254 253 254 253 253 254 253 253 253 253 253 253 254 254 255 254 254 253 253 255 254 254 255 254 255 254 254 254 254 253 253 253 254 255 254 250 255 91 0 1 0 0 0 0 0 0 0 0 0 0 0 0 0 0 0 0 0 0 0 0 0 0 0 0 0 0 0 0 0 0 0 0 0 0 0 0 0 0 0 0 0 0 0 0 0 0 0 0 0 0 0 0 0 0 0 0 0 0 0 0 0 0 0 0 0 0 0 0 0 0 0 0 0 0 0 0 0 0 0 0 0 0 0 0 0 0 0 0 0 0 0 0 0 0 0 0 0 0 0 0 0 0 0 0 0 0 0 0 0 0 0 0 0 0 0 0 0 0 0 0 0 1 0 0 0 0 0 0 0 0 0 0 0 0 0 0 0 0 0 6 3 239 251 252 254 255 254 254 253 253 253 254 255 253 252 255 254 253 253 253 254 253 254 253 253 253 253 254 254 253 254 253 255 253 254 255 253 253 254 255 253 255 254 254 253 255 254 253 255 253 254 253 253 253 254 253 254 253 253 254 253 254 254 253 254 253 254 253 254 254 253 254 253 253 253 253 254 253 254 254 254 254 255 254 254 254 255 253 253 254 253 254 253 255 254 253 253 254 255 254 254 255 255 255 255 255 255 255 255 255 255 255 255 255 255 255 255 255 255 255 255 255 255 255 255 255 255 255 255 255 255 255 255 255 255 255 255 255 255 255 255 255 255 255 255 255 255 255 255 255 255 255 255 255 255 
255 255 255 255 255 255 255 255 255 255 255 255 255 255 255 255 255 255 255 255 255 255 255 255 255 255 255 255 255 255 255 255 255 255 255 255 255 255 255 255 255 255 255 255 255 255 255 255 255 255 255 255 255 255 254 254 254 254 253 254 253 254 254 254 253 253 254 253 254 253 254 255 254 253 254 255 254 254 254 253 253 254 253 254 254 254 253 254 253 253 255 254 253 254 254 254 253 254 254 255 254 254 255 255 253 253 254 253 254 254 254 254 255 254 254 254 254 253 254 255 254 254 253 254 253 254 254 253 253 255 254 254 253 254 254 254 254 255 253 254 253 255 254 254 254 254 255 255 254 253 253 254 254 254 254 255 157 0 2 0 0 0 0 0 0 0 0 0 0 0 0 0 0 0 0 0 0 0 0 0 0 0 0 0 0 0 0 0 0 0 0 0 0 0 0 0 0 0 0 0 0 0 0 0 0 0 0 0 0 0 0 0 0 1 0 0 1 0 0 0 0 0 0 0 0 0 1 0 0 0 0 0 0 0 0 0 0 0 0 0 0 0 0 0 0 0 0 0 0 0 0 0 0 0 0 0 0 0 0 0 0 0 0 0 0 0 0 0 0 0 0 0 0 0 0 0 0 0 0 0 0 0 0 0 0 0 0 0 0 0 0 0 0 1 0 0 0 0 0 2 2 30 255 251 255 254 255 255 254 254 253 254 253 254 254 255 255 252 253 254 254 254 255 254 253 253 253 254 254 254 253 253 254 254 253 255 253 253 253 254 254 253 255 254 254 253 253 253 254 254 254 255 252 254 254 253 254 254 254 253 253 253 255 253 254 254 253 253 254 254 253 255 254 254 253 253 253 255 254 254 254 254 254 253 255 254 254 253 254 254 253 253 254 254 254 253 255 254 255 254 255 255 255 255 255 255 255 255 255 255 255 255 255 255 255 255 255 255 255 255 255 255 255 255 255 255 255 255 255 255 255 255 255 255 255 255 255 255 255 255 255 255 255 255 255 255 255 255 255 255 255 255 255 255 255 
255 255 255 255 255 255 255 255 255 255 255 255 255 255 255 255 255 255 255 255 255 255 255 255 255 255 255 255 255 255 255 255 255 255 255 255 255 255 255 255 255 255 255 255 255 255 255 255 255 255 255 255 255 255 253 254 254 254 252 254 253 255 253 254 254 253 255 254 253 255 254 254 255 253 255 253 253 254 253 254 254 255 253 255 254 254 254 254 254 253 254 254 253 254 253 253 254 254 254 254 253 254 254 253 254 254 254 253 253 254 255 255 254 253 255 254 254 255 254 254 253 254 253 254 253 254 255 253 253 253 254 254 253 254 253 254 255 253 253 254 254 253 254 254 254 254 255 254 254 255 254 254 254 255 251 224 0 3 0 0 0 0 0 1 0 0 0 0 0 0 0 0 0 0 0 0 1 0 0 0 0 0 0 0 0 0 0 0 0 0 0 0 0 0 0 0 0 0 0 0 0 0 0 0 0 0 0 0 0 0 0 0 0 0 0 0 1 0 0 0 0 0 0 0 0 0 0 0 0 0 0 0 0 1 0 0 0 0 0 0 0 0 0 0 0 0 0 0 0 0 0 0 0 0 0 0 0 0 0 0 0 0 0 0 0 0 0 0 0 0 0 0 0 0 0 0 0 0 0 0 0 0 0 0 0 0 0 0 0 0 0 0 0 0 0 0 0 0 0 1 1 0 113 255 253 254 255 253 254 254 253 254 253 253 255 253 255 254 254 255 253 254 253 254 253 254 254 254 254 254 254 255 254 253 254 253 253 254 255 254 254 253 254 253 254 253 255 254 254 255 254 255 254 253 254 254 254 254 254 253 254 254 255 253 254 254 253 254 254 254 253 254 254 255 253 255 254 254 253 253 254 254 253 253 253 254 254 254 253 255 255 253 254 253 254 254 255 254 254 254 254 255 255 255 255 255 255 255 255 255 255 255 255 255 255 255 255 255 255 255 255 255 255 255 255 255 255 255 255 255 255 255 255 255 255 255 255 255 255 255 255 255 255 255 255 255 255 255 255 255 255 255 255 255 255 
255 255 255 255 255 255 255 255 255 255 255 255 255 255 255 255 255 255 255 255 255 255 255 255 255 255 255 255 255 255 255 255 255 255 255 255 255 255 255 255 255 255 255 255 255 255 255 255 255 255 255 255 255 255 253 255 254 254 253 255 253 253 254 254 254 255 254 255 254 253 254 255 253 255 254 254 254 254 253 254 254 254 255 255 255 254 254 253 254 253 253 254 254 254 253 253 254 254 254 254 254 253 253 254 255 254 254 254 254 253 254 254 252 254 255 255 254 253 254 254 254 254 253 254 253 255 255 253 255 253 254 253 254 253 252 254 254 254 254 255 254 253 253 254 255 253 253 254 255 255 254 254 255 248 255 22 3 0 0 0 0 0 0 0 0 0 0 0 0 0 0 0 0 0 0 0 0 0 0 0 0 0 0 0 0 0 0 0 0 0 0 0 0 0 0 0 0 0 0 0 0 0 0 0 0 0 0 0 0 0 0 1 0 0 0 0 0 0 0 0 0 0 0 0 0 0 0 0 0 0 0 0 0 0 0 0 0 0 0 0 0 0 0 0 0 1 0 0 0 0 0 1 0 0 0 0 0 0 0 0 0 0 0 0 0 0 0 0 0 0 0 0 0 0 0 0 0 0 0 0 0 0 0 0 0 0 0 0 0 0 0 0 0 0 0 0 0 0 0 1 0 3 0 221 251 255 254 253 255 254 253 253 253 255 253 254 254 254 253 254 254 252 252 254 254 255 255 254 253 253 254 253 254 254 254 254 253 254 255 253 254 254 254 254 254 254 255 253 254 254 253 255 253 253 254 253 254 254 253 254 255 253 254 254 254 253 253 254 254 253 254 254 253 255 254 254 253 254 253 253 253 255 253 253 253 254 254 255 253 254 254 254 255 253 254 254 254 253 254 253 253 255 255 255 255 255 255 255 255 255 255 255 255 255 255 255 255 255 255 255 255 255 255 255 255 255 255 255 255 255 255 255 255 255 255 255 255 255 255 255 255 255 255 255 255 255 255 255 255 255 255 255 255 255 255 
255 255 255 255 255 255 255 255 255 255 255 255 255 255 255 255 255 255 255 255 255 255 255 255 255 255 255 255 255 255 255 255 255 255 255 255 255 255 255 255 255 255 255 255 255 255 255 255 255 255 255 255 255 255 254 254 254 254 253 254 254 253 254 253 253 254 253 253 255 253 253 255 253 254 253 254 255 254 254 254 254 253 255 254 254 254 253 255 254 253 254 254 254 253 254 254 255 254 254 254 254 253 253 254 254 254 255 254 254 254 254 254 253 254 254 254 254 253 254 254 254 253 253 254 254 253 254 253 253 254 253 254 255 253 253 254 253 255 255 254 253 255 253 255 255 253 254 254 254 254 255 253 252 255 103 0 1 0 0 0 0 0 0 0 0 0 0 0 0 0 0 0 0 1 0 0 0 0 0 0 0 0 0 0 0 0 0 0 0 0 1 0 0 0 0 0 0 0 0 0 0 0 0 0 0 0 0 0 0 0 0 0 0 0 0 0 0 0 0 0 0 0 0 0 0 0 0 0 0 0 0 0 0 0 0 0 0 0 0 0 0 1 0 0 0 0 0 0 0 0 0 0 0 0 0 0 0 0 0 0 0 0 0 0 0 0 0 0 0 0 0 0 0 0 0 0 0 0 0 0 0 0 0 0 0 0 0 0 0 0 0 0 0 0 0 0 0 0 0 0 0 0 4 11 255 247 254 253 253 255 254 254 254 254 255 253 253 255 252 254 254 254 254 254 254 254 254 254 253 255 255 253 254 253 253 255 253 253 255 254 253 254 253 255 254 255 254 254 252 253 253 254 253 254 254 254 253 253 254 255 255 253 253 253 254 254 254 254 254 253 253 254 255 254 254 254 253 254 254 253 253 253 254 254 254 255 253 253 253 255 253 254 254 253 255 254 254 253 255 254 254 255 255 255 255 255 255 255 255 255 255 255 255 255 255 255 255 255 255 255 255 255 255 255 255 255 255 255 255 255 255 255 255 255 255 255 255 255 255 255 255 255 255 255 255 255 255 255 255 255 255 255 255 255 255 
255 255 255 255 255 255 255 255 255 255 255 255 255 255 255 255 255 255 255 255 255 255 255 255 255 255 255 255 255 255 255 255 255 255 255 255 255 255 255 255 255 255 255 255 255 255 255 255 255 255 255 255 255 255 254 254 254 255 254 254 253 253 254 254 254 254 254 253 254 253 255 254 254 253 253 253 254 255 254 253 254 253 254 254 253 255 253 255 255 253 254 254 255 252 255 253 253 254 255 254 253 254 254 254 254 254 254 253 254 254 253 253 253 254 253 253 254 253 253 254 254 255 254 255 255 253 254 255 253 255 253 254 254 253 255 253 253 255 254 255 254 255 254 254 254 254 255 254 255 255 254 254 252 200 0 3 0 0 0 0 0 0 0 0 0 0 0 0 0 0 0 0 0 0 0 0 0 0 0 0 0 0 0 0 0 0 0 0 0 0 0 0 0 0 0 0 0 0 0 0 0 0 0 0 0 0 0 0 0 0 0 0 0 0 0 1 0 0 0 0 0 0 0 0 0 0 0 0 0 0 0 0 0 0 0 0 0 0 0 0 0 0 0 0 0 0 0 0 0 0 0 0 0 0 0 0 0 0 0 0 0 0 0 1 0 0 0 0 0 0 0 0 0 0 0 0 0 0 0 0 1 0 0 0 0 0 0 0 0 0 0 0 0 0 0 0 0 1 0 0 0 0 0 1 78 255 249 252 253 254 254 254 254 254 255 253 254 254 254 254 254 253 254 254 253 253 254 255 254 253 255 254 255 253 254 253 253 254 253 254 255 253 254 254 253 254 254 255 254 254 254 253 253 255 253 254 253 253 253 253 255 253 253 254 253 255 254 254 255 253 254 254 253 254 253 255 254 253 254 253 254 253 254 254 254 255 253 253 255 255 253 254 253 254 255 253 255 253 254 254 254 255 255 255 255 255 255 255 255 255 255 255 255 255 255 255 255 255 255 255 255 255 255 255 255 255 255 255 255 255 255 255 255 255 255 255 255 255 255 255 255 255 255 255 255 255 255 255 255 255 255 255 255 255 255 
255 255 255 255 255 255 255 255 255 255 255 255 255 255 255 255 255 255 255 255 255 255 255 255 255 255 255 255 255 255 255 255 255 255 255 255 255 255 255 255 255 255 255 255 255 255 255 255 255 255 255 255 255 255 254 254 253 254 255 254 254 254 255 254 254 254 253 254 254 254 253 254 255 254 254 254 254 254 254 254 255 254 254 254 254 253 253 253 255 253 254 255 254 253 255 252 253 255 254 253 253 255 253 255 254 254 253 254 254 254 253 254 254 254 254 254 253 254 254 254 253 254 254 254 253 254 254 255 253 254 254 253 253 254 253 254 253 254 253 255 254 254 255 253 254 254 255 254 254 255 254 251 254 16 1 0 0 0 0 0 0 0 0 0 0 0 0 0 0 0 1 0 0 0 0 0 0 0 1 0 0 0 0 0 0 0 0 0 0 0 0 0 0 0 0 0 0 0 0 0 0 0 0 0 0 0 0 1 0 0 0 0 0 0 0 0 0 0 0 0 0 0 0 0 0 0 0 0 0 0 0 0 0 0 1 0 0 0 0 0 0 0 0 0 0 0 0 0 0 0 0 0 0 0 0 0 0 0 0 0 0 0 0 0 0 0 0 0 1 0 0 0 0 0 0 0 0 0 0 0 0 0 0 0 0 0 0 0 0 0 0 1 0 0 0 0 0 0 0 0 0 0 0 5 0 196 252 253 254 253 254 254 253 253 253 255 253 253 254 254 254 255 252 254 254 252 255 253 254 254 254 254 254 255 254 254 253 254 254 254 255 253 253 254 254 254 254 255 254 255 254 253 254 253 254 254 254 254 253 254 254 254 253 253 253 254 254 254 254 254 255 254 253 255 253 255 255 253 254 253 255 254 255 253 255 254 255 254 254 254 254 255 254 255 254 254 255 253 254 254 254 255 255 255 255 255 255 255 255 255 255 255 255 255 255 255 255 255 255 255 255 255 255 255 255 255 255 255 255 255 255 255 255 255 255 255 255 255 255 255 255 255 255 255 255 255 255 255 255 255 255 255 255 255 255 
255 255 255 255 255 255 255 255 255 255 255 255 255 255 255 255 255 255 255 255 255 255 255 255 255 255 255 255 255 255 255 255 255 255 255 255 255 255 255 255 255 255 255 255 255 255 255 255 255 255 255 255 255 255 254 255 253 254 255 253 254 255 254 254 253 253 253 254 255 255 254 254 255 254 254 254 254 254 254 254 255 253 255 253 255 254 254 253 254 254 253 254 254 254 253 254 254 255 253 254 254 253 254 254 253 254 254 253 254 254 253 252 255 253 253 253 253 255 253 254 254 253 254 254 253 254 254 254 254 254 254 254 253 255 253 254 254 254 254 254 254 253 254 254 255 254 255 254 255 254 254 255 83 0 0 0 1 0 0 0 0 0 0 0 0 0 0 1 0 0 1 0 0 0 0 0 0 0 0 0 0 0 0 0 0 0 0 0 0 0 0 0 0 0 0 0 0 0 0 0 0 0 0 0 0 0 0 1 0 0 0 0 0 0 0 1 0 0 0 0 0 0 0 0 0 0 0 0 0 0 0 0 0 0 0 0 0 0 0 0 0 0 0 0 0 0 0 0 0 0 0 0 0 0 0 0 0 0 0 0 0 0 0 0 0 0 0 0 0 0 0 0 0 1 0 0 0 0 0 0 0 0 1 0 0 0 0 1 0 0 0 0 0 0 0 0 0 0 0 0 0 0 0 2 4 12 254 250 255 254 255 255 254 254 253 254 254 253 253 254 254 255 253 253 255 254 254 253 254 254 254 254 254 255 253 255 254 254 254 255 253 254 254 254 254 255 254 255 253 255 254 253 253 254 254 253 254 254 254 254 255 254 252 254 253 253 254 254 254 254 255 254 254 254 254 255 254 253 254 254 254 253 254 254 254 253 255 253 253 253 254 253 255 253 254 255 253 253 254 254 254 255 255 255 255 255 255 255 255 255 255 255 255 255 255 255 255 255 255 255 255 255 255 255 255 255 255 255 255 255 255 255 255 255 255 255 255 255 255 255 255 255 255 255 255 255 255 255 255 255 255 255 255 255 255 
255 255 255 255 255 255 255 255 255 255 255 255 255 255 255 255 255 255 255 255 255 255 255 255 255 255 255 255 255 255 255 255 255 255 255 255 255 255 255 255 255 255 255 255 255 255 255 255 255 255 255 255 255 255 253 255 253 253 254 254 254 254 254 253 254 254 254 254 254 254 255 253 253 254 254 253 253 255 254 254 254 254 253 253 254 254 255 254 254 255 253 254 255 253 253 254 255 253 254 254 255 253 255 253 254 254 254 254 253 254 253 254 253 254 253 253 254 255 253 255 254 254 253 254 253 254 254 254 254 253 254 254 254 255 253 254 254 255 253 255 254 253 254 254 254 253 255 254 253 255 253 208 0 2 0 0 0 0 0 0 0 0 0 0 0 0 0 0 0 0 0 0 0 0 0 0 0 0 0 0 0 0 0 0 0 0 0 0 0 0 0 0 0 0 0 0 0 0 0 0 0 0 0 0 0 0 0 0 0 0 0 0 0 0 0 0 0 0 0 0 0 0 0 0 1 0 0 0 0 0 0 0 0 0 0 0 0 0 0 0 0 0 0 0 0 0 0 0 0 0 0 0 0 0 0 0 1 0 0 0 0 0 0 0 0 0 0 0 0 0 0 0 0 0 1 0 0 0 0 1 0 0 0 1 0 0 0 0 0 0 0 0 0 0 0 0 0 0 0 0 0 0 0 0 0 1 112 255 254 254 254 255 254 254 254 254 254 253 253 255 255 253 255 253 255 255 254 254 254 253 255 253 254 253 253 253 254 253 254 254 253 253 255 254 254 254 253 254 253 255 254 253 253 255 253 254 254 255 254 254 255 252 254 254 253 254 255 255 254 254 253 255 253 255 254 255 253 252 254 254 253 254 253 254 253 254 254 253 254 253 253 254 253 253 255 255 253 254 254 253 254 255 255 255 255 255 255 255 255 255 255 255 255 255 255 255 255 255 255 255 255 255 255 255 255 255 255 255 255 255 255 255 255 255 255 255 255 255 255 255 255 255 255 255 255 255 255 255 255 255 255 255 255 255 255 
255 255 255 255 255 255 255 255 255 255 255 255 255 255 255 255 255 255 255 255 255 255 255 255 255 255 255 255 255 255 255 255 255 255 255 255 255 255 255 255 255 255 255 255 255 255 255 255 255 255 255 255 255 255 253 254 253 254 255 255 254 253 254 254 255 254 255 254 254 254 253 254 253 255 255 254 254 252 253 254 253 255 253 253 255 254 254 255 254 253 254 255 254 253 255 253 253 254 255 253 254 253 254 253 254 254 254 253 254 255 254 253 254 254 255 254 254 253 255 254 253 253 253 255 253 254 254 253 254 255 253 253 255 254 253 254 253 253 254 254 253 254 255 254 253 253 255 252 254 252 255 19 2 0 0 0 0 0 0 0 0 0 0 0 0 0 0 0 1 0 0 0 0 0 0 0 0 0 0 0 0 0 0 0 0 0 0 0 0 0 0 0 0 0 0 0 0 0 0 0 0 0 0 0 0 0 0 0 0 0 0 0 0 0 0 0 1 0 0 0 0 0 0 0 1 0 0 0 0 0 0 0 0 0 0 0 0 0 0 0 0 0 0 0 0 0 0 0 0 0 0 0 0 0 0 0 0 0 0 0 0 0 0 1 0 1 0 0 1 0 0 0 0 0 0 0 0 0 0 0 0 1 0 0 0 0 0 0 0 0 0 0 0 0 0 0 0 0 0 0 0 0 1 0 0 3 0 235 251 255 253 254 254 254 254 255 254 253 253 253 253 254 254 255 253 254 252 253 253 254 255 253 254 253 254 254 253 252 255 254 253 253 254 253 254 254 253 254 254 253 254 253 253 255 253 255 253 254 254 254 252 254 254 254 254 254 253 254 254 254 253 255 253 255 253 255 253 254 253 254 253 255 254 253 254 254 253 254 254 254 254 255 253 253 255 253 254 254 253 253 255 255 255 255 255 255 255 255 255 255 255 255 255 255 255 255 255 255 255 255 255 255 255 255 255 255 255 255 255 255 255 255 255 255 255 255 255 255 255 255 255 255 255 255 255 255 255 255 255 255 255 255 255 255 255 
255 255 255 255 255 255 255 255 255 255 255 255 255 255 255 255 255 255 255 255 255 255 255 255 255 255 255 255 255 255 255 255 255 255 255 255 255 255 255 255 255 255 255 255 255 255 255 255 255 255 255 255 255 255 254 253 252 254 254 254 254 253 255 254 254 254 254 255 254 254 253 254 253 254 252 253 254 254 254 254 253 255 254 254 253 255 253 254 255 253 253 254 254 253 254 254 254 254 253 254 255 254 254 254 255 254 254 254 255 253 255 253 255 253 255 254 254 255 254 253 254 253 254 255 253 254 254 253 253 254 253 254 253 254 254 254 253 254 255 254 253 255 254 254 254 254 254 253 255 255 116 0 0 0 0 0 0 0 0 0 0 0 0 0 0 0 0 1 0 0 0 0 0 0 0 0 1 0 0 0 0 0 0 0 0 0 0 0 0 0 0 0 0 0 1 0 0 0 0 0 0 0 0 0 1 0 0 0 0 0 1 0 0 0 0 0 0 0 0 0 0 0 0 0 0 1 0 0 0 0 0 0 0 0 0 0 0 0 0 0 0 0 0 0 0 0 0 0 0 0 1 0 0 0 0 0 0 0 0 0 0 0 0 1 0 0 0 0 0 0 0 0 0 0 0 0 0 0 0 0 0 0 0 0 0 0 0 0 0 0 1 0 0 0 0 0 0 1 0 0 0 0 0 1 0 0 2 43 255 251 253 253 255 255 253 253 254 253 254 254 253 254 254 255 253 254 254 253 254 253 254 254 254 254 255 253 255 254 253 255 253 254 254 254 254 254 253 254 254 253 253 253 254 254 255 254 253 254 253 254 253 254 254 254 253 254 253 254 255 254 254 254 254 252 253 254 253 254 253 254 254 253 255 254 253 254 254 254 254 254 254 253 255 254 255 254 255 254 253 255 254 255 255 255 255 255 255 255 255 255 255 255 255 255 255 255 255 255 255 255 255 255 255 255 255 255 255 255 255 255 255 255 255 255 255 255 255 255 255 255 255 255 255 255 255 255 255 255 255 255 255 255 255 255 255 
255 255 255 255 255 255 255 255 255 255 255 255 255 255 255 255 255 255 255 255 255 255 255 255 255 255 255 255 255 255 255 255 255 255 255 255 255 255 255 255 255 255 255 255 255 255 255 255 255 255 255 255 255 255 254 254 254 253 253 255 255 253 255 254 253 254 254 254 253 253 254 253 254 254 254 254 255 253 254 253 254 254 255 254 253 253 254 254 254 254 253 254 253 254 253 254 253 254 253 254 254 254 254 254 254 254 255 254 254 253 254 253 253 254 253 253 254 253 253 253 255 253 253 254 254 255 254 253 254 254 255 254 254 253 254 253 253 254 253 255 255 255 253 252 254 255 253 255 250 237 0 4 0 0 0 0 0 0 0 0 0 0 0 0 0 0 0 0 0 0 0 0 0 0 0 0 0 0 0 1 0 0 0 0 0 0 0 0 0 0 0 0 0 0 0 0 0 0 0 0 0 0 0 0 0 0 0 0 0 0 0 0 0 0 0 0 0 0 0 0 0 0 0 0 0 0 0 0 0 0 0 0 0 0 0 0 0 0 0 0 0 0 0 0 0 0 0 1 0 0 1 0 0 0 0 0 0 0 0 0 0 0 0 0 0 0 0 0 0 0 0 0 0 0 1 0 0 0 0 0 0 0 0 0 0 0 0 0 0 0 0 0 0 0 0 0 0 0 0 0 0 0 0 0 0 0 1 0 171 254 255 252 254 254 254 253 255 253 255 255 253 253 254 253 255 254 255 253 255 255 253 253 253 254 254 254 254 255 254 255 254 255 253 254 253 254 254 255 253 254 253 253 254 253 255 254 254 254 253 255 254 253 255 255 253 253 253 255 253 254 253 254 253 253 255 253 254 253 254 253 253 255 253 254 252 255 253 253 253 254 254 254 254 255 253 255 253 254 254 254 254 255 255 255 255 255 255 255 255 255 255 255 255 255 255 255 255 255 255 255 255 255 255 255 255 255 255 255 255 255 255 255 255 255 255 255 255 255 255 255 255 255 255 255 255 255 255 255 255 255 255 255 255 255 255 
255 255 255 255 255 255 255 255 255 255 255 255 255 255 255 255 255 255 255 255 255 255 255 255 255 255 255 255 255 255 255 255 255 255 255 255 255 255 255 255 255 255 255 255 255 255 255 255 255 255 255 255 255 255 253 255 254 253 254 253 252 254 253 254 255 254 253 253 255 254 254 253 255 253 254 254 255 253 254 255 254 253 254 253 254 254 255 255 254 255 255 253 252 254 254 254 253 253 255 253 254 254 254 255 254 254 253 254 253 254 254 254 253 253 253 254 254 254 253 254 254 254 253 255 253 253 254 253 253 254 253 254 255 253 254 254 253 254 253 255 253 255 253 253 254 253 254 250 255 46 4 0 0 0 0 0 0 0 0 0 0 0 0 0 0 0 0 0 0 0 0 0 0 0 0 0 0 0 0 0 0 0 0 0 0 0 0 0 0 0 0 0 0 0 0 0 0 0 0 0 0 0 1 0 0 0 0 0 0 0 0 0 0 1 0 0 0 1 0 0 0 0 0 0 1 0 0 0 0 0 0 0 0 0 0 0 0 0 0 0 0 0 0 0 0 0 0 0 0 0 0 0 0 0 0 0 0 0 0 0 0 0 0 0 0 0 0 0 0 0 0 0 0 0 0 0 0 0 0 0 0 0 0 0 0 0 0 0 0 0 0 0 0 0 0 0 0 0 0 0 0 0 0 0 0 0 0 4 10 253 250 254 253 254 254 253 253 253 254 253 254 253 254 253 254 254 254 255 253 255 254 253 254 254 254 255 254 253 254 254 254 255 253 254 254 253 254 255 254 254 254 254 254 252 254 254 255 254 253 253 253 254 253 253 254 254 254 254 253 254 254 253 253 254 255 253 255 253 254 254 254 253 255 253 254 253 254 253 254 253 254 252 255 254 254 255 253 253 255 255 254 255 255 255 255 255 255 255 255 255 255 255 255 255 255 255 255 255 255 255 255 255 255 255 255 255 255 255 255 255 255 255 255 255 255 255 255 255 255 255 255 255 255 255 255 255 255 255 255 255 255 255 255 255 255 
255 255 255 255 255 255 255 255 255 255 255 255 255 255 255 255 255 255 255 255 255 255 255 255 255 255 255 255 255 255 255 255 255 255 255 255 255 255 255 255 255 255 255 255 255 255 255 255 255 255 255 255 255 255 253 255 255 254 255 254 253 254 255 253 253 254 252 253 254 254 253 253 254 254 255 255 253 253 253 254 254 255 253 254 255 255 254 253 254 254 254 253 254 253 253 254 253 254 253 254 254 254 254 254 255 252 255 254 253 254 253 254 253 254 254 255 253 255 253 255 253 254 253 254 254 253 255 254 254 254 254 252 254 254 253 255 254 254 254 255 253 254 253 255 254 254 255 253 175 0 2 0 0 1 0 0 0 0 0 0 0 0 0 0 0 0 0 0 0 0 1 0 0 0 0 0 0 0 0 0 0 0 0 0 0 0 0 0 0 0 0 0 0 0 0 0 0 0 0 0 0 0 0 0 0 0 0 0 0 0 0 0 0 0 0 0 0 0 0 0 0 0 0 0 0 0 0 0 0 0 0 0 0 0 0 0 0 0 0 0 0 0 1 0 0 0 0 0 0 0 0 0 0 1 0 0 0 0 0 0 0 0 0 0 1 0 0 0 0 0 0 0 0 1 0 0 0 0 0 0 0 0 0 0 0 0 0 0 0 0 0 0 0 0 0 0 0 0 0 0 0 0 0 0 0 0 0 0 0 111 255 255 253 253 255 253 253 254 254 254 254 254 254 254 254 254 253 255 253 253 254 254 253 254 253 254 253 254 254 253 254 253 255 254 254 254 254 255 253 252 254 253 254 253 254 254 253 254 254 253 254 253 255 253 253 254 254 254 253 253 255 253 254 254 254 253 253 254 253 255 255 253 254 254 254 254 255 253 253 253 254 253 255 254 253 254 255 253 254 255 254 255 255 255 255 255 255 255 255 255 255 255 255 255 255 255 255 255 255 255 255 255 255 255 255 255 255 255 255 255 255 255 255 255 255 255 255 255 255 255 255 255 255 255 255 255 255 255 255 255 255 255 255 255 255 
255 255 255 255 255 255 255 255 255 255 255 255 255 255 255 255 255 255 255 255 255 255 255 255 255 255 255 255 255 255 255 255 255 255 255 255 255 255 255 255 255 255 255 255 255 255 255 255 255 255 255 255 255 255 254 255 255 252 253 254 255 255 254 254 253 253 254 253 253 254 254 255 254 252 254 255 254 253 254 253 254 255 253 254 253 253 255 253 253 254 254 255 254 255 253 253 254 254 253 255 254 253 254 252 255 254 255 254 252 254 254 254 253 254 253 255 253 255 255 255 253 255 255 254 254 253 253 255 253 254 254 253 253 254 254 253 253 255 254 253 253 255 255 255 255 254 250 255 22 2 0 1 0 0 0 0 0 0 0 0 0 0 0 0 0 0 0 0 0 0 0 0 1 0 0 0 0 0 0 0 0 0 0 0 0 0 0 0 1 0 0 0 0 0 0 0 0 0 0 0 0 0 0 0 0 0 0 0 0 0 0 0 0 0 0 0 0 0 0 0 0 0 0 0 0 0 0 0 0 0 0 0 0 0 0 0 0 0 0 0 0 0 0 0 0 0 0 0 0 0 1 0 1 0 0 0 0 0 0 0 0 0 0 0 1 0 0 0 0 0 0 0 0 0 0 0 0 0 0 0 0 0 0 0 0 0 0 0 0 0 1 0 0 0 0 0 0 0 0 0 0 0 0 0 0 0 0 0 2 0 240 250 254 254 255 254 255 253 255 255 254 255 254 254 253 255 254 255 255 254 254 253 253 254 254 253 254 254 254 254 255 254 254 254 252 253 254 252 253 254 254 254 255 253 254 253 253 254 254 254 254 253 253 253 253 254 254 254 253 253 254 253 254 253 255 254 254 253 254 253 254 255 254 253 253 253 255 254 253 254 253 255 254 254 253 255 254 254 255 254 254 255 255 255 255 255 255 255 255 255 255 255 255 255 255 255 255 255 255 255 255 255 255 255 255 255 255 255 255 255 255 255 255 255 255 255 255 255 255 255 255 255 255 255 255 255 255 255 255 255 255 255 255 255 255 
255 255 255 255 255 255 255 255 255 255 255 255 255 255 255 255 255 255 255 255 255 255 255 255 255 255 255 255 255 255 255 255 255 255 255 255 255 255 255 255 255 255 255 255 255 255 255 255 255 255 255 255 255 255 253 254 253 254 254 254 253 255 255 253 253 253 254 253 253 254 254 253 255 253 254 253 254 254 254 253 254 253 254 253 254 253 255 255 253 255 254 253 254 255 253 254 253 253 253 255 254 254 255 253 255 255 253 254 253 254 255 253 255 253 253 254 254 253 254 253 255 254 255 254 254 254 252 254 254 253 254 254 254 253 255 254 253 254 253 255 253 253 255 254 255 255 255 148 0 0 0 0 0 0 0 0 0 0 0 0 0 0 0 0 0 0 0 0 0 0 0 0 0 0 0 0 0 0 0 0 0 0 0 0 0 0 0 0 0 0 0 0 0 0 0 0 0 0 0 0 0 0 0 0 1 0 0 0 0 0 0 0 0 0 0 0 0 0 1 0 0 0 0 0 1 0 0 0 0 0 0 0 0 0 0 0 0 0 0 0 0 0 0 0 0 0 0 0 0 0 0 0 0 0 0 0 0 0 0 0 1 0 0 1 0 0 0 0 0 0 1 0 0 0 0 0 0 0 0 0 0 0 0 0 0 0 0 0 0 0 0 0 0 0 0 0 0 0 0 0 0 0 0 0 0 0 0 0 0 1 77 255 254 254 253 255 253 253 255 255 255 254 254 254 255 254 254 255 254 254 255 253 254 254 255 254 254 253 254 253 254 254 255 255 254 254 254 253 254 255 254 255 252 253 253 255 254 254 253 255 253 255 255 253 254 254 254 255 254 253 254 253 254 254 253 254 254 253 254 254 254 253 255 253 254 253 254 253 253 254 253 254 254 255 253 253 254 255 254 254 254 255 255 255 255 255 255 255 255 255 255 255 255 255 255 255 255 255 255 255 255 255 255 255 255 255 255 255 255 255 255 255 255 255 255 255 255 255 255 255 255 255 255 255 255 255 255 255 255 255 255 255 255 255 255 
255 255 255 255 255 255 255 255 255 255 255 255 255 255 255 255 255 255 255 255 255 255 255 255 255 255 255 255 255 255 255 255 255 255 255 255 255 255 255 255 255 255 255 255 255 255 255 255 255 255 255 255 255 255 254 254 253 254 254 254 254 254 253 254 254 254 253 253 254 253 254 255 254 254 254 254 254 254 255 253 253 254 253 254 254 254 255 255 253 253 254 255 255 253 254 254 253 254 253 255 253 253 254 255 255 253 253 255 254 254 254 253 254 254 255 253 254 254 254 253 254 253 254 254 254 253 253 255 254 254 254 253 254 255 255 253 255 253 254 255 255 253 254 254 255 251 252 2 3 0 0 0 0 1 0 0 0 0 0 0 0 0 0 0 0 0 0 0 0 0 0 0 0 0 0 0 0 0 0 0 1 0 0 0 0 0 0 0 0 0 0 1 1 0 0 0 0 0 0 1 0 0 0 1 0 0 0 0 0 0 0 1 0 0 0 1 0 0 0 0 0 0 0 0 0 1 0 0 0 0 0 0 0 0 0 0 0 0 0 0 0 0 0 0 0 0 0 0 0 0 0 0 0 0 0 0 0 0 0 0 1 0 0 0 0 0 0 0 0 0 1 0 0 0 1 0 0 0 0 0 0 0 0 0 0 0 0 0 0 0 0 0 0 0 0 0 0 0 0 0 0 0 0 0 0 0 1 0 0 2 0 240 250 255 254 255 253 255 253 255 253 254 255 254 253 253 252 254 254 253 254 255 253 253 254 254 254 255 255 253 254 254 254 253 254 254 254 254 254 254 254 252 254 253 254 255 253 254 253 254 254 253 255 255 253 255 253 253 255 254 254 255 254 254 253 255 253 253 254 253 254 253 254 254 254 254 254 253 253 254 254 254 253 255 253 253 253 255 254 255 255 255 255 255 255 255 255 255 255 255 255 255 255 255 255 255 255 255 255 255 255 255 255 255 255 255 255 255 255 255 255 255 255 255 255 255 255 255 255 255 255 255 255 255 255 255 255 255 255 255 255 255 255 255 255 
255 255 255 255 255 255 255 255 255 255 255 255 255 255 255 255 255 255 255 255 255 255 255 255 255 255 255 255 255 255 255 255 255 255 255 255 255 255 255 255 255 255 255 255 255 255 255 255 255 255 255 255 255 255 254 254 254 253 254 254 254 255 253 254 253 255 253 253 255 254 254 253 254 255 254 253 254 254 255 254 254 253 255 254 253 253 255 255 253 253 254 253 253 253 253 254 254 254 255 254 253 254 254 254 253 254 253 253 253 253 253 254 253 254 255 254 254 254 253 255 253 253 253 255 253 253 255 253 253 254 253 253 254 254 254 253 253 253 255 254 255 254 254 254 255 255 122 0 0 0 0 0 0 0 0 0 0 0 0 0 0 0 0 0 0 0 0 0 0 0 0 0 0 0 0 0 0 0 0 0 0 0 0 0 0 0 0 0 0 0 0 0 0 0 0 0 0 0 0 0 0 0 0 0 0 0 0 0 0 0 0 0 1 0 0 0 0 0 0 0 0 0 0 0 0 0 0 0 0 0 0 0 0 0 0 0 0 0 0 0 0 0 0 0 0 0 0 0 0 0 0 0 0 0 0 0 0 0 0 0 0 0 0 0 0 0 0 0 0 0 0 0 0 0 1 0 0 0 0 0 0 0 0 0 0 0 0 0 0 0 0 0 0 0 0 0 0 0 0 0 0 0 0 0 0 1 0 0 0 0 1 71 255 254 254 254 254 254 253 253 254 254 253 254 255 253 253 253 254 254 255 253 254 254 253 254 255 255 254 254 255 253 253 254 253 252 253 253 254 254 254 253 254 254 254 252 253 254 254 254 254 254 253 254 255 253 255 254 253 255 254 254 253 253 254 253 253 255 254 255 254 255 255 254 253 253 253 254 252 253 254 254 255 253 255 254 255 255 254 255 254 255 255 255 255 255 255 255 255 255 255 255 255 255 255 255 255 255 255 255 255 255 255 255 255 255 255 255 255 255 255 255 255 255 255 255 255 255 255 255 255 255 255 255 255 255 255 255 255 255 255 255 255 255 255 
255 255 255 255 255 255 255 255 255 255 255 255 255 255 255 255 255 255 255 255 255 255 255 255 255 255 255 255 255 255 255 255 255 255 255 255 255 255 255 255 255 255 255 255 255 255 255 255 255 255 255 255 255 255 255 253 253 254 255 254 254 252 254 253 254 253 254 254 255 255 253 255 252 254 254 253 254 253 254 253 254 253 254 255 253 255 254 253 254 253 253 253 253 253 254 253 254 253 253 255 254 254 254 253 253 254 254 253 253 253 255 254 255 255 253 255 254 255 253 255 255 254 255 253 253 255 253 253 255 253 254 253 255 255 254 254 253 254 254 254 254 253 254 253 253 251 7 1 0 0 0 0 0 0 0 0 0 0 0 0 0 0 0 0 0 0 0 0 0 0 0 0 0 0 1 0 0 0 0 0 0 0 0 0 0 0 0 0 0 0 0 0 0 0 0 0 0 0 0 0 0 0 0 0 0 0 0 0 0 0 0 0 0 0 1 0 0 0 0 0 0 0 0 0 0 0 0 0 0 0 0 0 0 0 0 0 0 0 0 0 0 0 0 0 0 0 0 0 0 0 0 0 0 0 0 0 0 0 0 0 0 0 0 1 0 0 0 0 1 0 0 0 0 0 0 0 0 0 0 0 0 0 0 0 1 0 0 0 0 0 0 0 0 0 0 0 1 0 0 0 0 0 0 0 0 0 0 0 0 0 1 0 230 252 254 254 255 255 253 254 255 254 254 252 253 254 253 254 253 253 253 254 253 254 253 254 253 253 254 254 254 253 253 255 254 253 254 253 254 253 254 253 255 255 253 253 254 253 254 255 255 255 254 254 254 253 255 254 254 255 254 254 254 253 254 253 253 254 254 254 254 255 254 255 253 253 254 253 254 253 254 253 254 254 254 253 253 253 254 254 255 255 255 255 255 255 255 255 255 255 255 255 255 255 255 255 255 255 255 255 255 255 255 255 255 255 255 255 255 255 255 255 255 255 255 255 255 255 255 255 255 255 255 255 255 255 255 255 255 255 255 255 255 255 255 
255 255 255 255 255 255 255 255 255 255 255 255 255 255 255 255 255 255 255 255 255 255 255 255 255 255 255 255 255 255 255 255 255 255 255 255 255 255 255 255 255 255 255 255 255 255 255 255 255 255 255 255 255 255 253 255 255 255 255 255 254 253 254 253 255 254 253 254 253 254 253 255 253 253 255 253 254 254 254 253 255 254 254 253 254 253 254 255 254 255 254 254 253 254 253 253 254 254 253 253 255 254 253 254 253 254 254 253 254 254 253 253 255 253 253 255 253 255 253 255 254 253 255 254 254 253 254 255 254 253 255 255 254 254 255 253 255 254 254 254 255 253 253 255 255 139 0 0 0 0 0 0 0 0 0 0 0 0 0 0 0 0 0 0 0 0 0 0 0 0 0 0 0 0 0 0 0 0 0 0 0 0 0 0 0 0 0 0 0 0 0 0 0 0 0 0 0 0 0 0 0 0 0 0 1 0 0 0 0 0 0 0 0 0 0 0 0 0 0 0 0 0 0 0 0 0 0 0 0 0 0 0 1 0 0 0 0 0 0 0 0 0 0 0 0 0 0 0 0 0 0 0 0 0 0 0 0 0 0 0 0 0 0 0 0 0 0 0 0 0 0 0 0 0 0 0 0 0 0 0 0 0 0 0 0 0 0 0 0 0 0 0 0 0 0 0 0 0 0 0 0 0 0 1 0 0 0 0 0 0 0 1 88 255 255 254 255 254 253 255 255 253 255 253 253 253 255 253 255 254 254 254 254 255 253 254 254 254 255 254 253 254 253 254 254 255 253 253 254 254 255 255 253 255 255 255 253 253 254 253 255 254 255 253 253 253 253 253 254 253 254 255 254 253 255 253 253 254 253 253 253 254 255 253 254 254 255 253 254 254 255 254 254 253 254 253 253 255 254 254 254 255 255 255 255 255 255 255 255 255 255 255 255 255 255 255 255 255 255 255 255 255 255 255 255 255 255 255 255 255 255 255 255 255 255 255 255 255 255 255 255 255 255 255 255 255 255 255 255 255 255 255 255 255 255 
255 255 255 255 255 255 255 255 255 255 255 255 255 255 255 255 255 255 255 255 255 255 255 255 255 255 255 255 255 255 255 255 255 255 255 255 255 255 255 255 255 255 255 255 255 255 255 255 255 255 255 255 255 255 255 254 254 254 254 254 254 254 254 254 254 254 253 254 255 254 254 253 253 254 254 253 254 255 253 253 253 254 254 253 253 255 253 254 253 254 254 254 253 254 254 254 254 254 253 254 253 254 255 253 253 253 254 253 255 254 252 254 255 253 253 254 253 255 254 254 253 254 253 253 254 254 253 255 255 254 255 254 253 254 254 254 255 254 254 252 254 254 254 251 255 7 2 0 0 0 0 0 0 0 0 0 0 0 0 0 0 0 0 0 0 0 0 0 0 0 0 0 0 0 0 0 0 0 0 0 0 0 0 0 0 0 0 0 0 0 0 0 0 0 0 0 0 0 1 0 0 0 0 0 0 0 0 0 0 0 0 0 0 0 0 0 0 0 0 0 0 1 0 0 0 0 0 0 0 0 0 1 0 0 0 0 0 0 0 0 0 0 0 0 0 0 0 0 0 0 0 0 0 0 0 0 0 0 0 0 0 0 0 0 0 0 0 0 1 0 0 0 0 0 0 0 0 0 0 0 0 0 0 0 0 0 0 0 0 0 0 0 0 0 0 0 0 1 0 0 0 0 0 0 0 0 0 0 0 0 0 3 1 244 250 255 254 254 254 253 254 254 253 254 253 253 254 254 253 255 254 255 254 254 254 254 253 254 253 255 254 255 253 255 253 255 253 255 255 254 253 253 255 254 253 253 253 253 255 253 254 253 253 253 253 253 254 255 254 253 253 254 253 253 255 254 253 254 254 253 253 253 254 254 253 254 255 255 255 254 255 255 254 254 254 253 255 255 254 254 255 255 255 255 255 255 255 255 255 255 255 255 255 255 255 255 255 255 255 255 255 255 255 255 255 255 255 255 255 255 255 255 255 255 255 255 255 255 255 255 255 255 255 255 255 255 255 255 255 255 255 255 255 255 255 
255 255 255 255 255 255 255 255 255 255 255 255 255 255 255 255 255 255 255 255 255 255 255 255 255 255 255 255 255 255 255 255 255 255 255 255 255 255 255 255 255 255 255 255 255 255 255 255 255 255 255 255 255 255 255 253 254 254 253 254 253 253 253 255 253 254 253 254 254 255 253 255 254 254 254 253 254 254 254 254 253 254 253 254 254 254 253 254 254 255 255 253 253 253 255 253 254 254 253 255 254 253 253 254 253 253 253 253 253 254 254 254 254 253 254 254 254 253 253 253 255 254 254 253 254 255 254 254 255 254 254 254 254 254 253 255 255 253 254 253 253 254 254 255 134 0 0 0 0 0 1 0 0 0 0 0 0 0 0 0 0 1 0 0 0 0 0 0 0 0 0 1 0 0 0 0 0 0 0 0 0 0 0 0 0 0 1 0 0 0 0 0 0 0 0 0 0 0 0 0 0 0 0 0 0 0 0 0 0 0 0 0 0 0 0 0 0 0 1 0 0 0 0 0 0 0 0 0 0 0 0 0 0 0 0 0 0 0 0 0 0 0 1 0 0 0 0 0 0 0 0 0 0 0 0 0 0 0 0 0 0 0 1 0 0 0 0 0 0 0 0 0 0 0 0 0 0 0 0 0 0 0 0 0 0 0 0 0 0 0 0 0 0 0 0 0 0 0 0 0 0 0 0 0 0 0 0 0 0 0 0 0 1 132 255 255 255 255 253 254 253 254 254 254 254 255 253 254 253 254 255 253 253 254 253 254 253 254 253 254 253 255 253 254 253 253 254 253 253 255 253 254 255 253 253 252 254 253 254 253 254 253 254 255 254 254 253 253 253 253 253 255 253 253 254 253 253 253 253 255 253 255 253 254 253 255 253 255 253 254 253 253 255 254 255 254 253 254 253 253 254 255 255 255 255 255 255 255 255 255 255 255 255 255 255 255 255 255 255 255 255 255 255 255 255 255 255 255 255 255 255 255 255 255 255 255 255 255 255 255 255 255 255 255 255 255 255 255 255 255 255 255 255 255 255 
255 255 255 255 255 255 255 255 255 255 255 255 255 255 255 255 255 255 255 255 255 255 255 255 255 255 255 255 255 255 255 255 255 255 255 255 255 255 255 255 255 255 255 255 255 255 255 255 255 255 255 255 255 255 254 254 253 254 254 253 255 253 254 255 254 254 253 253 253 254 252 255 255 254 254 254 254 254 254 255 254 254 254 255 253 254 254 253 253 253 255 253 255 254 253 254 253 254 254 255 255 254 253 254 253 254 253 253 254 254 254 254 254 254 254 254 254 253 253 255 253 254 255 253 253 254 253 254 253 254 254 255 254 254 254 254 254 254 254 253 254 253 249 255 16 3 0 0 0 0 0 0 0 0 0 0 0 0 0 0 0 0 0 0 0 0 0 0 0 0 0 0 0 0 0 0 0 0 0 0 0 0 0 0 0 0 0 0 0 0 0 0 0 0 0 0 0 0 0 0 0 0 0 0 0 0 0 0 0 0 0 0 0 0 0 1 0 0 0 0 0 0 0 0 0 0 0 0 0 0 0 0 0 0 0 0 1 0 0 0 0 0 0 0 0 0 0 0 0 0 0 1 0 0 0 0 0 0 0 0 0 0 0 0 0 0 0 0 0 0 0 0 0 0 1 0 0 0 0 0 0 0 0 0 0 0 0 0 0 0 0 0 0 0 0 0 0 0 0 0 0 0 0 0 0 0 0 0 0 0 0 0 3 14 252 252 255 253 255 255 254 254 254 253 253 254 254 254 254 254 253 253 255 253 253 254 253 253 253 254 253 255 253 253 254 254 255 253 253 254 254 253 255 253 254 253 253 254 253 253 253 254 254 255 253 254 253 253 253 254 254 254 254 255 253 254 252 253 253 253 253 255 254 255 253 254 253 253 254 253 253 253 254 254 253 255 254 254 253 254 254 255 255 255 255 255 255 255 255 255 255 255 255 255 255 255 255 255 255 255 255 255 255 255 255 255 255 255 255 255 255 255 255 255 255 255 255 255 255 255 255 255 255 255 255 255 255 255 255 255 255 255 255 255 255 
255 255 255 255 255 255 255 255 255 255 255 255 255 255 255 255 255 255 255 255 255 255 255 255 255 255 255 255 255 255 255 255 255 255 255 255 255 255 255 255 255 255 255 255 255 255 255 255 255 255 255 255 255 255 254 254 254 253 255 254 255 254 255 253 253 254 255 253 254 253 255 254 254 254 255 254 254 253 253 253 254 253 254 254 253 254 254 254 253 254 253 253 253 254 254 254 253 254 254 254 253 254 255 254 254 253 254 253 255 253 254 253 254 254 254 253 254 253 254 254 254 253 254 253 253 253 253 253 253 254 254 254 253 253 254 254 253 253 255 254 255 253 253 176 0 1 0 0 0 0 0 0 0 0 0 0 0 0 0 0 0 0 0 0 0 0 0 0 0 0 0 0 0 0 0 0 0 0 0 0 0 0 0 0 0 0 0 0 0 0 1 0 0 0 0 0 0 0 0 0 0 0 0 0 0 0 0 0 0 0 0 1 0 0 0 1 0 0 0 0 0 0 0 1 0 0 0 0 0 0 0 0 0 0 0 0 0 0 0 0 0 0 0 0 0 0 0 0 0 0 1 0 0 0 0 0 0 0 0 0 0 0 0 0 0 0 0 0 0 0 0 0 0 0 0 0 0 0 0 0 0 0 0 0 0 1 0 0 0 0 0 0 0 0 0 0 0 0 0 0 0 0 0 0 0 0 0 0 0 0 0 0 0 0 164 255 255 253 254 253 254 254 253 254 253 254 254 254 255 253 253 254 254 254 254 254 254 253 254 255 253 254 253 254 254 253 254 253 254 254 254 253 254 255 253 254 254 252 253 253 254 253 254 255 253 253 253 254 253 254 254 253 255 254 255 253 255 253 255 253 253 254 254 253 254 255 253 254 254 253 254 254 253 253 254 255 254 255 254 255 255 255 255 255 255 255 255 255 255 255 255 255 255 255 255 255 255 255 255 255 255 255 255 255 255 255 255 255 255 255 255 255 255 255 255 255 255 255 255 255 255 255 255 255 255 255 255 255 255 255 255 255 255 255 255 
255 255 255 255 255 255 255 255 255 255 255 255 255 255 255 255 255 255 255 255 255 255 255 255 255 255 255 255 255 255 255 255 255 255 255 255 255 255 255 255 255 255 255 255 255 255 255 255 255 255 255 255 255 255 255 254 253 254 254 254 255 255 253 255 253 254 254 254 253 253 255 255 254 253 254 255 254 254 255 253 254 255 253 252 254 253 253 254 254 253 253 254 254 254 255 255 254 255 254 254 254 254 253 253 253 254 253 254 253 253 255 253 253 254 254 253 254 254 254 255 254 255 253 254 253 253 254 253 254 255 254 254 254 254 254 255 253 254 255 253 253 255 255 42 2 0 0 0 0 0 0 0 0 0 0 0 0 0 0 0 0 0 0 0 0 0 0 0 1 0 0 0 0 0 0 0 0 0 0 0 0 0 0 0 0 0 0 0 0 0 0 0 0 0 0 0 0 0 0 0 0 1 0 0 0 0 0 0 0 0 0 1 0 0 0 0 0 0 0 0 0 0 0 0 0 0 0 0 0 0 0 0 0 0 0 0 0 0 0 1 0 0 0 0 0 0 0 0 0 0 0 0 0 0 0 0 0 0 0 0 0 0 0 0 0 0 0 0 0 0 0 0 0 0 0 0 0 0 0 0 0 0 0 0 0 0 0 0 0 0 0 0 0 0 0 0 0 0 0 0 1 0 0 0 0 0 0 0 0 0 0 0 0 1 42 255 252 253 253 253 254 254 254 253 253 254 254 253 253 254 254 255 254 254 255 254 253 254 254 254 254 253 253 253 254 254 255 254 255 255 254 253 254 253 254 255 253 255 254 255 254 253 254 253 253 255 253 253 253 254 254 253 254 253 255 253 255 253 253 254 254 253 254 254 253 254 255 253 253 255 254 254 254 254 255 254 253 254 253 254 254 255 255 255 255 255 255 255 255 255 255 255 255 255 255 255 255 255 255 255 255 255 255 255 255 255 255 255 255 255 255 255 255 255 255 255 255 255 255 255 255 255 255 255 255 255 255 255 255 255 255 255 255 255 255 
255 255 255 255 255 255 255 255 255 255 255 255 255 255 255 255 255 255 255 255 255 255 255 255 255 255 255 255 255 255 255 255 255 255 255 255 255 255 255 255 255 255 255 255 255 255 255 255 255 255 255 255 255 255 254 254 254 254 254 253 253 254 253 254 253 253 253 252 254 254 255 254 254 253 253 254 253 254 255 255 253 255 253 253 254 254 253 254 254 253 254 255 254 254 253 254 255 254 254 254 255 253 252 254 253 254 253 255 254 254 253 253 253 254 254 254 254 255 253 254 253 253 254 255 253 254 254 253 254 254 254 253 255 253 254 254 254 253 255 254 255 253 221 0 1 0 0 0 0 0 0 0 0 0 0 0 0 0 0 0 0 0 0 0 0 0 0 0 0 0 0 0 0 0 0 0 0 0 0 0 0 0 0 0 0 0 0 0 0 0 0 0 0 0 0 0 0 0 0 0 0 0 0 0 0 0 0 0 0 0 0 0 0 0 0 0 0 1 0 0 0 0 0 0 0 0 0 0 0 0 0 0 0 0 0 0 0 0 1 0 0 0 0 0 0 0 0 0 0 0 0 0 0 0 0 0 0 0 0 0 0 0 0 0 0 0 0 0 0 0 0 0 0 0 0 0 0 0 0 0 0 0 0 0 0 0 0 0 0 0 0 0 0 0 0 0 0 0 0 0 0 0 0 0 0 0 0 0 1 0 0 0 0 2 0 235 248 252 253 255 253 254 254 254 252 253 255 254 254 254 253 254 254 254 253 254 255 253 254 254 253 252 254 254 253 254 253 254 255 254 253 254 255 254 254 253 254 254 255 254 255 253 254 252 254 254 255 254 253 254 254 254 253 254 254 254 252 253 253 254 253 255 254 255 254 253 255 253 253 255 254 253 254 255 255 254 253 253 253 255 254 255 255 255 255 255 255 255 255 255 255 255 255 255 255 255 255 255 255 255 255 255 255 255 255 255 255 255 255 255 255 255 255 255 255 255 255 255 255 255 255 255 255 255 255 255 255 255 255 255 255 255 255 255 255 
255 255 255 255 255 255 255 255 255 255 255 255 255 255 255 255 255 255 255 255 255 255 255 255 255 255 255 255 255 255 255 255 255 255 255 255 255 255 255 255 255 255 255 255 255 255 255 255 255 255 255 255 255 255 254 254 254 254 255 254 253 254 254 254 254 254 255 254 254 255 253 254 254 254 254 253 254 253 254 254 254 254 253 255 253 254 254 254 254 254 254 254 254 253 254 253 254 255 253 253 254 253 253 254 255 254 255 253 254 253 254 255 253 253 254 253 255 254 253 253 254 254 253 254 253 254 254 254 253 254 254 253 254 254 254 253 254 254 253 255 253 255 99 0 0 0 0 0 0 0 0 0 0 0 0 0 0 0 0 0 0 0 0 0 0 0 0 0 0 0 0 0 0 0 0 0 0 0 0 0 0 0 0 0 0 0 0 0 0 0 0 0 0 0 0 0 0 0 0 0 0 0 0 0 0 0 0 0 0 0 0 0 0 0 0 0 0 0 0 0 0 0 0 0 0 0 0 0 0 0 0 0 0 1 0 0 0 0 0 0 1 0 0 0 0 0 0 0 0 0 0 0 0 0 0 1 0 0 0 0 1 0 0 0 0 0 0 0 0 0 0 1 0 0 0 0 0 0 0 0 0 0 1 0 0 0 0 0 0 0 0 0 0 0 0 0 0 0 0 0 0 0 0 0 0 0 0 0 0 0 0 0 0 0 0 108 255 253 253 254 254 254 254 254 253 253 255 255 254 254 254 253 253 253 253 254 253 253 254 255 254 254 254 253 254 254 254 254 253 254 253 254 254 254 254 254 254 253 254 254 253 254 253 255 254 254 253 254 253 253 253 255 254 253 254 254 254 254 254 252 254 255 253 254 254 254 253 254 254 254 254 254 255 253 254 255 254 254 253 254 254 255 255 255 255 255 255 255 255 255 255 255 255 255 255 255 255 255 255 255 255 255 255 255 255 255 255 255 255 255 255 255 255 255 255 255 255 255 255 255 255 255 255 255 255 255 255 255 255 255 255 255 255 255 255 
255 255 255 255 255 255 255 255 255 255 255 255 255 255 255 255 255 255 255 255 255 255 255 255 255 255 255 255 255 255 255 255 255 255 255 255 255 255 255 255 255 255 255 255 255 255 255 255 255 255 255 255 255 255 254 253 253 254 254 255 254 254 254 254 255 254 253 254 254 255 254 254 253 254 254 254 254 254 253 253 253 254 253 254 253 253 253 254 253 254 255 253 254 253 255 253 255 253 254 253 254 254 254 254 254 254 254 253 254 254 255 254 254 253 253 254 255 255 253 253 254 255 253 254 254 253 254 253 254 255 254 254 254 255 254 254 253 255 253 255 253 254 13 2 0 0 0 0 1 0 0 0 0 0 0 0 0 0 0 0 0 0 0 0 0 0 0 0 0 0 0 0 0 0 0 0 0 0 0 0 0 0 0 1 0 0 0 0 0 0 0 0 0 0 0 0 0 0 0 0 0 0 0 0 0 0 0 0 0 0 0 0 0 0 1 0 0 0 0 0 0 0 0 0 0 0 0 1 0 0 0 0 0 0 0 0 1 0 0 0 0 0 0 0 0 0 0 0 0 0 0 0 0 0 0 0 0 0 0 0 0 0 0 0 0 0 0 0 0 0 0 0 0 0 0 0 0 0 0 0 0 0 0 0 0 0 0 0 0 0 0 0 0 0 0 0 0 0 0 0 0 0 0 0 0 0 0 0 0 0 0 0 0 0 1 15 254 252 254 254 255 253 255 254 254 254 253 254 254 253 255 253 254 254 253 253 253 254 253 254 254 254 254 254 255 254 253 254 253 255 254 253 254 254 254 255 254 254 254 253 252 255 253 254 255 254 254 253 255 255 253 254 255 254 254 254 254 253 253 254 254 255 254 253 254 254 255 254 254 254 254 255 253 254 254 254 255 253 254 253 255 255 255 255 255 255 255 255 255 255 255 255 255 255 255 255 255 255 255 255 255 255 255 255 255 255 255 255 255 255 255 255 255 255 255 255 255 255 255 255 255 255 255 255 255 255 255 255 255 255 255 255 255 255 255 
255 255 255 255 255 255 255 255 255 255 255 255 255 255 255 255 255 255 255 255 255 255 255 255 255 255 255 255 255 255 255 255 255 255 255 255 255 255 255 255 255 255 255 255 255 255 255 255 255 255 255 255 255 255 254 254 255 253 254 255 255 254 254 254 254 253 252 253 255 253 254 254 253 255 253 254 255 254 254 254 252 255 254 253 254 254 253 255 253 253 255 254 253 253 254 254 254 253 254 253 255 254 254 255 253 254 252 254 254 254 254 252 255 253 254 254 254 254 253 254 253 255 253 254 253 254 255 252 255 255 253 253 255 255 255 254 253 254 254 255 254 191 0 0 0 0 0 0 1 1 0 0 0 0 0 0 0 0 0 0 0 0 0 0 0 1 0 0 0 0 0 0 0 0 0 0 0 0 0 0 0 0 0 0 0 0 0 0 0 0 0 1 0 0 0 0 0 0 0 0 0 0 0 0 0 0 0 0 0 0 0 0 0 0 0 0 0 1 0 0 0 0 0 0 0 0 0 0 0 0 0 0 0 0 0 0 0 0 0 0 0 0 0 1 0 0 0 0 0 0 0 0 0 0 0 0 0 0 0 0 0 0 0 0 1 0 0 0 0 0 0 0 0 0 0 0 0 0 0 0 0 0 0 0 0 0 0 0 0 0 0 0 0 0 0 0 0 0 0 0 0 0 0 0 0 0 0 0 0 0 0 0 0 0 0 0 208 254 255 254 255 254 254 254 254 254 253 253 253 254 254 253 253 254 254 254 254 254 253 253 252 254 254 253 254 253 253 255 253 254 254 254 254 254 255 253 254 254 255 253 253 254 254 254 255 253 255 254 252 254 254 252 254 253 254 253 254 253 254 254 255 255 253 253 254 253 255 253 254 254 254 254 253 255 253 254 255 253 254 254 254 255 255 255 255 255 255 255 255 255 255 255 255 255 255 255 255 255 255 255 255 255 255 255 255 255 255 255 255 255 255 255 255 255 255 255 255 255 255 255 255 255 255 255 255 255 255 255 255 255 255 255 255 255 255 
255 255 255 255 255 255 255 255 255 255 255 255 255 255 255 255 255 255 255 255 255 255 255 255 255 255 255 255 255 255 255 255 255 255 255 255 255 255 255 255 255 255 255 255 255 255 255 255 255 255 255 255 255 255 254 254 254 254 254 254 254 254 254 254 253 254 254 253 255 253 253 254 253 254 254 254 255 254 255 255 254 254 253 254 254 255 254 255 253 252 253 254 254 253 253 254 253 255 254 254 254 254 253 253 254 253 253 254 253 254 254 254 254 254 254 253 254 253 253 253 254 253 254 254 253 253 254 253 253 254 253 254 254 254 253 253 253 254 253 255 255 83 1 0 0 0 0 0 0 0 0 0 0 0 0 0 0 0 0 0 0 1 0 0 0 0 1 0 0 0 0 0 0 0 0 0 0 0 0 0 0 0 0 0 0 0 0 0 0 0 0 0 0 0 0 0 0 0 0 0 0 0 0 0 0 0 0 0 0 0 0 0 0 0 0 0 0 0 0 0 1 0 0 0 0 0 0 0 0 0 0 0 0 0 0 0 0 0 0 0 0 0 0 0 0 0 0 0 0 0 0 0 0 0 0 0 0 0 0 0 1 0 0 0 0 0 0 0 0 0 0 0 0 0 0 0 0 0 0 0 0 0 0 0 0 0 0 0 0 0 0 0 0 0 0 0 0 0 0 0 0 0 0 0 0 0 0 0 0 0 0 0 0 0 0 0 110 255 255 254 254 255 253 253 254 254 253 254 254 254 254 255 254 255 254 254 255 254 255 252 254 254 255 254 254 254 253 252 254 252 254 254 255 253 255 253 254 254 255 253 252 255 253 255 253 253 254 254 254 253 254 254 254 253 254 254 254 254 253 253 254 254 253 253 254 254 252 254 253 253 255 254 254 254 254 255 254 254 253 255 253 255 255 255 255 255 255 255 255 255 255 255 255 255 255 255 255 255 255 255 255 255 255 255 255 255 255 255 255 255 255 255 255 255 255 255 255 255 255 255 255 255 255 255 255 255 255 255 255 255 255 255 255 255 255 
255 255 255 255 255 255 255 255 255 255 255 255 255 255 255 255 255 255 255 255 255 255 255 255 255 255 255 255 255 255 255 255 255 255 255 255 255 255 255 255 255 255 255 255 255 255 255 255 255 255 255 255 255 255 253 254 252 254 254 255 253 255 253 255 254 254 255 255 253 254 253 253 255 253 254 254 254 254 254 255 253 254 253 254 254 254 254 254 253 254 253 255 253 253 254 254 254 254 253 254 253 254 254 253 254 254 253 254 254 254 253 254 254 253 254 254 254 252 254 253 254 253 254 255 255 253 254 253 254 254 253 254 254 253 253 253 253 253 252 252 255 14 4 1 0 0 0 0 0 0 0 0 0 0 0 0 0 0 0 0 0 0 0 0 0 0 0 0 0 0 0 0 0 0 0 0 0 0 0 0 0 0 0 0 0 0 0 0 0 0 0 0 0 0 0 0 0 0 0 0 0 0 0 0 0 0 0 0 0 0 0 0 0 0 0 0 0 0 0 0 0 0 0 0 0 0 0 0 0 0 1 0 0 0 0 0 0 0 0 1 0 0 0 0 0 0 0 0 0 0 0 0 0 0 0 0 0 0 0 0 0 0 0 0 0 0 0 0 0 0 0 0 0 0 0 0 0 0 0 0 0 0 0 0 0 0 0 0 0 0 0 0 0 0 0 0 0 0 0 0 0 0 0 0 0 0 0 0 0 0 0 0 0 0 0 0 28 253 255 254 255 255 254 253 254 254 254 254 255 253 255 254 254 255 254 254 254 254 253 254 253 255 254 255 254 254 254 254 254 253 254 253 253 255 254 253 254 254 253 254 252 255 252 255 253 255 254 254 255 253 253 253 255 253 254 254 255 254 253 254 254 254 253 253 255 254 254 255 254 253 253 255 254 255 254 255 253 255 255 254 254 255 255 255 255 255 255 255 255 255 255 255 255 255 255 255 255 255 255 255 255 255 255 255 255 255 255 255 255 255 255 255 255 255 255 255 255 255 255 255 255 255 255 255 255 255 255 255 255 255 255 255 255 255 255 
255 255 255 255 255 255 255 255 255 255 255 255 255 255 255 255 255 255 255 255 255 255 255 255 255 255 255 255 255 255 255 255 255 255 255 255 255 255 255 255 255 255 255 255 255 255 255 255 255 255 255 255 255 255 254 253 254 253 254 254 254 254 253 254 253 254 255 255 253 255 254 253 255 253 253 253 254 253 254 254 253 255 254 253 254 253 255 253 254 255 255 253 254 254 255 253 255 253 254 253 253 255 253 254 253 255 253 254 255 252 254 255 255 253 254 255 254 252 254 254 253 254 252 254 254 255 254 253 254 254 253 255 253 254 255 253 254 253 252 253 184 0 1 0 0 0 0 0 0 0 0 0 0 0 0 0 0 0 0 0 0 0 0 1 0 0 0 0 0 1 0 0 0 0 0 0 0 0 0 0 0 0 0 0 0 0 0 0 0 0 0 0 0 0 0 0 0 0 0 0 0 0 0 0 0 0 0 0 0 0 0 0 0 0 0 0 1 0 0 0 0 0 0 0 0 0 0 0 0 0 0 0 0 0 0 0 0 0 0 0 1 0 0 0 0 0 0 0 0 0 0 0 0 0 0 0 0 0 1 0 0 0 0 0 0 0 0 0 0 0 0 0 0 0 0 0 0 0 0 0 0 0 0 0 0 0 0 0 0 0 0 0 0 0 1 0 0 0 0 0 0 0 0 0 0 0 0 0 0 0 0 0 0 0 0 1 0 233 254 255 254 254 255 254 255 255 254 253 255 253 254 254 253 254 253 254 253 254 253 254 253 253 254 253 254 253 255 255 253 254 254 255 253 254 254 254 253 254 254 253 254 253 254 253 254 255 255 254 254 254 253 253 255 252 255 254 254 254 254 255 254 254 254 254 253 254 255 255 255 253 253 254 254 255 253 252 254 254 255 255 254 255 255 255 255 255 255 255 255 255 255 255 255 255 255 255 255 255 255 255 255 255 255 255 255 255 255 255 255 255 255 255 255 255 255 255 255 255 255 255 255 255 255 255 255 255 255 255 255 255 255 255 255 255 255 
255 255 255 255 255 255 255 255 255 255 255 255 255 255 255 255 255 255 255 255 255 255 255 255 255 255 255 255 255 255 255 255 255 255 255 255 255 255 255 255 255 255 255 255 255 255 255 255 255 255 255 255 255 255 254 253 254 255 254 253 254 254 255 254 253 254 254 254 253 254 254 254 252 253 254 254 254 254 255 253 255 253 254 254 252 254 254 253 254 254 254 254 255 255 254 253 254 255 255 253 254 253 254 254 254 253 253 254 253 253 254 255 253 255 255 252 253 254 252 254 254 254 254 253 254 254 254 255 254 254 253 254 252 255 254 254 254 254 251 255 71 3 1 0 0 0 0 0 0 0 0 0 0 0 0 0 0 0 0 0 0 0 0 0 0 0 0 0 0 0 0 0 0 0 0 0 0 0 0 0 0 0 0 0 0 0 0 0 0 0 0 0 0 0 0 0 0 0 0 0 0 0 0 0 0 1 0 0 0 0 0 0 0 0 0 0 0 0 0 0 0 0 0 0 0 0 0 0 0 0 0 0 0 0 0 0 0 0 0 0 0 0 0 0 0 0 0 0 0 0 0 1 0 0 0 0 0 0 0 0 0 0 0 0 0 0 0 0 0 0 0 0 0 0 0 0 0 0 0 0 0 0 0 0 0 0 0 0 0 0 0 0 0 0 0 0 0 0 0 0 0 0 0 0 0 0 0 0 0 0 0 0 0 0 0 0 0 156 253 255 253 253 253 253 254 254 254 254 255 254 253 254 254 253 253 254 254 254 254 253 255 253 254 253 254 253 254 253 253 254 253 253 254 253 255 255 253 255 255 253 253 254 254 253 253 253 254 254 254 254 254 253 253 253 252 254 253 254 254 254 254 254 254 254 253 255 253 255 254 254 254 254 253 253 254 253 254 253 255 255 254 255 255 255 255 255 255 255 255 255 255 255 255 255 255 255 255 255 255 255 255 255 255 255 255 255 255 255 255 255 255 255 255 255 255 255 255 255 255 255 255 255 255 255 255 255 255 255 255 255 255 255 255 255 255 
255 255 255 255 255 255 255 255 255 255 255 255 255 255 255 255 255 255 255 255 255 255 255 255 255 255 255 255 255 255 255 255 255 255 255 255 255 255 255 255 255 255 255 255 255 255 255 255 255 255 255 255 255 255 253 253 253 254 254 252 253 254 253 255 255 254 254 254 253 255 254 254 253 253 254 255 254 254 254 253 253 253 254 253 253 254 254 253 254 253 253 254 254 253 255 254 253 253 253 253 253 253 254 254 254 253 255 253 254 254 253 254 254 254 252 254 253 253 253 254 254 254 253 253 253 254 254 254 254 254 254 253 253 252 254 255 254 254 251 255 8 1 1 1 0 0 0 0 0 0 0 0 0 0 0 0 0 0 0 0 0 0 0 0 0 0 0 0 0 0 0 0 0 0 0 0 0 0 0 0 0 0 0 0 0 0 0 0 0 0 0 0 0 0 0 0 0 0 0 0 0 0 0 0 0 0 0 0 0 0 0 0 0 0 0 0 0 0 0 0 0 0 0 0 0 0 0 0 0 0 0 1 0 0 0 0 0 0 0 0 0 0 0 0 0 0 0 0 0 0 0 0 0 0 0 0 0 0 0 0 0 0 0 0 0 0 0 0 0 0 0 0 0 0 0 0 0 0 0 0 0 1 0 0 0 0 0 0 0 0 0 0 0 0 0 0 0 0 0 0 0 0 0 0 0 0 1 0 0 0 0 0 0 0 0 0 3 61 255 255 253 254 253 253 254 253 254 254 254 255 253 254 253 253 254 254 253 255 254 253 254 254 253 253 253 253 254 253 253 253 254 253 254 255 253 253 253 254 253 253 253 254 253 253 253 254 253 254 254 255 253 253 253 253 253 253 253 254 255 255 252 253 253 254 254 254 253 253 255 255 255 253 254 254 254 253 254 254 254 255 254 255 255 255 255 255 255 255 255 255 255 255 255 255 255 255 255 255 255 255 255 255 255 255 255 255 255 255 255 255 255 255 255 255 255 255 255 255 255 255 255 255 255 255 255 255 255 255 255 255 255 255 255 255 255 
255 255 255 255 255 255 255 255 255 255 255 255 255 255 255 255 255 255 255 255 255 255 255 255 255 255 255 255 255 255 255 255 255 255 255 255 255 255 255 255 255 255 255 255 255 255 255 255 255 255 255 255 255 255 253 253 253 253 253 253 254 255 254 254 253 254 253 254 254 253 254 255 253 255 253 254 253 254 254 253 253 255 254 253 254 254 253 255 254 254 252 254 254 253 253 254 255 253 254 254 254 253 254 254 255 253 255 254 254 254 253 253 254 253 253 254 254 253 254 254 253 254 253 253 253 254 254 253 255 253 255 253 255 253 253 255 255 254 251 197 0 0 0 0 0 0 0 0 0 0 0 0 0 0 0 0 0 0 0 0 0 0 0 0 0 0 0 0 0 0 0 0 0 0 0 0 0 0 0 0 0 0 0 0 0 0 0 0 0 0 0 0 0 0 0 0 0 0 0 0 0 0 0 0 0 0 0 0 0 0 0 0 0 0 0 0 0 0 0 1 0 0 0 0 0 0 0 0 0 0 0 0 0 0 0 0 0 0 0 0 0 0 0 0 0 0 0 0 0 0 0 0 0 0 0 0 0 1 0 0 0 0 0 0 0 0 0 0 0 0 0 0 0 0 0 0 0 0 0 0 0 0 0 0 0 0 0 0 1 0 0 0 0 0 0 0 0 0 0 0 0 1 0 0 0 0 0 0 0 0 0 0 1 0 0 0 1 9 246 250 253 254 253 253 254 254 253 254 254 253 253 254 253 254 253 254 253 254 253 254 253 253 253 253 253 254 254 254 255 254 254 253 254 254 253 254 254 253 253 254 254 254 253 253 255 253 254 254 253 254 254 255 253 254 253 253 253 253 255 254 253 253 253 255 253 254 255 253 254 253 255 254 255 254 254 254 254 254 254 254 254 255 255 255 255 255 255 255 255 255 255 255 255 255 255 255 255 255 255 255 255 255 255 255 255 255 255 255 255 255 255 255 255 255 255 255 255 255 255 255 255 255 255 255 255 255 255 255 255 255 255 255 255 255 255 
255 255 255 255 255 255 255 255 255 255 255 255 255 255 255 255 255 255 255 255 255 255 255 255 255 255 255 255 255 255 255 255 255 255 255 255 255 255 255 255 255 255 255 255 255 255 255 255 255 255 255 255 255 255 254 253 255 254 253 253 255 255 253 253 253 254 253 254 255 253 254 253 253 254 253 253 253 253 253 253 254 255 254 255 254 255 254 253 254 252 253 254 254 253 255 253 254 253 253 255 253 253 254 253 255 253 254 254 254 254 253 253 253 253 253 255 253 254 255 253 254 253 254 254 253 253 253 254 253 254 254 253 254 254 253 255 254 254 255 97 0 0 0 0 0 0 0 0 0 0 0 0 0 0 0 0 0 0 0 0 0 0 0 0 0 0 1 0 0 0 0 0 0 0 0 0 0 0 0 0 0 0 0 0 0 0 0 1 0 0 0 0 0 0 1 0 0 0 0 0 1 0 0 0 0 0 0 0 0 0 1 0 0 0 0 0 0 0 0 0 0 0 0 0 0 0 0 0 0 0 0 0 0 0 0 0 0 1 0 0 0 0 0 0 0 1 0 0 1 0 0 0 0 0 0 0 0 0 0 0 0 1 0 0 0 0 0 0 1 0 0 0 0 0 0 0 0 0 0 0 0 0 0 0 1 0 0 0 0 0 0 0 0 0 0 0 0 0 1 0 0 0 0 0 0 0 0 0 0 0 0 0 0 0 1 0 1 0 217 251 252 254 254 254 253 253 253 254 253 254 254 254 253 254 253 253 254 254 254 255 254 253 255 253 254 253 254 254 253 254 253 254 254 254 255 254 253 253 255 253 254 254 254 254 253 253 255 255 253 254 255 255 253 254 253 255 254 253 254 253 254 253 254 255 254 254 253 253 254 253 254 254 253 254 254 254 254 253 254 253 255 255 255 255 255 255 255 255 255 255 255 255 255 255 255 255 255 255 255 255 255 255 255 255 255 255 255 255 255 255 255 255 255 255 255 255 255 255 255 255 255 255 255 255 255 255 255 255 255 255 255 255 255 255 255 
255 255 255 255 255 255 255 255 255 255 255 255 255 255 255 255 255 255 255 255 255 255 255 255 255 255 255 255 255 255 255 255 255 255 255 255 255 255 255 255 255 255 255 255 255 255 255 255 255 255 255 255 255 255 254 254 255 254 254 254 253 254 254 254 254 254 254 253 254 253 254 253 254 254 255 253 254 253 253 254 254 253 253 255 254 255 253 255 254 253 254 253 253 254 255 254 254 254 253 255 254 254 253 253 254 254 254 254 254 254 253 253 253 253 253 255 254 253 254 254 253 254 253 254 254 255 253 255 254 253 254 254 253 255 255 254 254 255 255 37 0 0 1 0 0 0 0 0 0 0 0 0 0 0 0 0 0 0 0 0 0 0 0 0 0 0 0 0 0 0 0 0 0 0 0 0 0 0 0 0 0 0 0 0 0 0 0 0 0 0 0 0 0 0 0 0 0 0 0 0 0 1 0 0 0 1 0 0 0 0 0 0 0 0 0 0 0 0 0 0 0 0 0 0 0 0 0 0 0 0 0 0 0 0 0 0 0 0 0 0 0 0 0 1 0 0 1 0 0 0 0 0 0 0 0 0 0 0 0 0 0 0 0 0 0 0 0 0 0 0 0 0 0 0 0 0 0 0 0 0 0 0 0 0 0 0 0 0 1 0 0 0 0 0 0 0 0 0 0 0 0 0 0 0 0 1 0 0 0 0 0 0 0 0 0 0 0 0 135 253 251 253 255 254 254 253 254 255 254 254 253 253 254 254 255 253 254 253 254 254 253 254 253 254 254 254 253 254 253 255 254 255 254 253 254 254 254 253 254 253 253 253 254 253 254 253 254 254 253 254 253 254 253 254 254 254 255 255 253 253 254 254 255 254 255 254 253 253 254 254 253 253 254 253 254 255 254 254 255 253 255 255 255 255 255 255 255 255 255 255 255 255 255 255 255 255 255 255 255 255 255 255 255 255 255 255 255 255 255 255 255 255 255 255 255 255 255 255 255 255 255 255 255 255 255 255 255 255 255 255 255 255 255 255 255 
255 255 255 255 255 255 255 255 255 255 255 255 255 255 255 255 255 255 255 255 255 255 255 255 255 255 255 255 255 255 255 255 255 255 255 255 255 255 255 255 255 255 255 255 255 255 255 255 255 255 255 255 255 255 254 255 254 254 253 254 253 255 253 254 255 254 255 253 254 253 255 254 254 254 253 253 254 254 253 254 254 253 254 254 254 255 254 253 254 255 253 253 253 253 254 254 254 254 253 253 255 255 253 255 254 254 253 254 255 255 253 252 254 254 255 253 255 253 254 255 253 253 253 254 253 254 254 254 254 254 255 254 254 253 254 255 254 254 244 4 2 0 0 0 1 0 0 0 0 0 0 0 0 0 0 0 0 0 0 0 0 0 0 0 0 0 0 0 1 0 0 0 0 0 0 0 0 0 0 0 0 1 0 0 0 0 0 0 1 0 0 0 0 0 0 0 0 0 0 0 0 0 0 0 0 0 0 0 0 0 0 0 0 0 0 1 0 0 0 1 0 0 0 1 0 0 0 0 0 0 0 0 0 0 0 0 0 1 0 0 0 0 0 0 0 0 0 0 0 0 0 0 0 0 0 0 0 0 0 0 0 1 0 0 0 1 0 0 0 0 0 0 0 0 0 0 0 0 0 0 0 0 0 0 0 0 0 0 0 0 0 0 0 0 0 0 0 0 0 0 0 0 0 0 0 0 0 0 0 0 0 0 0 0 0 1 0 0 51 255 252 253 255 254 255 254 254 253 254 255 253 253 255 254 255 253 253 254 253 254 253 254 253 254 255 253 254 253 254 254 254 253 254 253 253 254 253 253 253 253 253 254 254 253 254 254 253 254 254 254 253 254 253 255 255 254 253 253 253 254 253 255 254 254 253 254 253 253 254 253 254 254 255 254 253 253 255 254 254 254 254 255 255 255 255 255 255 255 255 255 255 255 255 255 255 255 255 255 255 255 255 255 255 255 255 255 255 255 255 255 255 255 255 255 255 255 255 255 255 255 255 255 255 255 255 255 255 255 255 255 255 255 255 255 255 
255 255 255 255 255 255 255 255 255 255 255 255 255 255 255 255 255 255 255 255 255 255 255 255 255 255 255 255 255 255 255 255 255 255 255 255 255 255 255 255 255 255 255 255 255 255 255 255 255 255 255 255 255 255 253 254 254 254 252 254 253 254 253 255 253 254 254 253 254 254 254 254 253 255 254 254 255 254 253 253 254 254 255 253 254 253 254 254 254 254 253 255 254 253 255 252 253 254 253 255 254 253 254 253 253 253 253 254 254 254 253 253 254 254 253 253 253 254 254 254 254 252 253 253 253 254 255 254 253 254 255 254 255 253 253 253 255 253 194 0 0 0 0 0 0 0 0 0 0 0 0 0 0 0 0 0 0 0 0 0 0 0 0 0 0 0 0 0 0 0 0 0 0 0 0 0 0 0 0 0 0 0 0 0 0 0 0 0 1 0 0 0 0 0 0 0 0 0 0 0 0 0 0 0 0 0 0 0 0 0 0 0 0 0 0 0 0 0 0 0 0 0 0 0 0 0 0 0 0 0 0 0 0 0 0 0 0 0 0 0 0 0 0 0 0 0 0 0 0 0 0 0 1 0 0 0 0 0 0 0 0 1 0 0 0 0 0 0 0 0 0 0 0 0 0 0 0 0 0 0 0 0 0 0 0 0 0 0 0 0 0 0 0 0 0 0 0 0 0 0 0 0 0 0 0 0 0 0 0 0 0 0 0 0 0 0 0 0 17 251 249 255 255 254 254 254 255 253 254 253 253 254 254 254 254 253 254 253 253 253 254 254 254 253 254 253 254 253 255 254 254 255 254 254 253 253 253 255 254 253 254 253 255 254 254 254 254 254 253 254 255 253 254 254 254 254 253 253 253 254 254 254 254 254 253 254 255 254 254 254 254 253 255 253 255 253 255 254 255 254 254 255 255 255 255 255 255 255 255 255 255 255 255 255 255 255 255 255 255 255 255 255 255 255 255 255 255 255 255 255 255 255 255 255 255 255 255 255 255 255 255 255 255 255 255 255 255 255 255 255 255 255 255 255 255 
255 255 255 255 255 255 255 255 255 255 255 255 255 255 255 255 255 255 255 255 255 255 255 255 255 255 255 255 255 255 255 255 255 255 255 255 255 255 255 255 255 255 255 255 255 255 255 255 255 255 255 255 255 255 253 254 253 254 253 254 253 255 254 253 253 254 254 253 254 253 254 254 253 253 254 255 253 253 255 253 254 254 255 254 254 254 254 253 254 255 253 254 253 253 253 253 254 254 254 254 253 254 254 253 253 253 253 254 254 253 253 254 253 254 253 255 252 255 254 254 254 254 255 253 254 254 253 253 254 254 254 254 254 254 253 253 254 255 118 0 0 0 0 0 0 1 0 0 0 0 0 0 0 0 0 0 0 1 0 0 0 0 0 0 0 0 0 0 0 0 0 0 0 0 0 0 0 0 0 0 0 0 0 0 0 0 0 0 0 0 0 1 0 0 0 0 0 0 0 0 0 0 0 0 0 0 0 0 0 0 0 0 0 0 0 0 0 0 0 0 0 0 0 0 0 0 0 1 0 0 0 0 0 0 0 0 0 0 0 0 1 0 0 0 0 0 0 0 0 0 0 0 0 0 0 0 0 0 0 1 0 0 0 0 0 0 0 0 0 0 0 0 0 0 0 0 0 0 0 0 0 0 0 0 0 0 0 0 0 0 0 0 0 0 0 0 0 0 0 0 0 0 0 0 0 0 0 0 0 0 0 0 0 0 0 0 0 1 0 228 251 253 254 255 253 253 254 255 253 254 254 254 255 254 254 254 254 254 253 253 254 254 253 254 254 254 253 254 253 254 253 253 255 253 253 253 253 254 255 253 254 253 253 253 253 253 254 253 254 254 254 254 255 254 253 254 254 253 253 254 253 253 254 254 254 253 255 253 254 253 254 254 253 254 255 254 255 255 254 254 254 255 255 255 255 255 255 255 255 255 255 255 255 255 255 255 255 255 255 255 255 255 255 255 255 255 255 255 255 255 255 255 255 255 255 255 255 255 255 255 255 255 255 255 255 255 255 255 255 255 255 255 255 255 255 
255 255 255 255 255 255 255 255 255 255 255 255 255 255 255 255 255 255 255 255 255 255 255 255 255 255 255 255 255 255 255 255 255 255 255 255 255 255 255 255 255 255 255 255 255 255 255 255 255 255 255 255 255 255 254 253 253 254 254 254 254 253 254 253 254 254 253 255 254 253 253 254 254 252 254 253 254 253 255 254 253 253 255 253 254 253 254 254 254 253 253 254 253 253 253 255 254 254 253 254 253 254 254 255 253 254 253 253 254 254 255 254 253 254 254 254 254 255 253 253 254 253 254 254 254 254 254 253 253 254 254 254 254 253 254 255 252 255 84 1 0 0 0 0 0 0 0 0 0 0 0 0 0 0 0 1 0 0 0 0 0 0 0 0 0 1 0 0 0 0 0 1 0 0 0 0 0 0 0 0 0 0 0 0 0 0 0 0 0 0 0 0 0 0 0 0 0 0 0 0 0 0 0 0 0 0 0 0 0 0 0 0 0 0 0 0 0 0 0 0 0 0 0 0 0 0 0 0 0 0 0 0 0 0 0 0 0 0 0 0 1 0 0 0 0 0 0 0 0 0 0 0 0 0 0 0 0 0 0 0 0 0 0 0 0 0 1 0 0 0 0 0 0 0 0 0 0 0 0 0 0 0 0 0 0 0 0 0 0 0 0 0 0 0 0 0 0 0 0 0 0 0 0 0 0 0 0 0 0 0 0 0 0 0 0 0 0 0 0 158 255 254 255 255 254 252 254 253 254 253 254 255 254 255 253 253 255 253 254 254 253 253 253 255 254 253 255 255 252 254 253 253 255 254 254 253 253 253 254 254 254 254 253 253 253 253 255 253 255 253 254 255 254 255 253 253 254 253 254 253 254 254 254 254 253 254 253 254 254 253 253 255 254 255 254 255 254 254 254 254 254 255 255 255 255 255 255 255 255 255 255 255 255 255 255 255 255 255 255 255 255 255 255 255 255 255 255 255 255 255 255 255 255 255 255 255 255 255 255 255 255 255 255 255 255 255 255 255 255 255 255 255 255 255 255 
255 255 255 255 255 255 255 255 255 255 255 255 255 255 255 255 255 255 255 255 255 255 255 255 255 255 255 255 255 255 255 255 255 255 255 255 255 255 255 255 255 255 255 255 255 255 255 255 255 255 255 255 255 255 254 253 254 255 255 254 255 252 255 253 255 254 254 255 254 253 253 253 254 254 254 253 254 254 254 255 254 254 254 254 253 253 254 254 254 252 255 255 254 253 253 253 255 255 254 254 254 255 253 255 254 253 253 253 254 253 253 254 253 253 254 254 255 254 253 253 254 254 254 253 254 253 254 253 253 254 255 254 255 254 253 254 252 248 3 3 1 0 0 0 0 0 0 0 1 0 0 0 0 0 0 0 0 0 0 0 0 0 0 0 0 0 0 0 0 0 0 0 0 0 0 0 0 0 0 0 0 0 0 0 0 0 0 0 0 0 0 0 0 0 0 0 1 0 1 0 0 0 0 0 0 0 0 0 0 0 0 0 0 0 0 0 0 0 0 0 0 0 0 0 0 0 0 0 0 0 0 0 0 0 0 1 0 0 0 0 0 0 0 0 1 0 0 0 0 0 0 0 0 0 0 0 0 0 0 0 0 0 0 0 0 0 0 0 0 0 0 0 0 0 0 0 0 0 0 0 0 0 0 1 0 0 0 0 0 0 0 0 0 0 0 0 1 0 1 0 0 0 0 0 0 0 0 0 0 0 0 0 0 0 0 0 0 0 0 141 253 255 254 253 255 253 254 253 254 253 253 255 253 254 254 254 253 254 255 253 253 253 254 253 254 254 254 254 254 253 254 253 254 253 255 253 254 253 254 255 254 255 253 255 254 254 253 253 254 254 253 254 254 254 253 253 254 253 253 253 255 254 254 254 252 255 253 253 253 254 255 254 253 254 254 253 254 254 254 255 254 255 255 255 255 255 255 255 255 255 255 255 255 255 255 255 255 255 255 255 255 255 255 255 255 255 255 255 255 255 255 255 255 255 255 255 255 255 255 255 255 255 255 255 255 255 255 255 255 255 255 255 255 255 255 
255 255 255 255 255 255 255 255 255 255 255 255 255 255 255 255 255 255 255 255 255 255 255 255 255 255 255 255 255 255 255 255 255 255 255 255 255 255 255 255 255 255 255 255 255 255 255 255 255 255 255 255 255 255 254 254 255 254 254 255 254 254 254 255 254 255 254 254 253 254 254 254 254 255 254 255 254 255 255 255 255 255 253 255 254 254 255 254 253 254 253 253 253 253 254 253 254 254 255 254 253 255 254 254 253 254 255 253 253 254 253 254 253 253 253 254 254 253 254 254 253 254 254 254 253 253 253 254 254 254 255 254 255 255 254 254 251 250 7 0 0 1 0 0 0 0 0 0 1 0 0 0 0 0 0 0 0 0 0 0 0 0 0 0 0 0 0 0 0 0 0 0 0 0 0 0 0 0 0 0 0 0 0 0 0 0 0 0 0 0 0 0 0 0 0 0 0 0 0 0 0 0 0 0 0 0 0 0 0 0 0 0 0 1 0 0 0 0 0 0 0 0 0 0 0 0 0 0 0 0 0 0 0 0 0 0 0 0 0 0 0 0 0 0 0 0 0 0 0 0 0 0 0 0 0 0 0 0 0 0 0 0 0 0 0 0 0 0 0 0 0 0 0 0 0 0 0 0 0 0 0 0 0 0 0 0 0 1 0 0 0 0 0 0 0 0 0 0 0 0 0 0 0 0 0 0 0 0 0 0 0 0 0 0 0 0 0 0 0 51 255 255 255 253 253 254 254 255 254 254 253 254 254 253 255 255 253 253 255 253 254 253 253 253 254 254 254 253 253 253 253 254 253 254 254 254 254 253 253 255 253 254 255 255 255 253 253 254 253 253 254 254 255 253 253 254 253 254 253 253 254 254 253 254 254 253 254 254 253 255 253 254 254 254 253 253 255 254 254 253 255 255 255 255 255 255 255 255 255 255 255 255 255 255 255 255 255 255 255 255 255 255 255 255 255 255 255 255 255 255 255 255 255 255 255 255 255 255 255 255 255 255 255 255 255 255 255 255 255 255 255 255 255 255 255 
255 255 255 255 255 255 255 255 255 255 255 255 255 255 255 255 255 255 255 255 255 255 255 255 255 255 255 255 255 255 255 255 255 255 255 255 255 255 255 255 255 255 255 255 255 255 255 255 255 255 255 255 255 255 254 254 254 253 253 255 253 255 253 255 253 254 254 254 254 254 254 254 254 254 254 255 253 254 253 255 254 255 253 254 254 254 254 254 253 253 253 254 252 255 254 254 254 254 253 254 254 253 253 254 252 255 253 254 253 254 255 253 254 254 253 253 254 254 254 255 253 253 255 253 254 254 253 255 253 254 254 254 253 254 255 254 254 183 0 0 0 1 0 0 0 0 0 0 1 0 0 0 0 0 0 0 0 0 0 0 0 0 0 0 0 0 0 0 0 0 0 0 1 0 0 0 0 0 0 0 0 0 0 0 0 0 0 0 0 0 0 1 0 0 0 0 0 0 0 0 0 0 0 0 0 0 0 0 0 0 0 0 0 0 0 0 0 0 0 0 0 0 0 0 0 0 0 0 0 0 0 0 0 0 0 0 0 0 0 0 0 0 0 0 0 0 0 0 0 1 0 0 0 0 0 0 0 0 0 1 0 0 0 0 0 0 0 0 0 0 0 0 0 0 0 0 0 0 0 0 0 0 0 0 0 1 0 0 0 0 0 0 0 0 0 0 0 0 0 0 0 0 0 0 0 0 0 0 0 0 0 0 0 0 0 0 0 0 1 39 255 255 254 253 252 255 254 254 254 254 253 254 255 253 253 255 253 252 255 253 255 253 254 253 254 253 255 253 253 255 253 254 253 254 254 255 253 253 254 253 253 255 253 253 254 253 253 254 254 254 253 253 254 253 254 254 254 255 254 254 253 254 253 254 254 254 254 254 254 255 254 254 254 253 254 254 254 253 255 254 254 255 255 255 255 255 255 255 255 255 255 255 255 255 255 255 255 255 255 255 255 255 255 255 255 255 255 255 255 255 255 255 255 255 255 255 255 255 255 255 255 255 255 255 255 255 255 255 255 255 255 255 255 255 255 
255 255 255 255 255 255 255 255 255 255 255 255 255 255 255 255 255 255 255 255 255 255 255 255 255 255 255 255 255 255 255 255 255 255 255 255 255 255 255 255 255 255 255 255 255 255 255 255 255 255 255 255 255 255 254 253 254 254 253 252 254 253 253 254 254 254 255 253 255 254 253 254 254 254 254 254 253 255 253 255 253 254 253 254 253 254 254 253 254 253 254 253 253 253 254 254 253 254 253 253 255 254 253 254 254 254 253 255 253 254 255 253 254 255 252 253 255 254 254 254 253 253 255 253 254 254 254 253 254 254 254 253 253 253 254 255 254 198 0 0 0 0 0 0 0 0 0 0 1 1 0 0 0 0 0 0 0 0 0 0 0 0 0 0 0 0 0 0 0 0 0 0 0 0 0 0 0 0 0 0 0 0 0 0 0 0 0 0 0 0 0 0 0 0 0 0 0 0 0 0 0 0 0 0 0 0 0 0 0 0 0 0 0 0 0 0 0 0 0 0 0 0 0 0 0 0 0 0 0 0 0 0 0 0 0 0 0 0 0 0 0 0 0 0 0 0 0 0 1 1 0 0 0 0 0 0 0 0 1 0 0 0 0 0 0 0 0 0 0 0 0 0 0 0 0 0 0 0 0 0 0 0 0 0 0 0 0 0 0 0 0 0 0 0 0 0 0 0 0 0 0 0 0 0 0 0 0 0 0 0 0 0 0 0 0 0 1 0 1 8 248 254 253 254 253 254 253 254 253 254 254 254 254 254 252 254 254 254 254 254 254 254 253 253 253 253 252 253 254 254 253 253 253 253 255 255 254 254 253 254 255 254 253 255 253 254 254 254 254 254 253 254 254 253 253 254 254 254 253 254 253 254 253 254 253 254 253 254 255 253 255 253 254 254 254 253 253 254 254 254 254 255 255 255 255 255 255 255 255 255 255 255 255 255 255 255 255 255 255 255 255 255 255 255 255 255 255 255 255 255 255 255 255 255 255 255 255 255 255 255 255 255 255 255 255 255 255 255 255 255 255 255 255 255 255 
255 255 255 255 255 255 255 255 255 255 255 255 255 255 255 255 255 255 255 255 255 255 255 255 255 255 255 255 255 255 255 255 255 255 255 255 255 255 255 255 255 255 255 255 255 255 255 255 255 255 255 255 255 255 255 254 254 255 254 254 255 254 254 255 254 254 254 254 254 254 253 254 253 255 254 254 255 253 254 254 254 254 254 254 254 253 254 252 254 255 254 254 254 253 255 255 253 254 254 253 254 254 254 255 253 253 254 253 254 254 253 254 253 254 254 254 253 253 254 253 254 254 253 254 253 254 254 254 255 254 254 254 253 255 252 255 255 118 0 0 1 0 0 0 0 0 0 0 0 0 0 0 0 0 0 0 0 0 0 0 0 0 0 0 0 0 0 0 0 0 0 0 0 0 0 0 0 0 0 0 0 0 0 0 0 0 0 0 0 0 0 0 0 0 0 0 0 0 0 0 0 0 0 0 0 0 0 0 0 0 0 0 0 0 0 0 0 0 0 0 0 0 0 0 0 0 0 0 0 0 0 0 0 0 0 0 0 0 0 0 0 0 0 0 0 0 0 0 0 0 0 0 0 0 0 0 0 0 1 0 0 0 0 0 0 0 0 0 0 0 0 0 0 0 0 0 0 0 0 0 0 0 0 0 0 0 0 0 1 0 0 0 0 0 0 0 0 0 0 0 1 0 0 0 0 0 0 0 0 0 0 0 0 1 0 0 0 0 2 1 239 253 254 253 254 254 253 254 254 254 254 252 253 254 254 254 254 255 254 254 254 254 253 253 254 253 255 253 254 253 254 254 253 254 254 254 255 255 252 255 254 253 254 254 254 254 253 254 253 254 253 253 254 253 254 254 254 253 252 254 254 252 254 254 255 254 254 255 254 253 253 254 253 255 253 253 254 255 254 254 254 255 255 255 255 255 255 255 255 255 255 255 255 255 255 255 255 255 255 255 255 255 255 255 255 255 255 255 255 255 255 255 255 255 255 255 255 255 255 255 255 255 255 255 255 255 255 255 255 255 255 255 255 255 255 
255 255 255 255 255 255 255 255 255 255 255 255 255 255 255 255 255 255 255 255 255 255 255 255 255 255 255 255 255 255 255 255 255 255 255 255 255 255 255 255 255 255 255 255 255 255 255 255 255 255 255 255 255 255 255 255 254 253 253 255 254 254 254 254 253 254 253 255 253 255 254 253 253 255 253 253 254 253 253 253 255 254 255 253 254 254 253 253 254 254 254 254 255 253 254 254 253 254 254 254 253 253 254 253 254 253 254 254 255 253 254 253 254 254 255 254 253 254 254 253 254 253 253 254 254 255 254 255 254 255 253 254 254 254 254 255 255 91 0 0 0 0 0 0 0 0 0 0 0 0 1 0 0 0 0 0 0 0 0 0 0 0 0 0 0 0 0 0 0 0 0 0 0 0 0 0 0 0 0 0 0 1 0 1 0 0 0 0 0 0 0 0 0 0 0 0 0 0 0 0 0 0 0 0 0 0 0 0 0 0 0 0 0 0 0 0 1 0 0 0 0 0 0 0 0 0 0 0 0 0 0 0 0 0 0 0 0 0 1 0 0 0 0 1 0 0 0 0 0 0 0 0 0 0 0 0 0 0 0 0 0 0 0 0 0 0 0 0 0 0 0 0 0 0 0 0 0 0 0 0 0 0 0 0 0 0 0 0 0 0 0 0 0 0 0 0 0 0 0 0 0 0 0 0 0 0 0 0 0 0 0 0 0 1 0 0 0 0 2 0 203 254 253 253 255 255 253 253 253 253 254 254 254 254 253 255 254 255 253 253 254 254 254 253 254 252 253 254 255 253 254 254 253 254 254 253 255 252 253 255 253 254 253 253 254 253 254 253 253 255 253 253 254 255 255 253 254 253 254 253 254 253 254 254 255 253 254 254 255 255 254 254 253 255 253 255 255 254 255 254 254 255 255 255 255 255 255 255 255 255 255 255 255 255 255 255 255 255 255 255 255 255 255 255 255 255 255 255 255 255 255 255 255 255 255 255 255 255 255 255 255 255 255 255 255 255 255 255 255 255 255 255 255 255 255 
255 255 255 255 255 255 255 255 255 255 255 255 255 255 255 255 255 255 255 255 255 255 255 255 255 255 255 255 255 255 255 255 255 255 255 255 255 255 255 255 255 255 255 255 255 255 255 255 255 255 255 255 255 255 254 254 253 254 254 253 253 255 253 254 254 253 253 255 253 255 254 254 253 254 253 253 254 254 254 252 254 254 253 254 254 255 253 254 253 253 254 254 254 254 253 254 254 254 253 254 253 254 253 254 255 253 253 254 254 253 253 253 255 255 253 253 255 254 254 254 254 253 254 253 254 253 255 254 254 254 253 254 254 253 253 252 255 116 0 0 0 0 0 0 0 0 0 0 0 0 0 1 0 0 0 0 0 0 0 0 0 0 0 0 0 0 1 0 0 0 0 0 0 0 0 0 0 0 1 0 0 0 0 1 0 0 0 0 0 0 0 0 0 0 0 1 0 0 0 0 0 0 0 0 0 0 0 0 0 0 0 0 0 0 0 1 0 0 0 0 0 0 0 0 0 0 0 0 0 0 0 0 0 0 0 0 0 0 1 0 1 0 0 0 0 0 0 0 0 0 0 0 0 0 0 0 0 0 0 0 0 0 0 0 0 0 0 0 0 0 0 0 0 0 0 0 0 0 0 0 0 0 0 0 0 0 0 0 0 0 0 0 0 0 0 0 0 0 0 0 0 0 0 0 0 0 0 0 0 0 0 0 0 0 0 0 0 0 2 0 187 253 253 254 253 254 253 252 254 254 255 253 255 254 253 254 254 255 253 254 253 254 253 254 253 255 253 255 255 254 254 253 254 253 255 254 254 254 254 255 254 255 253 253 254 253 255 254 254 255 254 254 253 255 254 253 253 254 255 253 254 253 253 255 254 254 253 254 253 255 254 254 255 255 254 255 254 253 254 254 254 255 255 255 255 255 255 255 255 255 255 255 255 255 255 255 255 255 255 255 255 255 255 255 255 255 255 255 255 255 255 255 255 255 255 255 255 255 255 255 255 255 255 255 255 255 255 255 255 255 255 255 255 255 255 
255 255 255 255 255 255 255 255 255 255 255 255 255 255 255 255 255 255 255 255 255 255 255 255 255 255 255 255 255 255 255 255 255 255 255 255 255 255 255 255 255 255 255 255 255 255 255 255 255 255 255 255 255 255 254 253 253 255 255 254 253 254 253 254 255 253 255 255 254 254 254 255 253 254 253 254 255 254 254 254 254 255 254 255 253 254 254 254 253 254 253 255 253 253 254 254 255 254 253 254 253 255 254 253 253 254 253 254 255 254 253 253 254 255 254 253 255 253 254 254 254 253 254 253 253 253 254 253 254 255 255 254 254 254 254 254 255 52 2 0 0 0 0 0 0 0 0 0 0 0 0 0 0 0 0 0 0 0 0 0 0 0 0 0 0 0 0 0 1 0 0 0 0 0 0 0 0 0 0 0 0 0 0 0 0 0 0 0 0 0 1 0 0 0 0 0 0 0 0 0 0 0 0 0 0 0 0 0 0 0 0 0 0 0 0 0 0 0 0 0 0 0 0 1 0 0 0 0 0 0 0 0 0 0 0 0 0 0 0 0 0 0 0 0 0 0 0 0 0 0 0 0 0 0 0 0 0 1 0 0 0 0 0 0 0 0 0 0 0 0 0 0 0 0 1 0 0 0 0 0 0 0 0 0 0 0 0 0 0 0 0 0 0 0 0 0 0 0 0 0 0 0 0 0 0 0 0 0 0 0 0 0 0 0 0 0 0 0 2 0 160 254 253 254 253 254 253 254 253 255 254 253 254 253 255 254 254 253 254 254 255 255 254 255 253 254 253 252 254 253 254 254 254 254 255 254 255 255 254 253 253 254 254 253 255 254 252 254 253 255 253 255 253 252 253 254 253 253 253 254 255 253 254 254 255 254 255 253 253 254 254 254 254 254 254 253 255 254 253 254 254 255 255 255 255 255 255 255 255 255 255 255 255 255 255 255 255 255 255 255 255 255 255 255 255 255 255 255 255 255 255 255 255 255 255 255 255 255 255 255 255 255 255 255 255 255 255 255 255 255 255 255 255 255 255 
255 255 255 255 255 255 255 255 255 255 255 255 255 255 255 255 255 255 255 255 255 255 255 255 255 255 255 255 255 255 255 255 255 255 255 255 255 255 255 255 255 255 255 255 255 255 255 255 255 255 255 255 255 255 254 255 255 254 254 254 253 253 254 253 254 254 255 253 255 254 254 254 254 254 253 255 253 253 254 254 253 255 254 255 253 254 253 253 254 252 254 253 255 254 255 254 253 254 254 253 255 253 253 253 253 254 254 255 254 254 253 254 253 254 254 253 254 254 254 252 254 254 253 254 254 253 255 254 253 253 254 254 254 254 254 255 255 49 1 1 0 0 0 0 0 0 0 0 0 0 0 0 0 0 0 0 0 0 1 0 0 0 0 0 0 0 0 0 0 0 0 0 0 0 0 0 0 0 0 0 0 0 0 0 0 0 0 1 0 0 0 0 0 0 0 0 0 0 0 0 0 0 0 0 0 1 0 0 1 0 0 0 0 0 0 0 0 0 0 0 1 0 0 0 0 0 0 1 0 0 0 0 0 0 1 0 0 0 0 0 0 0 0 0 0 0 0 0 0 0 0 0 0 0 0 0 0 0 0 0 0 0 0 0 0 0 0 0 1 0 0 0 0 0 0 1 1 0 0 0 0 0 0 0 0 0 0 0 0 0 0 0 0 0 0 0 0 0 0 0 0 0 0 0 0 0 0 0 0 0 1 0 0 0 0 0 0 1 1 0 112 254 253 254 253 253 255 254 253 254 254 254 253 254 253 254 253 253 254 254 255 253 255 254 254 253 254 254 253 254 254 255 254 253 253 253 254 254 254 254 254 253 253 255 254 253 254 255 254 253 254 253 253 253 254 254 254 253 253 254 255 253 252 253 254 254 254 254 254 253 254 253 255 255 254 254 254 255 254 254 254 255 255 255 255 255 255 255 255 255 255 255 255 255 255 255 255 255 255 255 255 255 255 255 255 255 255 255 255 255 255 255 255 255 255 255 255 255 255 255 255 255 255 255 255 255 255 255 255 255 255 255 255 255 255 
255 255 255 255 255 255 255 255 255 255 255 255 255 255 255 255 255 255 255 255 255 255 255 255 255 255 255 255 255 255 255 255 255 255 255 255 255 255 255 255 255 255 255 255 255 255 255 255 255 255 255 255 255 255 254 253 253 253 253 255 255 254 254 253 253 253 254 253 253 253 254 254 254 253 254 253 253 255 254 253 253 254 254 255 254 255 254 254 254 253 254 254 253 254 253 254 254 254 252 253 254 252 254 254 253 253 255 253 253 253 254 255 255 252 254 253 255 253 253 254 253 254 253 254 253 254 253 255 254 253 254 253 254 253 254 255 255 50 0 1 0 0 0 0 0 0 0 0 0 0 1 0 0 0 0 0 0 0 0 0 0 0 0 0 0 0 0 0 0 0 0 0 0 0 0 0 0 0 0 0 0 0 0 0 0 0 0 0 1 0 0 0 0 0 0 0 0 0 0 0 0 0 0 0 0 0 0 0 0 0 0 0 0 0 0 0 0 0 0 0 0 0 0 0 0 0 0 0 0 0 0 0 0 0 0 0 0 0 0 0 0 0 0 0 0 0 0 0 0 0 0 0 0 0 0 0 0 0 0 0 0 0 0 0 0 0 0 0 0 0 0 0 0 0 0 0 0 1 0 0 0 0 0 0 0 0 0 0 0 0 0 0 0 0 0 0 0 0 0 0 0 0 0 0 0 1 0 1 0 0 0 0 1 0 0 0 0 0 0 0 117 255 252 253 255 253 255 253 254 253 253 254 255 255 255 252 254 253 254 254 254 255 253 254 254 255 254 254 253 254 255 254 255 253 254 255 254 253 252 255 254 254 253 254 253 254 253 253 254 253 254 254 254 254 254 253 255 255 254 255 253 254 253 254 253 253 255 255 254 254 255 253 253 255 254 255 252 254 254 255 253 255 255 255 255 255 255 255 255 255 255 255 255 255 255 255 255 255 255 255 255 255 255 255 255 255 255 255 255 255 255 255 255 255 255 255 255 255 255 255 255 255 255 255 255 255 255 255 255 255 255 255 255 255 255 
255 255 255 255 255 255 255 255 255 255 255 255 255 255 255 255 255 255 255 255 255 255 255 255 255 255 255 255 255 255 255 255 255 255 255 255 255 255 255 255 255 255 255 255 255 255 255 255 255 255 255 255 255 255 254 253 254 253 254 254 254 254 253 254 253 254 255 253 253 253 253 254 254 253 254 254 253 254 254 254 255 253 255 253 254 254 254 253 254 254 253 255 254 254 253 253 254 254 253 253 254 253 254 253 254 254 254 254 253 253 255 254 254 252 255 255 254 253 253 255 253 253 254 253 253 254 254 253 253 253 254 255 254 253 253 255 255 51 0 0 0 0 0 0 0 0 0 0 0 0 0 0 0 0 0 0 0 0 0 0 0 0 0 0 0 0 0 0 0 0 1 0 0 0 0 0 0 0 0 0 0 0 1 0 0 0 0 0 0 0 0 0 0 0 0 0 0 0 0 0 0 0 0 0 0 0 0 0 0 0 0 0 0 1 0 0 0 0 0 0 0 0 1 0 0 1 0 1 1 0 0 0 0 0 0 0 0 0 0 0 0 0 0 0 0 0 0 0 0 0 0 0 0 0 0 0 0 0 0 1 0 0 0 0 0 0 0 0 0 0 0 0 0 0 0 0 0 0 0 0 0 0 0 0 0 0 0 0 0 0 0 0 0 0 0 0 0 0 0 0 0 0 0 0 0 0 0 0 0 0 0 0 0 0 0 0 1 0 0 0 117 255 252 253 254 254 253 253 254 254 254 255 253 253 255 253 253 255 254 254 253 255 254 253 254 253 254 254 254 252 254 255 253 255 254 253 254 254 253 253 254 253 255 255 254 254 253 253 253 254 255 255 253 254 253 253 253 255 254 254 254 254 255 253 253 253 253 253 255 254 254 254 255 254 255 254 253 254 254 254 254 255 255 255 255 255 255 255 255 255 255 255 255 255 255 255 255 255 255 255 255 255 255 255 255 255 255 255 255 255 255 255 255 255 255 255 255 255 255 255 255 255 255 255 255 255 255 255 255 255 255 255 255 255 255 
255 255 255 255 255 255 255 255 255 255 255 255 255 255 255 255 255 255 255 255 255 255 255 255 255 255 255 255 255 255 255 255 255 255 255 255 255 255 255 255 255 255 255 255 255 255 255 255 255 255 255 255 255 255 254 255 255 253 254 253 253 254 254 254 253 255 254 255 254 253 253 255 253 253 254 254 253 254 254 253 254 254 255 254 254 254 253 254 254 253 254 254 255 253 254 253 253 254 255 253 253 254 253 253 253 254 254 254 254 253 253 254 255 253 253 255 254 253 253 253 253 254 254 253 254 255 254 253 254 253 253 254 255 255 253 255 255 51 0 0 0 0 0 0 0 0 0 0 0 0 0 0 0 0 0 0 0 0 0 0 0 1 0 1 0 0 0 0 0 0 0 0 0 0 0 0 0 0 0 0 0 0 0 0 0 0 0 0 0 0 0 1 0 0 0 0 0 0 0 0 0 0 0 0 1 0 0 0 1 0 0 0 0 0 0 0 0 0 0 0 0 0 0 0 0 0 0 1 1 0 0 0 0 0 1 0 0 0 0 0 0 0 0 0 0 0 0 0 0 0 0 0 0 0 0 0 0 0 0 0 0 0 0 0 1 0 0 0 0 0 0 0 0 0 0 0 0 0 0 0 0 0 0 0 0 0 0 0 0 0 0 0 0 0 0 0 0 0 0 0 0 0 0 0 0 0 0 0 0 0 0 0 0 0 0 0 0 0 0 0 115 255 254 253 254 254 253 253 253 255 253 255 253 253 253 255 254 254 253 254 253 253 254 253 253 253 255 253 254 254 254 255 254 254 253 253 253 254 255 253 254 253 253 255 254 253 254 254 255 254 254 253 253 254 253 254 255 253 253 253 253 254 253 254 254 253 255 255 253 255 255 253 255 254 254 255 254 255 254 254 254 255 255 255 255 255 255 255 255 255 255 255 255 255 255 255 255 255 255 255 255 255 255 255 255 255 255 255 255 255 255 255 255 255 255 255 255 255 255 255 255 255 255 255 255 255 255 255 255 255 255 255 255 255 255 
255 255 255 255 255 255 255 255 255 255 255 255 255 255 255 255 255 255 255 255 255 255 255 255 255 255 255 255 255 255 255 255 255 255 255 255 255 255 255 255 255 255 255 255 255 255 255 255 255 255 255 255 255 255 253 254 253 254 254 254 253 253 255 255 253 252 254 255 255 253 253 253 253 254 254 254 254 253 254 254 253 254 254 253 253 254 253 255 254 253 254 253 253 253 254 255 254 253 255 254 253 254 254 255 253 254 254 254 253 255 254 255 254 255 253 253 254 254 253 253 253 254 255 254 255 254 253 254 254 254 255 254 255 255 254 255 255 51 0 0 0 0 0 0 0 0 0 0 0 0 0 1 0 0 0 0 0 0 0 0 0 0 0 0 0 0 0 0 0 1 0 0 0 0 0 0 0 1 0 0 0 0 0 0 0 0 0 0 0 0 0 0 0 0 0 0 0 0 0 0 0 0 0 0 0 0 0 0 0 0 0 0 0 0 0 0 0 0 0 0 0 0 0 0 0 0 0 0 0 0 0 0 0 0 1 0 0 0 0 0 0 0 0 0 0 0 0 0 0 0 0 0 0 0 0 0 0 0 0 0 0 0 0 0 0 0 0 0 0 0 0 0 0 0 0 0 0 0 0 0 1 0 0 0 0 0 0 0 0 0 0 0 1 0 0 0 0 0 0 0 0 0 0 0 0 0 0 0 0 0 0 0 0 0 0 0 0 0 0 0 115 255 255 253 255 254 253 255 255 252 253 254 255 254 253 254 254 255 254 254 253 253 254 255 253 255 255 253 254 253 254 253 254 255 254 253 253 254 254 253 253 254 253 253 254 253 255 253 254 254 255 254 254 254 254 254 253 254 253 253 253 254 254 253 255 254 254 253 254 253 254 253 255 253 254 254 254 253 255 254 254 255 255 255 255 255 255 255 255 255 255 255 255 255 255 255 255 255 255 255 255 255 255 255 255 255 255 255 255 255 255 255 255 255 255 255 255 255 255 255 255 255 255 255 255 255 255 255 255 255 255 255 255 255 255 
255 255 255 255 255 255 255 255 255 255 255 255 255 255 255 255 255 255 255 255 255 255 255 255 255 255 255 255 255 255 255 255 255 255 255 255 255 255 255 255 255 255 255 255 255 255 255 255 255 255 255 255 255 255 253 253 254 254 254 254 254 254 254 254 254 253 253 255 255 254 253 253 253 255 255 253 254 253 253 253 254 254 253 253 253 254 254 254 253 253 254 253 254 253 254 252 254 254 254 254 253 254 253 254 254 253 254 254 253 253 253 254 254 254 254 254 253 254 254 254 254 254 253 253 255 255 253 253 253 255 254 254 254 255 255 254 255 51 0 0 0 0 0 0 0 0 0 0 0 0 0 0 0 0 0 0 0 0 0 0 0 0 0 0 0 0 0 0 0 0 0 0 0 0 0 0 0 0 1 0 0 0 0 0 0 0 0 0 0 0 0 0 0 0 0 0 0 0 0 0 0 0 0 0 0 0 0 0 0 0 0 0 0 0 0 0 0 0 0 0 0 0 0 0 0 0 0 0 0 0 0 0 0 0 0 0 0 0 0 0 0 0 0 0 0 0 0 0 0 0 0 0 0 0 0 0 0 0 0 0 0 0 0 0 0 0 0 0 0 0 0 0 0 0 0 0 0 0 0 0 0 0 0 0 0 0 0 0 0 0 0 0 0 0 0 0 0 0 0 0 0 0 0 0 0 0 0 0 0 0 0 0 0 0 0 0 0 0 0 0 114 255 255 254 254 253 254 254 255 253 253 253 253 255 254 253 254 252 254 254 255 252 254 254 253 255 254 255 254 253 253 252 254 255 255 254 253 254 254 253 254 254 254 253 255 253 253 254 255 254 254 254 255 253 253 254 253 253 253 253 253 253 254 253 255 254 253 254 255 255 253 255 254 254 253 254 254 254 253 255 253 255 255 255 255 255 255 255 255 255 255 255 255 255 255 255 255 255 255 255 255 255 255 255 255 255 255 255 255 255 255 255 255 255 255 255 255 255 255 255 255 255 255 255 255 255 255 255 255 255 255 255 255 255 255 
255 255 255 255 255 255 255 255 255 255 255 255 255 255 255 255 255 255 255 255 255 255 255 255 255 255 255 255 255 255 255 255 255 255 255 255 255 255 255 255 255 255 255 255 255 255 255 255 255 255 255 255 255 255 255 254 253 255 253 255 253 254 254 254 253 255 254 254 253 253 254 253 253 254 253 254 253 254 253 253 253 254 253 254 254 253 254 255 254 254 253 253 253 253 253 253 255 254 255 253 252 254 254 253 255 253 254 254 255 253 253 254 254 253 254 254 254 254 254 254 254 254 253 253 253 253 254 253 254 255 253 253 254 253 254 253 255 51 0 0 0 0 0 0 0 0 0 0 0 0 0 0 0 0 0 0 0 0 0 0 0 0 0 0 0 0 0 0 0 0 0 0 0 0 0 0 0 0 0 0 0 0 0 0 0 0 0 0 0 0 0 0 0 0 0 0 0 1 0 0 0 0 0 0 0 0 0 0 0 0 0 0 0 0 0 0 0 0 0 0 0 0 0 0 0 0 0 0 0 0 0 0 0 0 0 0 0 0 0 0 0 0 0 0 0 0 0 0 0 0 0 0 0 0 0 0 0 0 0 0 0 0 0 0 0 1 0 0 0 0 0 0 0 0 0 0 0 0 0 0 1 0 0 0 0 0 0 0 0 0 1 0 0 0 0 0 0 0 0 0 0 0 0 0 0 0 1 0 0 0 0 0 0 0 0 0 0 0 0 0 163 255 255 254 255 254 255 255 254 253 253 254 254 253 254 254 254 253 253 254 255 253 254 255 254 253 254 255 254 255 254 253 253 253 253 255 253 253 254 254 255 253 254 254 254 254 255 254 255 253 253 254 255 253 253 255 253 253 254 253 253 254 254 254 254 254 253 255 253 253 253 253 255 253 254 254 255 254 254 254 254 255 255 255 255 255 255 255 255 255 255 255 255 255 255 255 255 255 255 255 255 255 255 255 255 255 255 255 255 255 255 255 255 255 255 255 255 255 255 255 255 255 255 255 255 255 255 255 255 255 255 255 255 255 255 
255 255 255 255 255 255 255 255 255 255 255 255 255 255 255 255 255 255 255 255 255 255 255 255 255 255 255 255 255 255 255 255 255 255 255 255 255 255 255 255 255 255 255 255 255 255 255 255 255 255 255 255 255 255 254 254 255 255 253 255 254 253 254 254 253 255 253 254 254 252 254 254 254 254 254 255 255 253 254 254 252 254 253 254 254 255 254 255 254 253 255 253 254 254 253 254 253 254 254 253 253 254 254 253 254 254 254 253 254 254 255 253 253 253 255 253 253 253 254 254 255 255 254 254 253 253 253 253 254 254 255 254 253 254 255 253 255 53 0 0 0 0 0 0 0 0 0 0 0 0 0 1 0 0 0 0 0 0 0 0 0 0 0 0 0 0 0 0 0 0 0 0 0 0 0 0 0 0 0 0 0 0 0 0 0 0 0 0 0 0 0 0 0 0 0 0 0 0 0 0 0 0 0 0 0 0 0 0 0 0 0 0 0 0 0 0 0 0 0 0 0 0 0 0 0 0 0 0 0 0 0 0 0 0 0 0 0 0 0 0 0 0 0 0 0 0 0 0 0 0 0 0 0 0 0 1 0 0 0 0 0 0 0 0 0 0 0 0 0 0 0 0 0 0 0 0 0 0 0 0 0 0 0 0 0 0 0 0 0 0 0 0 0 0 0 0 0 0 0 0 0 0 0 0 0 0 0 0 0 0 0 1 0 0 0 0 0 0 0 0 215 254 255 254 253 253 254 255 253 254 254 255 254 254 253 255 254 254 255 253 253 254 254 253 254 253 253 253 254 255 254 253 253 253 253 254 254 254 255 253 254 253 253 253 255 254 254 254 254 254 253 253 253 253 254 254 253 254 255 253 253 254 254 254 254 253 254 255 253 253 255 254 255 254 255 254 255 255 254 254 254 255 255 255 255 255 255 255 255 255 255 255 255 255 255 255 255 255 255 255 255 255 255 255 255 255 255 255 255 255 255 255 255 255 255 255 255 255 255 255 255 255 255 255 255 255 255 255 255 255 255 255 255 255 255 
255 255 255 255 255 255 255 255 255 255 255 255 255 255 255 255 255 255 255 255 255 255 255 255 255 255 255 255 255 255 255 255 255 255 255 255 255 255 255 255 255 255 255 255 255 255 255 255 255 255 255 255 255 255 255 255 253 253 254 253 254 254 253 254 253 254 255 255 254 253 255 254 253 253 254 255 253 253 254 253 253 255 253 254 254 253 255 255 254 253 254 253 255 253 253 254 253 254 253 253 254 254 253 254 254 254 255 254 254 253 253 255 252 254 253 253 253 254 253 253 254 253 253 253 253 254 253 254 254 253 254 255 254 254 253 252 255 79 0 0 0 0 0 0 0 0 0 0 0 0 0 0 0 0 0 0 0 0 0 0 0 0 0 0 0 0 0 0 0 0 0 0 0 0 0 0 0 0 0 0 0 0 0 0 0 0 0 0 0 0 0 0 0 1 0 0 0 0 0 0 0 0 0 0 0 0 0 0 0 0 0 0 0 0 0 0 0 1 0 0 0 0 0 0 0 0 0 0 0 0 0 0 0 0 0 0 0 0 0 0 0 0 0 0 0 0 0 0 0 0 0 0 0 0 0 0 0 0 0 0 0 0 0 0 0 0 0 0 0 0 0 0 0 0 0 0 0 0 0 0 0 0 0 0 0 0 0 0 0 0 0 0 0 0 0 0 0 0 0 0 0 0 0 0 0 0 0 0 0 0 0 0 0 0 0 0 0 0 0 0 227 253 255 254 253 253 255 254 253 254 253 255 254 254 255 253 254 255 253 254 253 253 254 254 253 255 254 254 254 255 253 254 254 252 254 255 253 253 253 253 254 255 253 255 253 254 255 253 253 253 254 254 253 254 253 254 253 254 255 253 254 255 254 253 253 255 255 254 255 253 254 254 254 254 255 255 254 254 254 254 254 255 255 255 255 255 255 255 255 255 255 255 255 255 255 255 255 255 255 255 255 255 255 255 255 255 255 255 255 255 255 255 255 255 255 255 255 255 255 255 255 255 255 255 255 255 255 255 255 255 255 255 255 255 255 
255 255 255 255 255 255 255 255 255 255 255 255 255 255 255 255 255 255 255 255 255 255 255 255 255 255 255 255 255 255 255 255 255 255 255 255 255 255 255 255 255 255 255 255 255 255 255 255 255 255 255 255 255 255 254 253 254 252 255 253 254 253 255 254 254 254 255 255 254 253 253 253 254 254 254 253 254 255 254 253 253 254 255 254 254 253 255 253 255 253 254 254 255 253 255 254 254 253 253 253 254 254 255 254 255 253 253 254 253 253 254 254 253 255 254 254 253 254 254 253 254 253 253 253 254 254 253 255 254 255 254 254 253 254 254 252 255 61 0 0 0 0 0 0 0 0 0 0 0 0 0 0 0 0 0 0 0 0 0 0 0 0 0 0 0 0 0 0 1 0 0 0 0 0 0 0 0 0 0 0 0 0 0 0 0 0 0 0 0 0 0 0 0 0 0 0 0 0 0 0 0 0 0 0 0 0 0 0 0 0 0 0 0 0 0 0 0 0 0 0 0 0 0 0 0 0 0 0 0 0 0 0 0 0 0 0 0 0 0 0 0 0 0 0 0 0 0 0 0 0 0 0 0 0 0 0 0 0 0 0 0 0 0 0 0 0 0 0 0 0 0 0 0 0 0 0 0 0 0 0 0 0 0 0 0 0 0 0 0 0 0 0 1 0 0 0 0 1 0 0 0 0 0 1 0 0 0 0 0 0 0 0 0 1 0 0 0 0 0 0 216 253 255 254 254 253 254 253 253 253 254 254 254 254 255 253 253 253 253 253 253 253 254 255 253 253 254 255 254 255 254 253 254 253 253 253 253 254 253 254 255 254 255 254 254 253 254 253 255 253 253 254 253 254 255 253 255 254 255 254 254 255 255 253 253 254 253 254 253 255 253 255 253 253 255 253 254 254 255 254 254 255 255 255 255 255 255 255 255 255 255 255 255 255 255 255 255 255 255 255 255 255 255 255 255 255 255 255 255 255 255 255 255 255 255 255 255 255 255 255 255 255 255 255 255 255 255 255 255 255 255 255 255 255 255 
255 255 255 255 255 255 255 255 255 255 255 255 255 255 255 255 255 255 255 255 255 255 255 255 255 255 255 255 255 255 255 255 255 255 255 255 255 255 255 255 255 255 255 255 255 255 255 255 255 255 255 255 255 255 254 254 254 254 254 254 255 253 253 254 254 253 254 254 253 254 252 253 254 254 254 254 255 255 253 255 253 255 255 253 254 254 253 253 253 254 254 254 254 255 254 254 255 253 253 254 255 254 253 253 253 254 254 253 253 254 254 253 253 253 254 253 254 255 253 253 254 253 254 255 253 254 254 254 253 254 254 253 254 253 253 251 254 156 0 0 0 0 0 0 0 0 0 0 0 0 0 0 0 0 0 0 0 0 0 0 1 0 0 0 0 0 0 0 0 0 0 0 0 1 0 0 0 0 0 0 0 0 0 0 0 0 0 0 0 0 0 0 0 0 0 0 0 0 0 0 0 0 0 0 0 0 0 0 0 0 0 0 0 0 0 0 0 0 0 0 0 0 0 0 0 0 1 0 0 0 0 0 0 0 0 0 0 0 0 0 0 0 0 0 0 0 0 0 0 0 0 0 0 0 0 0 0 0 0 0 0 0 0 0 0 0 1 0 0 0 0 0 0 0 0 0 0 0 0 0 0 0 0 0 0 0 0 0 0 0 0 0 0 0 0 0 0 0 0 1 0 0 0 0 0 0 0 0 0 0 0 0 0 0 0 0 0 0 1 24 255 254 255 253 253 254 253 253 255 254 255 254 254 254 255 254 254 254 255 253 253 254 255 253 253 253 254 253 254 255 253 254 254 253 255 253 253 254 254 255 254 254 255 254 253 254 254 253 253 253 253 255 253 253 253 254 253 254 255 255 253 255 253 253 255 254 254 253 254 254 254 253 253 255 253 254 254 254 255 255 254 255 255 255 255 255 255 255 255 255 255 255 255 255 255 255 255 255 255 255 255 255 255 255 255 255 255 255 255 255 255 255 255 255 255 255 255 255 255 255 255 255 255 255 255 255 255 255 255 255 255 255 255 255 255 
255 255 255 255 255 255 255 255 255 255 255 255 255 255 255 255 255 255 255 255 255 255 255 255 255 255 255 255 255 255 255 255 255 255 255 255 255 255 255 255 255 255 255 255 255 255 255 255 255 255 255 255 255 255 254 255 254 254 253 253 255 254 254 254 255 253 255 253 253 254 255 253 253 253 254 254 254 253 254 255 253 254 254 254 255 255 253 254 253 255 253 253 254 254 254 254 253 253 254 253 255 253 254 254 253 254 253 253 254 253 254 253 255 254 253 253 253 255 254 253 254 254 255 254 254 254 255 253 253 253 254 254 254 253 253 252 253 197 0 2 0 0 0 0 0 0 0 0 0 0 0 0 0 0 0 0 0 0 0 0 0 0 0 0 0 0 0 0 0 0 0 0 0 0 0 0 0 0 0 0 0 1 0 0 0 0 0 0 0 0 0 0 0 0 0 0 0 1 0 0 0 0 0 0 0 0 0 0 0 0 0 0 0 0 0 0 0 0 0 0 0 0 0 0 0 0 0 0 0 0 0 0 0 0 0 0 0 0 0 0 0 0 0 0 0 0 0 0 0 0 0 0 0 0 0 0 0 0 0 0 0 0 0 0 0 0 0 0 0 1 0 0 0 0 0 0 0 0 0 0 0 0 0 0 0 0 0 0 1 0 0 0 0 0 0 0 0 0 0 0 0 0 0 0 0 0 0 0 0 0 0 0 0 0 0 0 0 0 4 22 255 254 253 254 253 254 254 253 255 254 255 254 254 254 253 254 255 253 255 254 254 255 254 254 254 254 254 252 254 254 253 253 255 253 253 254 254 254 254 253 254 253 254 254 253 254 255 254 252 254 254 255 254 254 253 255 253 253 254 253 254 254 253 255 253 253 254 253 254 254 253 253 254 253 253 255 254 254 254 254 254 255 255 255 255 255 255 255 255 255 255 255 255 255 255 255 255 255 255 255 255 255 255 255 255 255 255 255 255 255 255 255 255 255 255 255 255 255 255 255 255 255 255 255 255 255 255 255 255 255 255 255 255 255 255 
255 255 255 255 255 255 255 255 255 255 255 255 255 255 255 255 255 255 255 255 255 255 255 255 255 255 255 255 255 255 255 255 255 255 255 255 255 255 255 255 255 255 255 255 255 255 255 255 255 255 255 255 255 255 254 253 255 255 253 253 254 254 254 254 254 253 254 255 254 253 253 255 253 253 253 253 253 254 253 254 253 254 253 254 253 254 253 255 254 253 255 254 253 252 254 253 253 253 255 253 254 254 255 254 254 254 253 254 254 253 254 253 255 253 254 254 255 254 253 253 254 254 255 254 254 253 254 254 253 253 253 254 253 253 254 254 254 234 3 2 1 0 0 0 0 0 0 0 0 0 0 0 0 0 0 0 0 0 0 1 0 0 0 0 0 0 0 0 0 0 0 0 0 0 0 0 0 0 0 0 0 0 0 0 0 0 0 0 0 0 0 0 0 0 0 0 0 0 0 0 0 0 0 0 0 0 0 0 0 1 0 0 0 0 0 0 0 0 0 0 0 0 0 0 0 0 0 0 0 0 0 0 0 0 0 0 0 0 0 0 1 0 0 0 0 0 0 0 0 0 0 0 0 0 0 0 0 0 0 0 0 0 0 0 0 0 0 0 0 0 0 0 0 0 0 0 0 0 0 0 0 0 0 0 0 0 0 0 0 0 1 0 0 1 0 0 0 0 0 0 0 0 0 0 0 0 0 0 0 0 0 0 0 0 0 0 0 0 0 106 255 254 254 253 254 254 253 254 255 254 255 255 254 254 254 254 254 255 254 254 254 253 254 254 254 255 254 254 254 253 254 253 254 253 253 253 255 253 254 253 254 253 254 253 254 254 253 254 254 253 254 254 255 253 254 254 254 253 254 253 255 253 254 253 253 253 255 254 254 254 253 254 253 253 254 255 253 254 254 254 254 255 255 255 255 255 255 255 255 255 255 255 255 255 255 255 255 255 255 255 255 255 255 255 255 255 255 255 255 255 255 255 255 255 255 255 255 255 255 255 255 255 255 255 255 255 255 255 255 255 255 255 255 255 255 
255 255 255 255 255 255 255 255 255 255 255 255 255 255 255 255 255 255 255 255 255 255 255 255 255 255 255 255 255 255 255 255 255 255 255 255 255 255 255 255 255 255 255 255 255 255 255 255 255 255 255 255 255 255 254 253 254 255 254 254 254 253 254 253 254 254 253 253 253 253 253 255 253 253 253 254 254 254 253 254 254 254 255 253 253 255 254 254 254 253 255 253 253 254 254 253 254 254 252 253 254 254 254 254 254 254 254 254 254 254 252 254 254 254 253 253 255 254 253 253 254 254 253 255 254 255 254 253 254 253 253 253 253 253 254 255 253 251 9 4 1 0 0 0 0 0 0 0 0 0 0 0 0 0 0 0 0 0 0 0 0 0 0 0 0 0 0 0 0 0 0 0 0 0 0 0 0 0 0 0 0 0 0 0 0 0 0 0 0 0 0 0 0 0 0 0 0 0 0 0 0 0 0 0 0 0 0 0 0 0 0 0 0 0 0 0 0 0 0 0 0 0 0 0 0 0 0 0 0 0 0 0 0 0 0 0 0 0 0 0 0 0 0 0 0 0 0 0 0 0 0 0 0 0 0 0 1 0 0 0 0 0 0 0 0 0 0 0 0 0 0 1 0 0 0 0 0 0 0 0 0 0 0 0 0 0 0 0 0 0 0 0 0 0 0 0 0 0 0 0 0 1 0 0 0 0 0 0 1 0 0 0 0 0 0 0 0 0 0 128 254 255 255 253 253 254 254 254 254 253 254 254 254 255 254 255 253 254 254 253 254 254 254 253 254 255 254 254 254 253 253 253 253 253 254 253 254 253 254 254 254 253 255 253 253 253 253 255 254 252 254 253 254 254 253 253 255 254 254 253 253 253 254 252 254 254 254 253 253 253 253 254 255 253 254 254 254 254 254 255 254 255 255 255 255 255 255 255 255 255 255 255 255 255 255 255 255 255 255 255 255 255 255 255 255 255 255 255 255 255 255 255 255 255 255 255 255 255 255 255 255 255 255 255 255 255 255 255 255 255 255 255 255 255 255 
255 255 255 255 255 255 255 255 255 255 255 255 255 255 255 255 255 255 255 255 255 255 255 255 255 255 255 255 255 255 255 255 255 255 255 255 255 255 255 255 255 255 255 255 255 255 255 255 255 255 255 255 255 255 254 254 254 254 255 253 254 254 255 253 254 253 253 253 254 254 253 255 253 254 254 253 255 254 254 255 254 254 254 253 254 254 255 253 253 254 254 253 253 253 254 254 253 255 254 254 253 254 253 254 255 254 255 254 254 254 254 253 254 254 253 254 253 255 254 254 254 254 254 255 253 254 255 254 254 253 254 254 253 254 253 255 255 255 75 1 0 0 1 0 0 0 0 0 0 0 0 0 0 0 0 0 0 0 0 0 0 0 0 0 0 0 0 0 0 0 0 0 0 0 0 0 0 0 0 1 0 0 0 0 0 0 0 0 0 0 0 0 0 0 0 0 0 0 0 0 0 0 0 0 0 0 0 0 0 0 0 0 0 0 0 0 0 0 0 0 0 0 0 0 0 0 0 0 0 0 0 0 0 0 0 0 0 0 0 0 0 0 0 0 0 0 0 0 0 0 0 0 0 0 0 0 0 0 0 0 1 0 0 0 0 0 1 0 0 0 0 0 0 0 0 0 0 0 0 0 0 0 0 0 0 0 0 0 0 0 0 0 0 0 0 0 0 0 0 0 0 0 0 0 0 0 0 0 0 0 1 0 0 1 0 0 0 0 0 226 254 253 254 254 253 254 255 254 253 255 253 254 255 254 254 254 253 254 254 255 254 254 254 254 254 254 253 254 254 254 253 253 253 254 254 253 254 253 254 253 254 254 255 253 255 253 253 254 254 254 254 252 254 253 254 254 254 254 254 254 252 253 255 254 254 255 255 253 254 253 254 254 254 253 254 254 255 254 253 254 253 255 255 255 255 255 255 255 255 255 255 255 255 255 255 255 255 255 255 255 255 255 255 255 255 255 255 255 255 255 255 255 255 255 255 255 255 255 255 255 255 255 255 255 255 255 255 255 255 255 255 255 255 255 255 
255 255 255 255 255 255 255 255 255 255 255 255 255 255 255 255 255 255 255 255 255 255 255 255 255 255 255 255 255 255 255 255 255 255 255 255 255 255 255 255 255 255 255 255 255 255 255 255 255 255 255 255 255 255 253 254 254 253 253 254 253 253 255 254 254 253 254 255 253 253 252 254 254 253 254 253 254 254 254 254 255 254 254 254 255 253 254 255 253 255 253 255 253 253 253 254 253 254 255 253 254 255 253 254 253 255 254 254 254 253 255 253 254 254 254 254 253 255 255 254 253 253 254 254 253 253 254 254 253 254 254 253 255 254 254 253 255 255 135 0 0 0 0 0 0 0 0 0 1 0 0 0 0 0 0 0 1 0 0 0 0 0 0 0 0 0 0 0 1 0 0 1 0 0 0 0 0 0 0 0 0 0 0 0 0 0 0 0 0 0 0 0 0 0 0 0 0 0 0 0 0 0 0 0 0 0 0 0 0 0 0 0 0 1 0 0 1 0 0 0 0 0 0 0 0 0 0 0 0 0 0 0 0 0 0 1 0 0 0 0 0 0 0 0 0 0 0 0 0 0 0 0 0 0 0 0 0 0 0 0 0 0 0 0 0 1 0 0 0 0 0 0 0 0 0 0 0 0 0 0 0 0 0 0 0 0 0 0 1 0 0 0 0 0 0 0 0 0 0 0 0 0 0 0 0 1 0 0 0 0 0 0 1 0 0 0 0 0 2 239 251 253 255 253 253 254 254 253 254 254 253 255 254 255 254 254 254 254 253 255 253 255 253 254 253 254 254 253 253 254 253 255 253 255 253 253 255 253 254 254 253 254 253 253 254 253 253 255 254 255 253 253 255 253 254 255 254 254 255 254 254 254 255 254 255 255 254 254 253 254 253 254 252 254 253 254 254 254 254 254 254 255 255 255 255 255 255 255 255 255 255 255 255 255 255 255 255 255 255 255 255 255 255 255 255 255 255 255 255 255 255 255 255 255 255 255 255 255 255 255 255 255 255 255 255 255 255 255 255 255 255 255 255 255 255 
255 255 255 255 255 255 255 255 255 255 255 255 255 255 255 255 255 255 255 255 255 255 255 255 255 255 255 255 255 255 255 255 255 255 255 255 255 255 255 255 255 255 255 255 255 255 255 255 255 255 255 255 255 255 253 254 253 254 254 254 253 254 254 255 253 254 255 254 254 252 254 253 255 253 254 254 254 253 253 254 254 254 253 253 254 253 254 254 254 254 253 253 254 254 253 254 253 254 254 252 254 255 254 253 253 255 253 254 255 254 254 253 254 255 253 254 254 255 254 253 254 253 254 254 254 253 254 253 254 254 255 253 254 254 255 253 255 254 223 0 1 0 0 0 0 0 0 0 0 0 0 0 0 0 0 0 0 0 0 0 0 0 0 0 0 0 0 0 0 0 0 0 0 0 0 0 0 0 0 0 0 0 0 0 0 0 0 0 0 0 0 0 0 0 0 0 0 0 0 0 0 0 0 0 0 0 0 0 0 0 0 0 0 0 1 0 1 0 0 0 0 0 0 0 0 0 0 0 0 0 0 0 0 0 0 0 0 0 0 0 0 0 0 0 0 0 0 0 0 0 0 0 0 0 0 0 1 0 0 0 0 0 0 0 0 0 0 0 0 0 0 0 0 0 0 0 0 0 0 0 0 0 0 0 0 0 0 0 0 0 0 0 0 0 0 0 0 0 0 0 1 0 0 0 0 0 0 0 0 0 0 0 0 0 0 0 0 1 53 255 253 253 254 254 253 254 255 253 255 253 254 254 254 254 254 254 253 254 253 253 254 253 254 253 253 254 254 253 255 254 253 255 254 254 254 255 255 253 254 255 254 253 253 253 254 254 253 255 253 254 254 254 255 253 254 255 253 254 254 254 254 253 254 253 255 254 254 253 252 254 254 254 254 253 255 254 254 254 254 255 255 255 255 255 255 255 255 255 255 255 255 255 255 255 255 255 255 255 255 255 255 255 255 255 255 255 255 255 255 255 255 255 255 255 255 255 255 255 255 255 255 255 255 255 255 255 255 255 255 255 255 255 255 255 255 
255 255 255 255 255 255 255 255 255 255 255 255 255 255 255 255 255 255 255 255 255 255 255 255 255 255 255 255 255 255 255 255 255 255 255 255 255 255 255 255 255 255 255 255 255 255 255 255 255 255 255 255 255 255 255 254 253 254 254 254 254 254 254 253 254 254 255 253 253 254 252 254 255 254 254 253 254 254 254 254 252 255 253 254 254 252 254 254 255 253 254 253 254 254 253 254 254 254 254 254 253 253 254 253 253 254 254 255 253 254 255 253 254 253 254 253 254 254 254 254 253 254 254 254 254 253 254 253 254 253 254 254 253 254 255 254 253 254 255 22 0 0 0 0 0 0 1 0 0 0 0 0 0 0 0 0 0 0 0 0 0 0 0 0 1 0 0 0 0 0 0 1 0 0 0 0 0 0 0 0 0 0 0 0 0 0 0 0 0 0 0 0 0 0 0 0 0 0 0 0 0 0 0 0 0 0 0 0 0 0 0 0 0 0 0 0 0 0 0 1 0 0 0 0 0 0 0 0 0 0 0 0 0 0 0 0 0 0 0 0 0 0 0 0 0 0 1 0 0 0 0 0 0 0 0 0 0 0 0 0 0 0 0 0 0 0 0 0 0 0 0 0 0 0 0 0 0 0 0 0 0 0 0 0 0 0 0 0 0 0 0 0 0 0 0 0 0 0 0 0 0 0 0 0 0 0 0 0 0 1 0 0 0 0 0 0 0 0 154 254 255 254 254 254 253 254 255 253 255 254 252 253 254 254 253 253 253 254 253 254 253 254 253 254 254 254 253 253 254 253 254 255 253 255 253 254 253 254 253 254 254 253 253 254 255 254 253 254 254 255 254 254 254 253 255 253 253 254 254 255 253 252 254 253 254 253 255 254 254 253 255 255 254 254 254 253 254 255 254 253 254 255 255 255 255 255 255 255 255 255 255 255 255 255 255 255 255 255 255 255 255 255 255 255 255 255 255 255 255 255 255 255 255 255 255 255 255 255 255 255 255 255 255 255 255 255 255 255 255 255 255 255 255 255 255 
255 255 255 255 255 255 255 255 255 255 255 255 255 255 255 255 255 255 255 255 255 255 255 255 255 255 255 255 255 255 255 255 255 255 255 255 255 255 255 255 255 255 255 255 255 255 255 255 255 255 255 255 255 255 254 254 254 253 254 254 255 255 254 253 255 253 253 253 253 255 253 255 253 254 254 253 254 255 254 253 254 255 253 255 254 254 253 254 254 254 254 254 253 254 253 254 254 254 253 255 254 252 255 254 254 254 254 254 253 254 255 254 254 254 253 254 254 253 255 254 254 254 253 254 254 253 255 253 254 254 254 254 255 255 254 254 253 254 255 110 0 0 0 0 0 0 0 0 0 0 0 0 0 0 0 0 0 0 0 0 0 0 0 0 1 0 0 0 0 0 0 0 0 0 0 0 0 0 1 0 0 0 0 0 0 0 0 0 0 0 0 0 0 0 0 0 0 0 0 0 0 0 0 0 0 0 0 0 0 0 0 0 0 0 1 1 0 0 0 0 0 0 0 1 0 0 0 0 0 0 0 0 0 0 0 0 0 0 0 0 0 0 0 0 0 0 0 0 0 0 0 0 0 0 0 0 0 0 0 0 0 0 0 1 0 0 0 0 0 0 0 0 1 0 0 0 0 0 0 0 0 0 0 0 0 0 0 0 0 0 0 0 0 0 0 1 0 0 0 0 0 0 1 0 0 0 0 0 0 0 0 0 0 0 1 0 2 0 237 253 255 255 254 254 253 252 255 253 254 254 254 253 254 254 254 254 253 255 254 254 252 254 254 254 255 254 254 254 254 253 253 254 254 255 253 252 253 254 252 255 252 254 253 255 253 254 253 254 254 253 254 253 254 254 254 254 254 254 253 254 254 254 255 254 253 254 255 254 254 255 254 254 254 254 254 254 254 254 254 254 254 255 255 255 255 255 255 255 255 255 255 255 255 255 255 255 255 255 255 255 255 255 255 255 255 255 255 255 255 255 255 255 255 255 255 255 255 255 255 255 255 255 255 255 255 255 255 255 255 255 255 255 255 255 255 
255 255 255 255 255 255 255 255 255 255 255 255 255 255 255 255 255 255 255 255 255 255 255 255 255 255 255 255 255 255 255 255 255 255 255 255 255 255 255 255 255 255 255 255 255 255 255 255 255 255 255 255 255 255 255 254 255 254 254 254 254 254 254 253 255 254 254 253 253 253 255 254 254 253 255 253 253 255 253 253 255 255 253 253 255 255 253 254 254 255 254 253 253 254 254 253 254 253 253 254 255 253 254 254 255 253 253 254 254 254 253 254 254 253 253 255 255 254 254 254 254 255 254 255 254 253 254 253 254 253 255 253 255 255 254 254 254 252 251 222 0 1 0 0 0 0 0 0 0 0 0 0 0 1 0 0 0 0 0 0 0 0 0 0 0 0 0 0 0 0 0 0 0 0 0 0 0 0 0 0 0 0 0 0 0 0 0 0 0 0 0 0 0 0 0 0 0 0 0 0 0 0 0 0 0 0 0 0 0 0 0 0 1 0 0 0 0 0 0 0 0 0 0 0 0 0 0 0 0 0 0 0 0 0 0 0 0 0 0 1 0 0 0 1 0 0 0 1 0 0 0 0 0 0 0 0 0 0 0 0 0 0 0 0 0 0 0 0 0 0 0 0 0 0 0 0 0 0 0 0 0 0 0 0 0 0 0 0 0 0 0 0 0 0 0 0 0 0 0 0 0 0 0 0 0 0 0 0 0 0 0 0 0 0 0 0 2 39 255 255 254 254 255 254 253 254 254 253 254 254 255 253 255 253 254 253 254 254 254 252 254 254 254 254 255 253 254 254 254 253 254 253 255 254 254 254 254 254 254 253 254 253 254 253 254 254 254 253 253 253 254 255 253 254 254 254 254 253 253 254 255 255 254 254 254 254 253 254 253 254 254 253 255 253 255 254 254 254 255 255 254 255 255 255 255 255 255 255 255 255 255 255 255 255 255 255 255 255 255 255 255 255 255 255 255 255 255 255 255 255 255 255 255 255 255 255 255 255 255 255 255 255 255 255 255 255 255 255 255 255 255 255 255 255 255 
255 255 255 255 255 255 255 255 255 255 255 255 255 255 255 255 255 255 255 255 255 255 255 255 255 255 255 255 255 255 255 255 255 255 255 255 255 255 255 255 255 255 255 255 255 255 255 255 255 255 255 255 255 255 254 254 254 254 254 254 254 253 255 253 254 254 255 253 254 254 253 254 255 254 253 254 254 253 254 253 254 255 254 253 254 254 253 255 253 255 254 253 252 254 255 253 254 253 254 254 254 255 253 253 254 254 254 253 253 254 253 254 254 253 255 253 254 253 253 253 253 255 254 253 254 253 253 255 254 253 253 254 255 254 255 254 254 253 252 255 44 2 1 0 0 0 0 0 0 0 0 0 0 0 0 0 0 0 0 0 0 0 0 0 0 0 1 0 0 0 0 0 0 0 0 0 0 0 0 0 0 0 0 0 0 0 0 0 0 0 0 0 0 0 0 0 0 0 0 0 0 0 0 0 0 0 0 0 0 0 0 0 0 0 0 0 1 0 0 0 0 0 0 0 0 0 0 0 0 0 0 0 0 0 0 0 0 0 0 0 0 0 0 0 0 0 0 0 0 0 0 0 0 0 0 0 0 0 0 0 1 0 0 0 0 0 0 0 0 0 0 0 0 0 0 0 0 0 0 0 0 0 0 1 0 0 0 0 0 0 0 0 0 0 0 0 0 0 0 0 0 0 0 0 0 0 0 1 0 0 0 0 0 0 0 0 0 162 253 255 254 255 255 255 254 253 254 253 254 254 254 253 254 253 254 254 255 255 254 253 254 254 254 254 253 254 253 254 253 254 255 254 253 253 254 253 254 254 254 254 255 253 254 253 255 255 254 253 254 254 254 253 254 254 253 253 255 254 254 253 254 254 254 254 253 254 254 254 252 253 254 253 253 253 254 254 254 254 254 254 254 255 255 255 255 255 255 255 255 255 255 255 255 255 255 255 255 255 255 255 255 255 255 255 255 255 255 255 255 255 255 255 255 255 255 255 255 255 255 255 255 255 255 255 255 255 255 255 255 255 255 255 255 255 255 
255 255 255 255 255 255 255 255 255 255 255 255 255 255 255 255 255 255 255 255 255 255 255 255 255 255 255 255 255 255 255 255 255 255 255 255 255 255 255 255 255 255 255 255 255 255 255 255 255 255 255 255 255 255 253 255 254 253 255 254 254 254 252 254 255 254 254 253 254 254 254 255 253 255 253 255 253 254 254 254 254 255 255 254 254 253 254 254 253 254 254 254 253 254 254 254 253 254 254 253 255 254 255 253 254 253 254 254 253 253 254 254 255 253 255 252 253 253 253 254 253 254 254 254 254 254 254 253 254 254 253 255 255 253 255 253 252 254 254 252 196 0 3 1 0 0 0 0 0 0 1 0 0 0 0 0 0 0 0 0 0 0 0 0 0 0 0 0 0 1 0 0 0 0 0 0 0 0 0 0 0 0 0 0 0 0 0 0 1 0 0 0 0 0 0 1 0 0 0 0 0 0 0 0 0 0 0 0 0 0 0 0 0 1 0 0 0 0 0 0 0 0 0 0 0 0 0 0 0 0 0 0 0 0 0 0 0 0 1 0 0 0 0 0 0 0 0 0 0 1 0 0 0 0 0 0 0 0 0 0 0 0 0 0 0 0 0 0 0 0 0 0 1 0 0 0 0 0 0 0 0 1 0 0 0 0 0 0 0 0 0 0 0 0 0 0 0 0 0 0 0 0 0 0 0 0 0 0 0 0 0 0 0 0 1 1 2 249 251 253 255 255 255 253 254 253 254 254 254 253 254 253 253 255 255 254 254 254 255 254 253 253 253 255 253 255 253 255 254 254 254 255 253 253 254 253 254 255 254 254 255 253 253 253 253 255 253 254 254 254 255 253 254 254 253 253 255 254 254 254 253 254 254 255 253 254 254 255 253 254 255 253 253 255 254 255 254 254 253 254 254 255 255 255 255 255 255 255 255 255 255 255 255 255 255 255 255 255 255 255 255 255 255 255 255 255 255 255 255 255 255 255 255 255 255 255 255 255 255 255 255 255 255 255 255 255 255 255 255 255 255 255 255 255 255 
255 255 255 255 255 255 255 255 255 255 255 255 255 255 255 255 255 255 255 255 255 255 255 255 255 255 255 255 255 255 255 255 255 255 255 255 255 255 255 255 255 255 255 255 255 255 255 255 255 255 255 255 255 255 255 254 253 255 254 253 254 254 254 253 253 253 254 254 254 254 253 253 254 254 254 255 253 255 255 254 254 253 255 254 254 254 254 253 254 254 254 255 254 253 253 254 255 254 255 253 254 254 254 253 255 253 254 254 252 254 254 255 254 254 255 253 254 253 253 255 254 254 253 253 253 254 255 255 255 255 253 254 253 254 253 252 252 253 255 254 255 42 4 2 0 0 0 0 0 0 0 0 0 0 0 0 0 0 0 0 0 0 0 0 0 0 0 0 0 0 0 0 0 0 0 0 0 0 0 0 0 0 0 0 0 0 0 0 0 0 0 0 0 0 0 0 0 0 0 0 0 0 0 0 0 0 0 0 0 0 0 0 0 0 0 0 0 0 0 1 0 0 0 0 0 0 0 0 0 0 0 0 0 0 0 0 0 0 1 0 0 0 0 0 0 0 0 0 0 0 0 0 0 0 0 1 0 0 0 0 0 1 0 0 0 0 0 0 0 0 0 0 0 0 0 0 0 0 0 0 0 0 0 0 0 0 0 0 0 0 0 0 0 0 0 0 0 0 0 0 0 0 0 0 0 0 0 0 0 0 0 0 0 0 0 1 98 255 255 253 254 253 255 254 254 255 255 255 255 253 254 254 254 255 254 254 253 253 253 253 253 253 253 255 253 253 254 254 254 253 254 254 254 253 254 253 254 253 253 253 253 254 253 253 253 254 253 254 254 255 253 254 254 253 254 253 253 254 253 254 254 253 255 254 255 254 254 253 254 254 255 254 253 254 255 255 254 254 255 254 254 255 255 255 255 255 255 255 255 255 255 255 255 255 255 255 255 255 255 255 255 255 255 255 255 255 255 255 255 255 255 255 255 255 255 255 255 255 255 255 255 255 255 255 255 255 255 255 255 255 255 255 255 255 255 
255 255 255 255 255 255 255 255 255 255 255 255 255 255 255 255 255 255 255 255 255 255 255 255 255 255 255 255 255 255 255 255 255 255 255 255 255 255 255 255 255 255 255 255 255 255 255 255 255 255 255 255 255 255 254 255 254 254 254 254 254 254 255 253 253 253 254 255 253 254 253 254 255 254 253 253 254 254 253 252 255 253 253 253 254 255 252 254 254 255 254 254 255 253 254 254 255 254 253 255 254 254 252 253 253 253 253 253 254 254 253 253 253 255 255 254 252 254 253 254 254 255 253 253 255 253 254 253 255 253 254 254 253 254 253 252 254 254 254 255 254 197 0 2 0 0 0 0 0 0 0 0 0 0 0 0 0 0 0 0 0 1 0 0 0 0 0 0 0 0 0 0 0 0 0 0 0 0 0 0 0 0 0 0 0 0 0 0 0 0 0 0 0 0 0 0 0 0 0 0 0 0 0 0 0 0 0 0 0 0 0 0 0 0 0 0 0 0 0 0 0 0 0 0 0 0 0 1 0 0 0 0 0 0 0 0 0 0 0 0 0 0 0 0 0 0 0 0 0 0 0 0 0 0 0 0 0 0 0 0 0 0 1 0 0 0 0 0 0 0 0 1 0 0 0 0 0 0 0 0 0 0 0 0 0 0 0 0 0 0 0 0 0 0 0 0 0 0 0 0 0 0 0 0 0 0 0 0 0 0 0 0 0 0 2 0 230 254 255 253 253 253 253 254 255 254 254 254 255 253 254 255 253 253 255 254 255 253 253 253 255 254 253 255 255 253 254 254 254 253 254 254 253 254 254 253 254 252 254 255 253 253 253 254 254 254 253 253 253 254 255 254 253 254 253 254 254 254 252 253 255 253 254 254 253 253 255 253 254 253 253 254 254 253 254 255 254 254 255 254 254 255 255 255 255 255 255 255 255 255 255 255 255 255 255 255 255 255 255 255 255 255 255 255 255 255 255 255 255 255 255 255 255 255 255 255 255 255 255 255 255 255 255 255 255 255 255 255 255 255 255 255 255 255 255 
255 255 255 255 255 255 255 255 255 255 255 255 255 255 255 255 255 255 255 255 255 255 255 255 255 255 255 255 255 255 255 255 255 255 255 255 255 255 255 255 255 255 255 255 255 255 255 255 255 255 255 255 255 255 253 253 255 254 255 254 252 253 254 252 253 255 253 254 253 254 255 254 253 255 253 254 255 255 253 252 254 254 254 254 254 252 253 255 254 253 254 253 254 253 255 254 254 254 254 254 254 254 253 254 253 254 254 254 255 254 252 254 253 253 254 253 254 252 253 253 255 254 255 253 254 254 253 253 254 253 255 254 255 254 253 253 253 254 255 254 253 255 39 2 0 0 0 0 0 0 0 0 0 0 1 0 0 0 0 0 0 0 0 0 1 0 0 0 0 0 0 0 0 0 0 0 0 0 0 0 0 0 0 0 0 0 1 0 0 0 0 0 0 0 0 0 0 0 0 0 0 0 0 0 0 0 0 0 0 0 0 0 0 0 1 0 0 0 0 0 0 0 0 0 0 0 0 0 0 0 0 0 0 0 0 0 0 0 0 0 0 0 0 0 0 0 0 0 0 0 0 0 1 0 0 0 0 0 0 0 0 0 0 0 0 0 0 0 0 0 0 0 0 0 0 0 0 0 0 0 0 0 0 0 0 0 0 0 0 1 0 0 0 0 0 0 0 0 0 0 0 0 0 0 0 0 0 0 0 0 0 0 1 0 3 71 255 254 255 254 253 254 252 253 255 253 254 253 254 254 254 255 254 254 254 254 254 253 254 253 253 254 254 254 254 254 253 254 255 253 253 255 252 254 253 255 254 253 254 255 254 253 254 254 254 254 255 253 254 253 254 254 254 254 253 254 254 253 254 254 253 255 253 254 253 253 254 254 254 253 254 253 254 255 253 253 255 253 254 255 255 255 255 255 255 255 255 255 255 255 255 255 255 255 255 255 255 255 255 255 255 255 255 255 255 255 255 255 255 255 255 255 255 255 255 255 255 255 255 255 255 255 255 255 255 255 255 255 255 255 255 255 255 255 255 
255 255 255 255 255 255 255 255 255 255 255 255 255 255 255 255 255 255 255 255 255 255 255 255 255 255 255 255 255 255 255 255 255 255 255 255 255 255 255 255 255 255 255 255 255 255 255 255 255 255 255 255 255 255 253 255 253 255 254 253 253 254 253 254 253 253 253 253 255 253 254 254 255 254 254 254 253 253 254 254 253 255 255 253 254 253 254 253 254 254 254 253 255 253 254 254 255 254 255 253 253 254 253 254 253 254 255 254 254 253 253 254 254 254 254 253 252 254 254 253 254 253 253 254 255 255 253 255 254 255 254 254 254 255 253 254 253 254 255 254 255 251 222 0 1 0 0 0 0 0 0 0 0 0 0 0 0 0 0 0 0 0 0 0 0 0 0 0 0 0 0 0 0 0 0 0 0 0 0 0 0 0 0 0 0 0 0 0 0 0 0 0 0 0 0 0 0 0 0 0 0 0 0 0 0 0 0 0 0 0 0 0 0 0 0 0 0 0 0 1 0 0 0 0 1 0 0 0 1 0 0 0 0 0 0 0 0 0 0 0 0 0 0 0 0 0 0 0 0 0 0 0 0 0 1 0 0 1 0 0 0 0 0 0 0 0 0 0 0 0 0 0 0 0 0 0 0 0 0 0 0 0 0 0 0 0 0 0 0 0 0 0 0 0 0 0 0 0 0 0 0 0 0 0 0 0 0 0 0 0 0 1 3 5 0 241 249 255 255 255 253 253 252 253 254 253 255 253 253 255 253 253 254 254 254 254 255 254 254 253 254 254 253 255 254 253 254 253 253 254 254 255 253 253 254 253 254 255 254 255 255 253 255 254 253 254 253 254 254 255 255 253 253 254 254 254 255 254 255 254 253 253 254 254 253 255 253 253 255 254 253 255 254 255 253 255 253 254 255 255 253 255 255 255 255 255 255 255 255 255 255 255 255 255 255 255 255 255 255 255 255 255 255 255 255 255 255 255 255 255 255 255 255 255 255 255 255 255 255 255 255 255 255 255 255 255 255 255 255 255 255 255 255 255 255 
255 255 255 255 255 255 255 255 255 255 255 255 255 255 255 255 255 255 255 255 255 255 255 255 255 255 255 255 255 255 255 255 255 255 255 255 255 255 255 255 255 255 255 255 255 255 255 255 255 255 255 255 255 255 254 254 255 254 253 254 254 254 253 254 254 253 254 253 254 254 254 255 253 255 253 254 253 255 253 255 254 254 255 253 254 254 254 255 253 253 254 254 254 253 255 253 254 253 253 254 253 254 253 254 253 254 254 253 254 254 254 253 255 254 255 253 253 255 254 253 254 254 254 255 254 254 254 253 255 254 255 254 253 255 254 254 253 253 255 255 254 254 255 67 1 0 0 0 0 0 0 0 0 0 0 0 0 0 0 0 0 0 0 0 0 0 0 0 0 0 0 0 0 0 1 0 0 0 0 0 0 0 0 0 0 0 0 0 0 0 0 0 0 0 0 0 0 0 0 0 0 0 0 0 0 1 0 0 0 0 0 0 0 0 0 0 0 0 0 0 0 0 0 0 0 0 0 0 0 0 0 0 0 0 0 0 0 0 0 0 0 0 0 0 0 0 0 0 0 0 1 0 0 1 0 0 0 0 0 0 0 0 0 0 0 0 0 0 0 0 0 0 0 0 0 0 0 0 0 0 0 0 0 0 0 0 1 0 0 0 0 0 0 0 0 0 0 0 0 0 0 0 0 0 0 0 0 0 0 0 0 1 4 0 139 254 252 252 255 255 253 252 252 253 253 254 254 255 255 253 254 254 253 253 253 253 254 254 254 253 255 253 254 253 254 253 254 253 253 254 254 253 254 253 254 254 254 253 253 255 254 255 254 254 255 253 253 255 253 255 253 254 253 254 254 254 255 253 254 254 254 254 254 252 254 254 254 254 253 253 253 254 253 254 255 255 254 254 253 253 254 255 255 255 255 255 255 255 255 255 255 255 255 255 255 255 255 255 255 255 255 255 255 255 255 255 255 255 255 255 255 255 255 255 255 255 255 255 255 255 255 255 255 255 255 255 255 255 255 255 255 255 255 255 255 
255 255 255 255 255 255 255 255 255 255 255 255 255 255 255 255 255 255 255 255 255 255 255 255 255 255 255 255 255 255 255 255 255 255 255 255 255 255 255 255 255 255 255 255 255 255 255 255 255 255 255 255 255 255 254 253 253 255 254 254 255 255 253 253 255 253 254 254 254 253 255 254 255 253 254 254 255 254 254 253 254 255 255 253 253 254 254 253 254 254 254 254 254 253 254 254 254 253 255 255 254 255 253 254 253 255 255 254 253 253 254 254 254 254 255 253 255 255 254 253 254 253 254 253 254 254 255 254 253 253 253 253 255 255 254 255 253 251 252 253 253 254 252 247 1 6 1 1 0 0 0 1 0 0 0 0 1 0 0 0 0 0 0 0 0 0 0 0 0 0 0 0 0 0 0 0 0 1 0 0 0 0 0 0 0 0 0 0 0 0 0 0 0 0 0 0 0 0 0 0 0 0 0 0 0 0 0 0 1 0 0 0 0 0 0 0 0 0 0 0 0 0 0 0 0 0 0 0 0 0 0 0 0 0 0 0 0 0 0 0 0 0 0 0 0 1 0 0 0 0 0 0 0 0 0 0 0 1 0 0 1 0 1 0 0 0 0 0 0 0 0 0 0 0 0 0 0 0 0 0 0 0 0 0 0 0 1 0 0 0 0 0 0 0 0 0 0 0 0 0 0 0 0 0 0 0 0 0 1 0 0 0 4 32 255 250 251 251 254 254 253 252 253 253 254 253 254 254 255 255 253 255 253 254 253 254 255 253 253 253 254 253 254 254 255 254 253 253 254 254 254 253 254 253 253 254 254 253 253 254 254 252 254 254 254 253 254 253 253 254 253 254 254 253 252 254 255 253 255 255 253 255 254 253 254 254 255 253 254 252 254 255 254 254 255 255 254 255 253 254 255 255 255 255 255 255 255 255 255 255 255 255 255 255 255 255 255 255 255 255 255 255 255 255 255 255 255 255 255 255 255 255 255 255 255 255 255 255 255 255 255 255 255 255 255 255 255 255 255 255 255 255 255 255 255 
255 255 255 255 255 255 255 255 255 255 255 255 255 255 255 255 255 255 255 255 255 255 255 255 255 255 255 255 255 255 255 255 255 255 255 255 255 255 255 255 255 255 255 255 255 255 255 255 255 255 255 255 255 255 254 254 253 254 255 254 253 255 255 252 254 254 254 255 253 253 253 254 254 253 254 254 255 254 254 254 253 255 254 253 254 253 254 253 254 254 255 255 253 253 255 255 255 253 252 254 255 253 254 253 255 254 253 254 253 254 253 254 254 254 254 255 254 253 254 254 254 253 254 254 254 255 253 254 253 253 253 254 253 254 255 254 254 248 253 255 255 255 255 255 189 0 7 1 0 0 0 0 0 0 0 0 0 0 0 0 0 0 0 0 0 0 0 0 0 0 0 0 0 0 0 0 0 0 0 0 0 0 0 0 0 0 0 0 0 0 0 0 0 0 0 0 0 0 0 0 0 0 0 0 0 0 0 0 0 0 0 0 0 0 0 0 1 0 0 0 0 0 0 0 0 0 0 0 0 0 0 0 0 0 0 0 0 0 0 0 0 0 0 0 0 0 0 0 0 0 0 1 0 0 0 0 0 0 1 0 0 0 1 0 0 1 0 0 0 0 0 0 0 0 0 0 0 0 0 0 0 0 0 0 0 0 0 0 0 0 0 0 0 0 0 0 0 0 0 0 0 0 0 0 0 0 0 0 1 0 0 2 0 239 255 255 255 255 255 248 253 252 253 254 255 254 253 253 254 255 255 254 255 255 254 254 252 253 253 254 254 254 254 254 253 254 253 253 255 254 254 253 253 253 254 253 254 253 254 255 254 254 253 253 255 254 254 254 253 253 254 254 254 253 254 254 255 255 254 253 254 254 253 255 253 253 255 253 254 255 254 254 255 254 255 254 255 254 255 254 255 255 255 255 255 255 255 255 255 255 255 255 255 255 255 255 255 255 255 255 255 255 255 255 255 255 255 255 255 255 255 255 255 255 255 255 255 255 255 255 255 255 255 255 255 255 255 255 255 255 255 255 255 255 255 
255 255 255 255 255 255 255 255 255 255 255 255 255 255 255 255 255 255 255 255 255 255 255 255 255 255 255 255 255 255 255 255 255 255 255 255 255 255 255 255 255 255 255 255 255 255 255 255 255 255 255 255 255 255 254 254 255 253 255 254 254 255 255 253 254 255 254 254 253 253 253 253 253 254 254 253 253 255 254 253 254 253 255 254 254 253 254 254 255 253 254 253 253 253 254 254 255 253 253 253 253 254 254 254 254 254 253 253 255 254 255 254 255 253 254 253 254 255 253 254 254 253 253 255 253 255 253 255 253 253 255 254 251 254 255 247 255 248 147 65 51 42 70 169 255 150 0 3 0 0 0 0 0 0 0 0 0 0 0 0 0 0 0 0 0 0 0 0 0 0 0 0 0 0 0 0 0 0 0 0 0 0 0 0 0 0 0 0 0 0 0 0 0 0 0 0 0 0 0 0 1 1 0 0 0 0 0 0 0 1 0 0 0 0 0 0 0 0 0 0 0 0 0 0 0 0 0 0 0 0 0 0 0 0 1 0 0 0 0 0 0 0 0 0 1 0 1 0 0 0 0 0 0 0 0 0 0 0 0 0 0 0 0 0 0 0 0 0 0 1 0 0 0 0 0 0 0 0 0 0 0 0 0 0 0 0 0 0 0 0 0 0 0 0 0 0 0 0 0 0 0 0 1 0 0 0 1 0 1 0 0 0 125 116 15 20 18 28 104 227 255 245 254 255 255 254 253 252 253 254 255 255 255 254 255 254 253 254 255 252 254 253 253 254 254 254 253 253 254 253 254 255 253 253 254 254 253 254 253 254 254 255 252 254 253 254 254 254 253 254 252 254 254 253 254 254 253 254 254 253 254 254 254 252 253 254 254 254 254 254 254 253 254 255 255 253 253 254 255 253 254 255 255 255 255 255 255 255 255 255 255 255 255 255 255 255 255 255 255 255 255 255 255 255 255 255 255 255 255 255 255 255 255 255 255 255 255 255 255 255 255 255 255 255 255 255 255 255 255 255 255 255 255 255 255 
255 255 255 255 255 255 255 255 255 255 255 255 255 255 255 255 255 255 255 255 255 255 255 255 255 255 255 255 255 255 255 255 255 255 255 255 255 255 255 255 255 255 255 255 255 255 255 255 255 255 255 255 255 255 255 254 254 254 253 253 254 253 254 255 253 253 253 255 254 252 254 254 253 254 253 255 254 253 253 253 254 254 255 254 254 255 255 254 254 253 253 254 255 254 253 255 254 254 253 253 254 253 254 254 253 253 255 254 254 254 254 254 254 253 254 253 254 254 255 253 253 254 253 254 254 254 253 253 254 255 255 255 252 251 250 253 75 1 0 3 2 2 2 0 5 173 128 0 0 0 0 0 0 0 0 0 0 0 0 0 0 0 1 0 0 0 0 0 0 0 0 0 0 0 0 0 0 1 0 0 0 0 0 0 0 0 0 1 0 0 0 0 0 0 0 0 0 0 0 0 0 0 0 0 0 0 0 0 0 0 0 0 0 0 1 0 0 0 0 0 0 0 0 0 0 0 0 0 0 0 0 0 0 0 0 0 0 0 0 0 0 0 0 0 0 1 0 0 0 0 0 0 0 0 0 0 0 1 0 0 0 0 0 0 0 0 0 0 0 0 0 0 0 0 0 0 0 0 0 0 0 0 0 0 0 0 0 0 0 0 0 0 0 0 0 0 0 0 0 1 0 0 0 0 0 0 0 0 0 0 0 3 0 2 4 3 3 3 2 0 66 249 249 254 255 254 253 254 253 253 254 254 253 253 253 254 255 255 255 253 254 255 254 253 253 254 254 254 253 253 254 253 255 255 255 255 253 254 253 255 254 254 253 254 253 253 253 254 254 253 254 253 253 255 254 255 254 255 255 255 253 254 255 253 254 255 254 255 255 253 253 254 255 253 255 255 253 254 254 255 254 255 255 255 255 255 255 255 255 255 255 255 255 255 255 255 255 255 255 255 255 255 255 255 255 255 255 255 255 255 255 255 255 255 255 255 255 255 255 255 255 255 255 255 255 255 255 255 255 255 255 255 255 255 255 
255 255 255 255 255 255 255 255 255 255 255 255 255 255 255 255 255 255 255 255 255 255 255 255 255 255 255 255 255 255 255 255 255 255 255 255 255 255 255 255 255 255 255 255 255 255 255 255 255 255 255 255 255 255 253 253 255 254 253 253 255 253 253 253 253 255 253 254 253 253 253 254 254 254 252 253 255 253 253 253 254 253 253 253 254 253 253 253 254 255 254 253 255 254 253 253 254 253 254 254 254 254 253 255 254 253 253 254 253 253 253 254 253 253 254 253 254 254 253 254 253 254 253 255 254 255 254 253 254 255 254 255 253 253 228 7 2 4 2 1 1 1 2 3 5 0 49 9 0 0 0 0 0 0 0 0 0 0 0 0 0 0 0 0 0 0 0 0 0 0 0 0 0 0 0 0 0 0 0 0 0 1 0 0 0 0 0 0 1 0 0 0 0 0 0 0 0 1 0 0 0 0 0 0 0 0 0 0 0 0 0 0 0 0 0 1 0 0 0 0 0 0 0 0 0 0 0 0 0 0 0 0 0 0 0 0 0 0 0 0 0 0 0 0 0 0 0 0 0 0 0 0 0 0 0 0 0 0 0 0 0 0 0 0 0 0 0 0 0 0 0 0 0 0 0 0 0 0 0 0 0 0 0 1 0 0 0 0 0 0 0 0 0 0 0 0 0 0 0 0 0 0 0 0 0 0 0 0 0 0 1 0 0 1 0 1 2 1 1 1 5 6 236 251 254 254 254 253 255 254 253 254 254 253 255 254 253 253 254 253 254 254 254 253 254 253 253 255 253 255 255 254 253 253 255 254 254 254 253 254 254 254 254 253 253 253 253 254 254 253 254 253 253 255 254 254 253 253 253 253 253 253 253 253 254 255 254 255 254 253 253 253 253 255 253 254 254 252 254 255 255 255 255 255 255 255 255 255 255 255 255 255 255 255 255 255 255 255 255 255 255 255 255 255 255 255 255 255 255 255 255 255 255 255 255 255 255 255 255 255 255 255 255 255 255 255 255 255 255 255 255 255 255 255 255 
255 255 255 255 255 255 255 255 255 255 255 255 255 255 255 255 255 255 255 255 255 255 255 255 255 255 255 255 255 255 255 255 255 255 255 255 255 255 255 255 255 255 255 255 255 255 255 255 255 255 255 255 255 255 253 254 255 253 253 254 253 254 255 254 254 255 254 254 253 255 253 254 254 254 253 254 253 253 254 254 253 252 253 252 253 253 255 254 253 253 255 253 253 255 253 253 253 253 253 252 255 253 253 254 254 254 252 253 254 254 253 254 253 253 255 254 255 255 253 253 254 254 255 253 254 253 254 253 253 254 255 255 252 222 0 6 3 3 0 0 0 0 1 1 2 2 1 0 0 0 0 1 0 0 0 0 0 0 0 0 0 0 0 0 0 0 0 0 0 0 0 0 0 0 1 0 0 0 0 0 0 0 0 0 0 0 0 0 0 0 0 0 0 0 0 0 0 0 0 0 0 0 1 0 0 0 0 0 0 0 0 0 0 0 0 0 0 0 0 0 0 0 0 0 0 0 0 1 0 0 0 0 0 0 0 0 0 0 0 0 0 0 0 0 0 0 0 0 1 0 0 0 1 0 0 0 0 0 0 0 0 1 0 0 0 0 0 0 0 0 0 0 0 0 0 0 0 0 0 0 0 0 0 0 0 0 0 0 0 0 0 0 0 1 0 1 0 0 0 0 0 0 1 0 0 0 0 0 0 0 1 0 0 0 0 0 1 0 0 0 1 4 2 241 250 255 252 253 255 253 252 255 253 254 255 255 253 254 253 253 253 255 254 255 254 254 254 253 255 255 254 255 254 252 254 253 253 254 253 253 254 255 253 253 253 253 253 254 253 252 255 253 253 254 255 253 253 253 252 252 253 252 254 253 254 254 252 253 253 253 254 253 255 255 254 254 254 255 255 253 255 255 255 255 255 255 255 255 255 255 255 255 255 255 255 255 255 255 255 255 255 255 255 255 255 255 255 255 255 255 255 255 255 255 255 255 255 255 255 255 255 255 255 255 255 255 255 255 255 255 255 255 255 255 255 
255 255 255 255 255 255 255 255 255 255 255 255 255 255 255 255 255 255 255 255 255 255 255 255 255 255 255 255 255 255 255 255 255 255 255 255 255 255 255 255 255 255 255 255 255 255 255 255 255 255 255 255 255 255 253 255 254 254 254 254 253 253 254 254 255 254 253 255 253 255 253 254 254 253 255 254 253 254 254 255 254 254 253 253 253 254 253 254 254 253 254 254 253 254 253 254 253 253 253 254 252 254 253 255 253 254 252 254 254 254 253 254 253 254 253 255 254 254 253 254 254 254 253 254 252 254 254 254 253 253 255 249 251 3 3 1 0 2 0 0 1 1 3 1 0 0 0 0 0 0 0 0 0 0 0 0 0 0 1 0 0 0 0 0 0 0 0 0 0 0 0 0 0 1 0 0 0 0 0 0 0 0 0 0 0 0 0 0 0 0 0 0 0 0 0 0 0 0 0 0 0 0 0 0 0 0 0 0 0 0 0 0 0 0 0 1 0 0 0 0 0 0 0 0 0 0 0 0 0 0 0 0 0 0 0 0 0 0 0 0 0 0 0 0 0 0 0 0 0 0 0 0 0 0 0 0 0 1 0 0 0 0 1 0 0 0 0 0 0 0 1 0 0 0 0 0 1 0 0 0 0 0 0 0 0 0 0 0 0 0 0 0 0 0 0 0 0 0 0 0 0 0 1 0 0 0 0 0 0 1 0 0 0 0 0 0 0 0 0 0 0 2 6 21 255 246 252 253 255 254 254 254 253 255 253 255 253 255 254 254 253 255 253 253 254 254 254 254 254 253 254 254 254 254 254 254 254 254 253 254 254 253 253 254 254 254 254 253 253 254 254 254 254 253 254 254 253 253 254 254 253 254 255 254 254 255 253 254 252 254 254 254 254 254 254 253 254 254 254 254 254 255 255 255 255 255 255 255 255 255 255 255 255 255 255 255 255 255 255 255 255 255 255 255 255 255 255 255 255 255 255 255 255 255 255 255 255 255 255 255 255 255 255 255 255 255 255 255 255 255 255 255 255 255 255 
255 255 255 255 255 255 255 255 255 255 255 255 255 255 255 255 255 255 255 255 255 255 255 255 255 255 255 255 255 255 255 255 255 255 255 255 255 255 255 255 255 255 255 255 255 255 255 255 255 255 255 255 255 255 253 254 253 253 254 255 254 253 254 253 254 255 253 253 255 253 254 253 254 254 254 253 253 254 253 255 253 255 254 254 253 254 254 255 254 253 253 255 254 253 254 254 253 254 253 254 252 254 254 254 254 254 254 254 254 253 254 255 253 254 253 255 254 253 255 253 254 254 253 255 254 253 255 254 253 254 252 255 74 1 0 0 0 1 0 0 0 0 1 0 0 0 0 0 0 0 0 0 0 0 0 0 0 0 0 0 0 0 0 0 0 1 0 0 0 0 0 0 0 0 0 0 0 0 0 0 0 0 0 0 0 0 0 0 0 0 0 0 0 0 0 0 0 0 0 0 0 0 0 0 1 0 0 0 0 0 0 0 0 0 0 0 0 0 0 0 0 0 0 1 0 0 1 0 0 0 0 0 0 0 0 0 1 0 0 0 0 0 0 0 0 0 0 0 0 0 0 0 0 0 0 0 0 0 0 0 0 0 0 0 0 0 0 0 0 0 0 0 0 0 0 0 0 0 0 0 0 0 0 0 0 0 0 0 0 0 0 0 0 0 0 0 0 0 0 0 0 0 0 0 0 0 1 0 0 0 0 0 1 0 0 0 0 0 0 0 1 2 3 0 124 255 251 255 255 255 255 254 254 253 253 254 254 253 254 254 253 253 254 253 254 255 253 252 254 253 255 253 254 255 253 254 254 253 253 253 253 254 253 253 254 255 255 253 254 254 255 255 253 254 254 255 253 254 253 253 254 255 253 255 253 254 254 255 252 253 254 253 253 254 254 254 253 254 253 255 253 255 255 255 255 255 255 255 255 255 255 255 255 255 255 255 255 255 255 255 255 255 255 255 255 255 255 255 255 255 255 255 255 255 255 255 255 255 255 255 255 255 255 255 255 255 255 255 255 255 255 255 255 255 255 
255 255 255 255 255 255 255 255 255 255 255 255 255 255 255 255 255 255 255 255 255 255 255 255 255 255 255 255 255 255 255 255 255 255 255 255 255 255 255 255 255 255 255 255 255 255 255 255 255 255 255 255 255 255 253 254 254 254 254 253 254 254 254 255 254 254 254 254 254 254 253 254 253 255 253 254 254 253 253 253 254 254 254 254 254 254 254 254 253 254 253 254 253 255 255 254 253 254 253 253 254 253 255 252 254 253 254 254 253 253 255 254 253 253 255 254 253 254 255 254 254 254 253 254 255 252 255 254 253 252 252 216 0 5 0 0 0 0 0 0 0 0 1 0 0 0 0 0 0 0 1 0 0 1 0 0 0 0 0 0 0 0 0 0 0 0 0 0 1 0 0 0 1 0 0 0 0 0 0 0 0 0 0 0 0 0 0 0 0 0 0 0 0 0 0 0 0 0 0 0 0 0 0 0 1 0 0 0 0 0 0 0 0 0 0 0 0 0 0 0 0 0 0 0 0 1 0 0 0 0 0 0 0 0 0 0 0 0 0 0 0 0 0 0 0 0 0 0 0 0 0 0 0 1 0 0 0 0 0 0 0 0 0 0 0 0 0 0 0 0 0 0 0 0 0 0 0 0 0 0 0 0 0 0 0 0 0 0 0 0 0 0 0 0 0 0 0 0 0 0 0 0 0 1 0 0 0 0 0 0 0 0 0 0 1 0 0 0 0 0 1 1 0 4 3 247 251 254 255 254 254 253 254 253 254 253 255 253 253 252 254 254 252 254 254 255 254 254 255 253 254 253 254 254 253 255 255 253 253 254 253 255 253 254 254 253 253 254 254 255 254 254 254 255 254 255 253 255 253 253 254 254 253 255 253 253 253 254 254 253 253 253 254 254 255 255 254 254 253 255 254 255 255 255 255 255 255 255 255 255 255 255 255 255 255 255 255 255 255 255 255 255 255 255 255 255 255 255 255 255 255 255 255 255 255 255 255 255 255 255 255 255 255 255 255 255 255 255 255 255 255 255 255 255 255 
255 255 255 255 255 255 255 255 255 255 255 255 255 255 255 255 255 255 255 255 255 255 255 255 255 255 255 255 255 255 255 255 255 255 255 255 255 255 255 255 255 255 255 255 255 255 255 255 255 255 255 255 255 255 254 254 255 254 255 253 253 254 254 253 255 254 255 254 252 255 253 254 253 254 253 255 254 253 254 253 254 254 252 253 254 252 253 254 253 255 253 253 254 254 255 253 254 253 254 253 252 253 254 253 254 254 253 254 253 254 252 253 254 254 255 252 253 255 254 255 253 253 253 254 254 254 253 255 254 251 255 49 3 3 1 0 0 0 0 1 0 0 0 0 0 0 0 0 1 0 0 0 0 1 0 0 0 0 0 0 0 0 0 0 0 0 0 0 0 0 0 0 1 0 0 0 0 0 1 0 1 0 0 0 0 0 0 0 0 0 0 0 0 0 0 0 0 1 0 0 0 0 0 0 0 0 0 0 0 0 0 0 0 0 0 0 0 0 0 0 0 0 0 0 0 0 0 0 0 0 0 0 0 0 0 0 0 0 0 0 0 1 0 0 1 0 0 0 0 0 0 0 0 0 0 0 0 0 0 0 0 0 0 0 0 0 0 0 0 0 0 0 0 0 0 0 0 0 0 0 0 0 0 0 0 0 0 0 0 0 0 0 0 0 0 0 0 0 0 0 0 0 0 0 0 0 0 0 0 0 0 0 0 0 0 0 0 0 0 0 1 0 0 0 1 125 255 255 254 253 254 255 253 254 253 253 254 254 254 254 254 253 253 253 253 255 254 255 255 253 254 254 254 253 254 253 255 253 254 254 254 252 253 253 253 253 254 254 253 255 254 253 254 253 253 253 253 254 253 255 254 254 253 252 253 254 254 253 254 254 253 255 253 255 255 255 253 253 255 253 254 255 255 255 255 255 255 255 255 255 255 255 255 255 255 255 255 255 255 255 255 255 255 255 255 255 255 255 255 255 255 255 255 255 255 255 255 255 255 255 255 255 255 255 255 255 255 255 255 255 255 255 255 255 255 
255 255 255 255 255 255 255 255 255 255 255 255 255 255 255 255 255 255 255 255 255 255 255 255 255 255 255 255 255 255 255 255 255 255 255 255 255 255 255 255 255 255 255 255 255 255 255 255 255 255 255 255 255 255 254 255 253 253 255 255 254 253 255 253 255 255 253 254 254 252 253 254 254 254 253 254 254 254 253 254 253 254 253 253 254 253 254 254 254 254 254 254 253 254 254 253 255 253 254 254 254 253 254 253 255 253 253 253 253 254 253 253 254 255 253 254 254 255 254 254 254 253 254 255 253 255 253 254 255 253 224 0 1 3 1 0 0 0 0 0 0 0 0 0 0 0 0 0 0 0 0 0 0 0 1 0 0 0 0 0 0 0 0 0 0 0 0 0 0 0 0 0 0 0 0 0 1 1 0 0 0 0 0 0 0 0 0 0 0 0 0 0 0 0 0 0 0 0 0 0 0 0 0 0 0 0 1 0 0 0 0 0 0 0 0 0 0 0 0 0 0 0 0 0 0 0 0 0 0 0 0 0 0 0 0 0 0 0 0 0 0 0 0 0 0 0 0 0 0 0 0 0 0 0 0 0 0 0 0 0 0 0 0 0 1 0 0 0 0 0 0 0 0 0 0 0 0 0 0 0 0 0 0 0 0 0 0 0 0 0 0 0 0 0 0 0 0 0 0 0 0 0 0 0 0 0 0 0 0 0 0 0 0 0 0 0 0 0 0 0 0 1 0 0 0 21 255 253 254 253 253 255 253 254 254 254 253 252 255 253 253 254 254 254 254 253 253 253 254 253 255 253 254 254 254 254 254 254 253 253 254 254 254 253 254 254 254 255 254 255 255 253 254 253 255 253 254 253 254 255 253 252 254 253 253 254 255 254 253 254 254 255 253 254 254 254 253 253 254 253 253 255 255 255 255 255 255 255 255 255 255 255 255 255 255 255 255 255 255 255 255 255 255 255 255 255 255 255 255 255 255 255 255 255 255 255 255 255 255 255 255 255 255 255 255 255 255 255 255 255 255 255 255 255 255 
255 255 255 255 255 255 255 255 255 255 255 255 255 255 255 255 255 255 255 255 255 255 255 255 255 255 255 255 255 255 255 255 255 255 255 255 255 255 255 255 255 255 255 255 255 255 255 255 255 255 255 255 255 255 254 255 253 253 253 255 254 254 254 253 254 254 252 254 254 253 253 254 254 253 253 254 254 254 253 254 253 253 254 255 254 254 255 254 254 253 255 253 253 254 255 254 254 253 254 254 254 253 255 253 255 253 252 254 253 254 253 254 253 254 254 254 255 254 254 254 255 254 254 255 254 253 253 255 255 255 127 0 0 1 0 0 0 0 0 0 0 0 0 0 0 0 0 0 0 0 0 0 0 0 0 0 0 0 0 0 0 0 0 0 0 0 0 0 0 0 1 0 0 0 0 0 0 0 0 0 0 1 0 0 0 0 0 0 0 0 0 0 0 0 0 0 0 0 0 0 0 0 0 0 0 0 0 0 0 0 0 0 0 0 0 0 0 0 0 0 0 0 0 0 0 0 0 0 1 0 1 0 1 0 0 0 0 0 0 0 0 0 0 0 0 0 0 0 0 0 0 0 0 0 0 0 0 0 0 0 1 0 0 0 0 0 0 0 0 0 0 0 0 0 0 0 0 0 0 0 0 0 0 0 0 0 0 0 0 0 0 0 0 0 0 0 0 0 0 0 0 0 0 0 0 0 0 0 0 0 0 0 0 0 0 0 0 0 0 0 0 0 0 0 0 0 210 254 255 253 254 253 254 254 254 255 255 252 255 253 253 255 254 255 254 254 254 253 255 253 254 254 253 255 254 254 254 253 254 253 254 254 254 254 255 254 254 254 254 254 253 254 255 253 253 253 254 254 253 253 253 253 252 254 254 254 253 254 253 253 254 253 255 254 254 255 254 254 254 254 254 255 255 255 255 255 255 255 255 255 255 255 255 255 255 255 255 255 255 255 255 255 255 255 255 255 255 255 255 255 255 255 255 255 255 255 255 255 255 255 255 255 255 255 255 255 255 255 255 255 255 255 255 255 255 
255 255 255 255 255 255 255 255 255 255 255 255 255 255 255 255 255 255 255 255 255 255 255 255 255 255 255 255 255 255 255 255 255 255 255 255 255 255 255 255 255 255 255 255 255 255 255 255 255 255 255 255 255 255 254 254 254 254 254 255 253 255 253 254 253 254 253 253 254 253 254 254 254 253 254 253 254 254 254 254 252 254 254 252 254 255 254 254 254 254 255 254 253 254 254 252 254 254 254 254 254 254 254 254 253 253 253 254 255 254 253 255 254 254 255 252 254 253 254 253 254 255 253 253 254 254 253 254 255 255 29 0 0 0 0 0 1 0 0 0 0 0 0 0 0 0 0 0 0 0 0 1 0 0 0 0 0 0 0 0 0 0 0 0 0 0 0 0 0 0 1 0 0 0 0 0 0 0 0 0 0 0 0 0 0 0 0 0 1 0 0 0 0 0 0 0 0 0 0 0 0 0 0 0 0 0 0 0 0 0 0 0 0 0 0 0 0 0 0 0 0 0 0 0 0 0 1 0 0 0 0 0 0 0 0 0 0 0 0 0 0 0 0 0 0 1 0 0 0 0 0 0 0 0 0 0 0 0 0 0 0 0 0 0 0 0 0 0 0 0 0 0 0 0 0 0 0 0 0 0 0 0 0 0 0 0 0 0 0 0 0 0 0 0 0 0 0 0 0 0 0 0 0 0 0 0 0 1 0 0 0 0 0 0 0 0 0 0 0 0 0 0 0 0 0 0 124 255 253 254 253 254 253 254 254 253 254 253 253 254 253 254 254 255 254 254 254 253 254 253 254 254 255 254 252 254 254 254 255 254 255 253 254 255 253 254 254 253 254 254 254 254 253 253 253 254 253 255 253 254 253 253 254 252 254 254 254 253 253 253 254 253 255 255 254 254 254 255 255 254 254 255 255 255 255 255 255 255 255 255 255 255 255 255 255 255 255 255 255 255 255 255 255 255 255 255 255 255 255 255 255 255 255 255 255 255 255 255 255 255 255 255 255 255 255 255 255 255 255 255 255 255 255 255 255 
255 255 255 255 255 255 255 255 255 255 255 255 255 255 255 255 255 255 255 255 255 255 255 255 255 255 255 255 255 255 255 255 255 255 255 255 255 255 255 255 255 255 255 255 255 255 255 255 255 255 255 255 255 255 253 255 254 255 254 254 254 254 254 253 253 253 254 254 253 253 253 254 254 253 253 253 254 254 254 253 253 254 254 253 253 254 253 253 253 253 253 253 253 253 254 253 254 254 253 254 253 255 253 254 253 253 255 253 253 255 253 254 254 253 254 253 254 253 254 253 253 253 254 253 254 253 253 254 254 238 2 1 0 0 0 0 0 0 0 0 1 0 0 0 0 0 0 0 0 0 0 0 0 0 0 0 0 0 0 0 0 0 0 0 0 0 0 0 0 0 0 0 0 0 0 0 0 0 0 0 0 0 0 0 0 0 1 0 0 0 0 1 0 0 0 0 0 0 0 0 0 0 0 0 0 0 0 0 0 0 0 0 0 0 0 0 0 0 0 0 0 1 0 0 0 0 1 0 0 0 0 0 0 0 0 0 0 0 0 0 0 1 0 0 0 0 0 0 0 0 0 0 0 0 0 0 0 0 0 0 0 0 1 0 0 0 0 0 0 0 0 0 0 0 0 0 0 0 0 0 0 0 0 0 0 0 0 0 0 0 1 0 0 0 0 0 0 0 0 0 0 0 0 0 0 0 0 0 0 0 0 0 0 0 0 0 0 0 0 0 0 0 0 1 0 2 30 255 253 253 253 254 253 254 254 254 254 254 253 254 254 253 255 254 255 254 253 255 253 254 253 254 252 254 253 254 255 255 255 254 254 254 253 254 255 254 254 253 254 254 255 253 253 253 253 254 253 253 253 255 254 253 254 253 253 255 253 253 254 254 254 254 255 255 255 254 255 254 255 255 253 255 255 255 255 255 255 255 255 255 255 255 255 255 255 255 255 255 255 255 255 255 255 255 255 255 255 255 255 255 255 255 255 255 255 255 255 255 255 255 255 255 255 255 255 255 255 255 255 255 255 255 255 255 255 
255 255 255 255 255 255 255 255 255 255 255 255 255 255 255 255 255 255 255 255 255 255 255 255 255 255 255 255 255 255 255 255 255 255 255 255 255 255 255 255 255 255 255 255 255 255 255 255 255 255 255 255 255 255 255 254 254 253 253 255 254 253 254 254 254 253 253 255 253 253 253 255 253 253 253 254 254 253 254 253 254 254 254 254 253 253 254 253 253 254 253 253 254 254 253 255 254 254 254 255 254 253 253 254 253 254 253 253 255 254 255 254 254 254 253 253 254 253 254 254 253 253 254 253 254 254 253 254 254 193 0 0 0 0 1 0 0 0 0 0 0 0 0 0 0 0 0 0 0 0 0 0 0 0 0 1 0 0 0 0 0 0 0 0 0 0 0 0 0 0 0 0 0 0 0 0 1 0 0 0 0 0 0 0 0 0 0 0 0 0 0 0 0 0 0 0 0 0 0 0 0 0 0 0 0 0 0 0 0 0 0 0 0 0 0 0 0 0 0 0 0 0 0 0 0 0 0 0 0 0 0 0 0 0 0 0 0 0 0 0 0 0 0 0 0 0 0 0 0 0 0 0 0 0 0 0 0 0 0 0 0 0 0 0 0 0 0 0 0 0 0 0 0 0 0 0 0 0 0 0 0 0 0 0 0 0 0 0 0 1 0 0 0 0 0 0 0 0 0 0 0 0 0 0 0 0 0 0 0 0 0 0 0 0 0 0 0 0 0 0 0 0 0 0 0 0 14 246 252 253 255 254 254 254 254 254 254 254 254 253 253 255 252 253 254 255 254 252 253 253 254 253 253 253 255 253 255 255 254 254 255 254 253 254 254 253 255 255 254 254 254 254 253 254 253 255 254 253 255 254 254 254 253 254 253 253 253 253 254 255 253 254 253 254 255 255 254 254 254 254 254 255 255 255 255 255 255 255 255 255 255 255 255 255 255 255 255 255 255 255 255 255 255 255 255 255 255 255 255 255 255 255 255 255 255 255 255 255 255 255 255 255 255 255 255 255 255 255 255 255 255 255 255 255 255 
255 255 255 255 255 255 255 255 255 255 255 255 255 255 255 255 255 255 255 255 255 255 255 255 255 255 255 255 255 255 255 255 255 255 255 255 255 255 255 255 255 255 255 255 255 255 255 255 255 255 255 255 255 255 254 254 254 253 253 255 253 254 253 254 255 253 253 254 254 253 254 254 254 253 254 254 254 253 254 254 254 254 254 254 253 253 254 253 253 254 254 254 255 253 253 253 254 254 255 254 255 254 253 253 253 253 253 253 254 254 254 255 254 254 253 254 254 253 254 254 254 255 253 254 253 254 254 252 255 143 0 1 0 0 0 0 0 0 0 0 0 0 0 0 0 0 0 0 0 0 0 0 0 0 0 0 0 0 0 0 0 0 0 0 0 0 0 0 0 0 0 0 0 0 0 0 0 0 0 0 0 0 0 0 0 0 0 0 0 0 0 0 0 0 0 0 0 0 0 0 0 0 0 0 0 0 0 0 0 0 0 0 0 1 0 0 0 0 0 0 0 1 0 0 0 0 0 0 0 0 0 0 0 0 0 0 0 0 0 0 0 0 0 0 0 0 0 0 0 0 0 0 0 0 0 0 0 0 0 0 0 0 0 0 0 0 0 0 0 0 0 0 0 0 0 0 0 0 0 0 0 0 0 0 0 0 0 0 0 0 0 0 0 0 0 0 0 0 0 0 0 0 0 0 0 0 0 0 0 0 0 0 0 0 0 0 0 0 0 0 0 0 0 0 1 1 0 218 253 254 255 254 253 253 254 253 255 253 254 253 254 255 253 255 254 253 254 253 253 253 254 254 254 253 254 254 254 254 255 254 253 254 253 255 254 253 253 254 253 254 254 254 253 254 253 253 253 253 253 254 254 255 254 252 255 253 254 254 255 253 254 253 255 254 254 255 254 252 254 255 253 255 255 255 255 255 255 255 255 255 255 255 255 255 255 255 255 255 255 255 255 255 255 255 255 255 255 255 255 255 255 255 255 255 255 255 255 255 255 255 255 255 255 255 255 255 255 255 255 255 255 255 255 255 255 
255 255 255 255 255 255 255 255 255 255 255 255 255 255 255 255 255 255 255 255 255 255 255 255 255 255 255 255 255 255 255 255 255 255 255 255 255 255 255 255 255 255 255 255 255 255 255 255 255 255 255 255 255 255 253 255 254 254 253 254 253 254 254 255 253 254 253 254 253 253 255 253 254 253 254 254 253 254 254 253 254 255 253 255 254 253 254 253 254 255 253 255 253 253 253 254 254 254 253 255 254 253 254 253 253 253 253 253 254 253 253 254 254 253 253 253 254 255 254 253 254 253 255 254 254 253 255 254 255 52 1 2 0 0 0 0 0 0 0 0 0 0 0 0 0 0 0 0 0 0 0 0 0 0 0 0 0 0 0 0 0 0 0 0 0 0 0 0 0 0 0 0 0 0 0 0 0 0 0 0 0 0 0 0 0 0 0 0 0 0 0 0 0 0 0 0 0 0 0 0 0 0 0 0 0 0 0 0 0 0 0 0 0 0 0 0 0 0 0 0 0 0 0 0 0 0 0 0 0 0 0 0 0 0 0 0 0 0 0 0 0 0 0 0 0 0 0 0 0 0 0 0 0 0 0 0 0 0 0 0 0 0 0 0 0 0 0 0 0 0 0 0 0 0 0 0 0 0 0 0 0 0 0 0 0 0 0 0 0 0 0 0 0 0 0 1 0 0 0 0 0 0 0 0 0 0 0 0 0 0 0 0 0 0 0 0 0 0 0 0 0 0 0 0 1 0 0 204 255 255 254 254 253 253 253 253 253 254 253 255 255 253 254 253 254 254 254 254 253 254 253 253 253 253 254 253 253 254 255 253 254 254 253 254 254 254 255 254 254 253 254 255 253 253 253 253 252 253 253 253 254 255 254 253 253 253 253 253 254 253 254 253 255 254 254 255 255 253 254 255 254 255 255 255 255 255 255 255 255 255 255 255 255 255 255 255 255 255 255 255 255 255 255 255 255 255 255 255 255 255 255 255 255 255 255 255 255 255 255 255 255 255 255 255 255 255 255 255 255 255 255 255 255 255 255 
255 255 255 255 255 255 255 255 255 255 255 255 255 255 255 255 255 255 255 255 255 255 255 255 255 255 255 255 255 255 255 255 255 255 255 255 255 255 255 255 255 255 255 255 255 255 255 255 255 255 255 255 255 255 254 253 254 254 253 254 254 253 254 255 253 254 254 254 253 253 253 254 254 255 254 254 253 253 254 253 254 255 254 255 254 254 254 253 254 255 253 253 253 254 253 253 253 255 255 254 253 253 254 253 254 254 255 253 255 254 253 255 253 253 254 253 253 254 254 254 254 253 254 252 254 254 255 254 255 40 0 2 0 0 0 0 0 0 0 0 0 0 0 0 0 0 0 0 0 0 0 0 0 0 0 0 0 0 0 0 0 0 0 0 0 0 0 0 0 0 0 0 0 0 0 0 0 0 0 0 0 0 0 0 0 0 0 0 0 0 0 0 0 0 0 0 0 0 0 0 0 0 0 0 0 0 0 0 0 0 0 0 0 1 0 0 0 0 1 0 0 0 0 0 0 0 0 0 1 0 0 0 0 0 0 0 0 0 0 0 0 0 0 0 0 0 0 0 0 0 0 0 0 0 0 0 0 0 0 0 0 0 0 0 0 0 0 0 0 0 0 0 0 0 0 0 0 1 0 0 0 0 0 0 0 0 0 0 0 0 0 0 0 0 0 0 0 0 0 0 0 0 0 0 0 0 1 0 0 0 0 0 0 1 0 0 0 0 0 0 0 0 1 0 1 0 0 122 254 255 255 254 254 254 252 253 253 253 253 255 253 253 254 253 255 254 254 253 254 253 252 254 254 253 255 254 254 253 254 254 255 254 254 255 253 253 253 255 254 255 254 255 255 253 255 254 253 254 255 253 255 254 253 253 254 255 254 254 253 254 255 254 253 253 254 253 254 254 254 254 254 255 255 255 255 255 255 255 255 255 255 255 255 255 255 255 255 255 255 255 255 255 255 255 255 255 255 255 255 255 255 255 255 255 255 255 255 255 255 255 255 255 255 255 255 255 255 255 255 255 255 255 255 255 255 
255 255 255 255 255 255 255 255 255 255 255 255 255 255 255 255 255 255 255 255 255 255 255 255 255 255 255 255 255 255 255 255 255 255 255 255 255 255 255 255 255 255 255 255 255 255 255 255 255 255 255 255 255 255 254 255 254 253 255 253 255 254 254 254 254 255 254 253 253 253 253 254 255 253 254 254 254 253 254 254 253 254 255 253 254 253 253 254 253 255 254 254 254 255 253 253 254 253 255 254 252 254 255 253 253 253 255 253 254 255 254 254 253 254 254 254 253 255 254 253 254 254 254 253 253 254 255 255 246 4 3 2 0 0 0 0 0 0 0 0 0 0 0 0 0 0 0 0 0 0 0 0 0 0 0 0 0 0 0 0 0 0 1 0 0 0 1 0 0 0 0 0 0 0 0 1 0 0 0 0 0 0 0 0 0 0 0 0 0 0 0 0 0 0 0 0 0 0 0 0 0 0 0 0 0 0 0 0 0 0 0 0 0 0 0 0 0 0 0 0 0 0 0 0 0 1 0 0 0 0 0 0 1 0 0 0 0 0 0 0 0 0 0 0 0 0 0 0 0 0 0 0 0 0 0 0 0 0 0 0 0 0 0 0 0 0 0 0 0 0 0 0 0 0 0 0 0 0 0 0 1 0 0 0 0 0 0 0 0 0 0 0 0 0 0 0 0 0 0 0 0 0 0 0 0 0 0 0 0 0 0 0 0 0 0 0 0 0 0 0 0 0 0 0 0 0 0 136 254 255 254 254 253 253 253 253 254 254 255 253 254 254 254 254 253 253 254 254 255 254 253 253 253 255 254 253 254 255 254 253 254 253 253 254 255 253 253 253 253 254 255 253 254 254 254 254 254 253 253 254 254 252 254 253 253 254 253 254 253 255 255 253 254 254 253 254 254 255 254 254 254 255 255 255 255 255 255 255 255 255 255 255 255 255 255 255 255 255 255 255 255 255 255 255 255 255 255 255 255 255 255 255 255 255 255 255 255 255 255 255 255 255 255 255 255 255 255 255 255 255 255 255 255 255 255 
255 255 255 255 255 255 255 255 255 255 255 255 255 255 255 255 255 255 255 255 255 255 255 255 255 255 255 255 255 255 255 255 255 255 255 255 255 255 255 255 255 255 255 255 255 255 255 255 255 255 255 255 255 255 253 253 254 254 254 254 254 253 254 253 254 254 254 253 254 254 254 255 254 253 254 254 253 253 254 253 254 254 254 253 254 253 254 255 254 253 253 254 253 253 253 254 253 254 253 253 253 254 254 253 253 253 254 254 254 254 255 254 253 253 253 253 253 253 255 253 254 254 254 255 253 253 254 254 247 7 0 2 0 0 0 0 0 0 0 0 0 0 0 0 1 0 0 0 0 0 0 0 0 0 0 0 0 0 0 0 0 0 0 0 0 0 0 1 0 0 0 0 0 0 0 0 0 0 0 0 0 0 0 0 0 0 0 0 0 0 0 0 0 0 0 0 0 0 0 0 0 0 0 0 1 0 0 0 0 0 0 0 0 0 0 0 0 0 0 0 0 0 0 0 0 0 0 0 0 0 0 0 0 0 0 0 0 0 0 0 0 0 0 0 0 0 0 0 0 0 0 0 0 0 0 0 0 0 0 0 0 0 0 0 0 0 0 0 0 0 0 0 0 0 0 0 0 0 0 0 0 0 0 0 0 0 0 0 0 0 0 0 0 0 0 0 0 0 0 0 0 0 0 0 0 0 0 0 0 0 0 0 0 0 0 0 0 0 0 0 0 0 0 0 0 0 0 140 254 255 253 254 255 254 255 253 254 254 255 253 254 253 254 254 254 253 254 253 254 253 255 253 254 255 254 254 255 253 253 254 253 255 253 253 254 254 253 253 253 254 254 253 254 253 255 254 253 253 253 254 254 253 255 254 252 254 254 253 255 255 255 254 254 255 253 255 254 254 253 254 255 255 255 255 255 255 255 255 255 255 255 255 255 255 255 255 255 255 255 255 255 255 255 255 255 255 255 255 255 255 255 255 255 255 255 255 255 255 255 255 255 255 255 255 255 255 255 255 255 255 255 255 255 255 255 
255 255 255 255 255 255 255 255 255 255 255 255 255 255 255 255 255 255 255 255 255 255 255 255 255 255 255 255 255 255 255 255 255 255 255 255 255 255 255 255 255 255 255 255 255 255 255 255 255 255 255 255 255 255 253 253 253 254 255 253 254 254 254 253 253 255 253 254 255 254 254 254 254 254 254 253 253 253 254 254 254 254 254 253 253 253 253 253 254 253 255 254 253 253 254 254 253 253 253 253 255 254 255 254 254 254 253 254 253 253 254 253 253 252 255 254 255 253 253 254 254 253 254 255 253 253 252 254 246 7 0 0 1 0 0 0 0 0 0 0 0 0 0 0 1 0 0 0 0 0 0 0 0 0 0 0 0 0 0 0 0 0 0 0 0 0 0 0 0 0 0 0 0 0 0 0 0 0 0 0 0 0 0 0 0 0 0 0 0 0 0 0 0 0 0 0 0 0 0 0 0 0 0 0 0 0 0 0 0 0 0 0 0 0 0 0 0 0 0 0 0 0 0 0 0 0 0 0 0 0 0 0 0 0 0 0 0 0 0 0 0 0 0 0 0 0 0 0 0 0 0 0 0 0 0 0 0 0 0 0 0 0 0 0 1 0 0 0 0 0 1 0 0 0 0 0 0 0 0 0 0 0 0 0 0 0 0 0 0 0 0 0 0 0 0 0 0 0 0 0 0 0 0 0 0 0 0 0 0 0 0 0 0 0 0 0 0 0 0 0 0 0 0 0 0 0 0 139 254 255 254 255 254 254 253 253 254 253 254 254 254 252 254 255 254 254 254 252 254 254 255 253 254 254 253 253 254 253 255 253 254 254 254 253 254 253 253 253 255 253 253 254 255 253 254 253 253 253 255 254 254 254 254 253 254 253 255 253 255 254 254 253 254 255 253 253 254 254 254 254 255 255 255 255 255 255 255 255 255 255 255 255 255 255 255 255 255 255 255 255 255 255 255 255 255 255 255 255 255 255 255 255 255 255 255 255 255 255 255 255 255 255 255 255 255 255 255 255 255 255 255 255 255 255 255 
255 255 255 255 255 255 255 255 255 255 255 255 255 255 255 255 255 255 255 255 255 255 255 255 255 255 255 255 255 255 255 255 255 255 255 255 255 255 255 255 255 255 255 255 255 255 255 255 255 255 255 255 255 255 255 254 254 253 255 253 253 254 255 254 253 253 254 253 253 254 254 253 254 253 254 254 253 255 253 253 255 253 255 254 254 253 253 252 254 255 253 254 253 254 253 254 253 253 253 254 253 254 253 255 253 254 253 254 253 254 254 252 254 254 254 254 253 254 253 254 254 253 254 254 253 254 252 254 245 6 0 0 0 1 0 0 0 0 0 0 0 0 0 0 0 0 0 0 0 0 0 0 0 0 0 0 0 0 0 0 0 0 0 0 1 0 0 0 0 0 0 0 0 0 0 0 0 0 0 0 0 0 0 0 0 0 0 0 0 0 0 0 0 0 0 0 0 0 0 0 0 0 0 0 0 0 0 0 0 0 0 0 0 0 0 0 0 0 0 0 1 0 0 0 0 0 0 0 0 0 0 0 0 0 0 0 0 0 0 0 0 0 0 0 0 0 0 0 0 1 0 0 0 0 0 0 0 0 0 0 0 0 0 0 0 0 0 0 0 0 0 0 0 0 0 0 0 0 0 0 0 0 0 0 0 0 0 0 0 0 0 0 0 0 0 0 0 0 0 0 0 0 0 0 0 0 0 0 0 0 0 0 0 1 1 0 0 0 0 0 0 0 0 0 0 0 0 136 254 255 253 254 253 254 253 253 253 253 253 255 254 253 254 254 255 254 254 253 254 253 254 253 254 253 253 254 254 254 253 253 253 254 253 253 254 254 254 253 254 254 253 255 255 253 254 253 254 254 255 254 254 255 254 252 255 253 254 253 254 253 253 253 255 254 254 252 255 254 255 255 254 255 255 255 255 255 255 255 255 255 255 255 255 255 255 255 255 255 255 255 255 255 255 255 255 255 255 255 255 255 255 255 255 255 255 255 255 255 255 255 255 255 255 255 255 255 255 255 255 255 255 255 255 255 255 
255 255 255 255 255 255 255 255 255 255 255 255 255 255 255 255 255 255 255 255 255 255 255 255 255 255 255 255 255 255 255 255 255 255 255 255 255 255 255 255 255 255 255 255 255 255 255 255 255 255 255 255 255 255 254 254 255 253 254 253 253 255 253 254 254 254 254 254 252 254 255 253 254 253 253 254 253 255 254 253 255 254 255 253 255 253 253 254 254 253 253 253 253 254 253 253 253 254 253 254 253 254 254 254 253 254 253 254 253 253 254 254 254 254 255 254 253 253 253 254 255 253 254 253 255 253 253 254 244 6 0 0 0 0 0 0 0 0 0 0 0 0 0 0 0 1 0 0 1 0 0 0 0 0 0 0 0 0 0 0 0 0 0 0 0 0 0 0 0 0 0 0 0 0 0 0 0 0 0 0 0 0 0 0 0 0 0 1 0 0 0 0 0 0 0 0 0 0 0 0 0 0 0 0 0 0 0 0 0 0 0 0 0 0 0 0 0 0 0 1 0 0 0 0 0 0 0 0 0 0 1 0 0 0 0 0 0 0 0 0 0 0 0 0 0 0 0 0 0 0 0 0 0 0 0 0 0 0 0 0 0 0 0 0 0 0 0 0 0 0 0 0 0 0 0 0 0 0 0 0 0 0 0 0 0 0 0 0 0 0 0 0 0 0 0 0 0 0 0 0 0 0 0 0 0 1 0 0 0 0 0 0 0 0 0 0 0 0 0 0 0 0 0 0 0 0 0 134 254 253 252 254 254 254 253 254 253 254 253 253 254 254 254 254 253 255 254 253 253 253 255 254 254 253 253 254 253 254 254 254 253 254 253 253 255 253 255 254 253 254 254 254 255 253 255 254 253 255 253 253 253 254 253 254 255 253 254 255 254 254 254 254 253 254 253 254 255 255 255 254 254 255 255 255 255 255 255 255 255 255 255 255 255 255 255 255 255 255 255 255 255 255 255 255 255 255 255 255 255 255 255 255 255 255 255 255 255 255 255 255 255 255 255 255 255 255 255 255 255 255 255 255 255 255 255 
255 255 255 255 255 255 255 255 255 255 255 255 255 255 255 255 255 255 255 255 255 255 255 255 255 255 255 255 255 255 255 255 255 255 255 255 255 255 255 255 255 255 255 255 255 255 255 255 255 255 255 255 255 255 253 254 253 253 253 253 253 254 254 255 253 254 253 254 253 254 254 253 253 253 253 253 254 254 253 254 254 255 253 254 253 254 254 254 255 253 254 254 254 254 253 253 253 254 253 253 253 254 253 255 254 255 254 253 252 254 255 253 254 253 253 253 254 253 253 254 253 253 254 253 254 255 254 255 243 4 0 0 1 0 0 0 0 0 0 0 1 0 0 0 0 0 0 0 0 0 0 0 0 0 0 0 0 0 0 0 0 0 0 0 0 0 0 0 0 0 0 0 0 0 0 0 0 0 0 0 0 0 0 0 0 0 0 0 0 0 0 0 0 0 0 0 0 0 0 0 0 0 0 0 0 0 0 0 0 0 0 0 0 0 0 0 0 0 1 0 0 0 0 1 0 0 0 0 0 0 0 0 0 0 0 0 0 0 0 0 0 0 0 0 0 0 0 0 0 0 0 0 0 0 0 0 0 0 0 0 0 0 0 0 0 0 0 0 0 0 0 0 0 0 0 0 0 0 0 0 0 0 0 0 0 0 0 0 0 0 0 0 0 0 0 0 0 0 0 0 0 0 0 0 0 0 0 0 0 0 0 0 0 0 0 0 0 0 0 0 0 0 0 0 0 1 0 134 254 253 253 253 255 254 253 254 253 253 253 254 253 253 255 253 253 253 254 253 253 253 254 253 255 253 253 254 253 254 254 254 254 254 254 253 254 254 253 254 253 254 255 253 254 253 255 254 253 254 253 253 253 253 253 253 254 253 255 254 254 253 254 255 253 255 254 255 254 255 255 253 254 255 255 255 255 255 255 255 255 255 255 255 255 255 255 255 255 255 255 255 255 255 255 255 255 255 255 255 255 255 255 255 255 255 255 255 255 255 255 255 255 255 255 255 255 255 255 255 255 255 255 255 255 255 255 
255 255 255 255 255 255 255 255 255 255 255 255 255 255 255 255 255 255 255 255 255 255 255 255 255 255 255 255 255 255 255 255 255 255 255 255 255 255 255 255 255 255 255 255 255 255 255 255 255 255 255 255 255 255 253 255 253 254 254 253 254 254 255 253 253 254 254 254 253 254 254 253 252 255 253 254 253 252 254 255 254 255 252 254 253 253 253 254 254 253 254 253 255 253 253 254 253 253 255 253 253 253 254 255 255 253 254 254 253 253 254 254 253 255 253 253 253 255 253 255 253 255 254 254 253 255 255 254 240 4 0 0 0 0 0 0 0 0 0 0 0 0 0 0 0 0 0 0 0 0 0 0 0 0 0 0 0 0 0 0 0 0 0 0 0 0 0 0 0 0 0 0 0 0 0 0 0 0 0 0 0 0 0 0 0 0 0 0 0 0 0 0 0 1 0 0 1 0 0 0 0 0 0 0 0 0 0 0 0 0 0 0 0 0 0 0 0 0 0 0 0 0 0 0 0 0 0 0 0 0 0 0 0 0 0 0 0 0 0 0 0 0 0 0 0 0 0 0 0 0 0 0 0 0 0 0 0 0 0 0 0 0 0 0 0 0 0 0 0 0 0 0 0 0 0 0 1 0 0 0 0 0 0 0 0 0 0 0 0 0 1 1 0 0 0 0 0 0 0 0 0 0 1 0 0 0 0 0 0 0 0 0 0 0 0 0 0 0 0 0 0 0 0 0 0 2 0 135 254 254 253 253 253 253 254 254 254 254 252 255 252 254 253 252 254 253 254 255 252 254 253 253 254 253 253 253 253 254 253 253 254 253 254 253 253 254 252 254 254 253 253 255 253 253 255 254 254 253 253 254 254 252 254 254 254 253 254 253 255 253 253 255 254 253 255 255 253 254 253 254 255 255 255 255 255 255 255 255 255 255 255 255 255 255 255 255 255 255 255 255 255 255 255 255 255 255 255 255 255 255 255 255 255 255 255 255 255 255 255 255 255 255 255 255 255 255 255 255 255 255 255 255 255 255 255 
255 255 255 255 255 255 255 255 255 255 255 255 255 255 255 255 255 255 255 255 255 255 255 255 255 255 255 255 255 255 255 255 255 255 255 255 255 255 255 255 255 255 255 255 255 255 255 255 255 255 255 255 255 255 254 253 255 254 254 253 255 254 254 253 253 255 254 254 254 254 255 253 254 255 253 254 253 255 254 255 253 253 254 253 255 254 254 254 254 254 255 255 253 254 254 253 252 254 253 254 253 253 255 254 254 254 253 255 253 253 254 254 254 255 253 253 254 255 254 254 254 254 254 254 253 254 255 255 237 1 2 1 0 0 0 0 0 0 0 0 0 0 0 0 0 0 1 1 0 0 0 0 0 0 0 0 0 0 0 0 0 0 0 1 0 0 0 0 0 0 0 0 0 0 0 0 0 0 0 0 0 0 0 0 0 0 0 0 0 0 0 0 0 0 0 0 0 0 0 1 0 0 0 0 0 0 0 0 0 0 0 0 0 0 0 0 0 0 0 0 0 0 0 0 0 0 0 0 0 0 0 0 0 0 0 0 0 0 0 1 0 0 0 0 0 0 0 0 0 0 0 0 0 0 0 0 0 0 0 0 1 0 0 0 0 0 0 0 0 0 0 0 0 0 0 0 0 0 0 0 0 0 0 0 0 0 0 0 0 0 0 0 0 0 0 0 0 0 0 0 0 0 0 0 0 0 0 0 0 0 0 0 0 0 0 0 0 0 0 0 0 0 0 0 0 3 0 128 254 255 253 255 253 254 254 253 253 254 253 254 254 254 253 253 253 255 253 255 253 255 253 254 254 253 254 253 253 254 253 254 254 253 254 253 254 254 253 253 254 254 254 255 255 254 254 255 253 253 253 254 253 253 255 254 254 254 254 254 253 253 254 253 255 254 254 255 253 254 254 254 254 255 255 255 255 255 255 255 255 255 255 255 255 255 255 255 255 255 255 255 255 255 255 255 255 255 255 255 255 255 255 255 255 255 255 255 255 255 255 255 255 255 255 255 255 255 255 255 255 255 255 255 255 255 255 
255 255 255 255 255 255 255 255 255 255 255 255 255 255 255 255 255 255 255 255 255 255 255 255 255 255 255 255 255 255 255 255 255 255 255 255 255 255 255 255 255 255 255 255 255 255 255 255 255 255 255 255 255 255 254 253 255 254 253 254 254 253 254 254 254 254 254 254 253 254 254 254 254 253 253 254 254 254 254 253 253 253 255 254 253 254 254 254 254 253 254 255 253 253 255 253 255 253 254 254 253 253 254 255 255 255 254 253 253 253 253 254 254 254 254 253 254 254 254 254 253 254 254 254 253 255 253 252 255 41 0 1 0 0 0 0 0 0 1 0 0 0 0 0 1 0 0 1 0 0 0 0 1 0 0 0 0 0 0 0 0 0 0 0 0 0 0 0 0 0 0 0 0 0 0 0 0 0 0 0 0 0 0 0 0 0 0 0 0 0 0 0 0 0 0 0 0 0 0 0 0 0 1 0 0 0 0 1 0 0 0 0 0 0 0 0 0 0 0 0 0 0 0 0 0 0 0 0 0 0 0 0 0 0 0 0 0 0 0 0 0 0 0 0 0 0 0 0 0 0 0 0 0 0 0 0 0 0 0 0 0 0 0 0 0 0 0 0 0 0 0 0 0 0 0 0 0 0 0 0 0 0 0 0 0 0 0 0 0 0 0 0 0 0 0 0 0 0 0 0 0 0 0 0 0 1 0 0 0 0 0 0 0 0 0 0 0 0 0 0 0 0 0 0 0 2 0 210 255 255 254 253 254 254 253 253 252 254 254 253 254 254 253 254 253 253 253 254 255 255 253 254 255 254 254 253 254 253 254 254 253 253 254 254 254 254 254 253 253 255 254 253 254 254 253 253 252 254 253 254 253 255 255 253 255 255 255 253 253 254 254 253 253 254 254 254 254 254 255 254 254 255 255 255 255 255 255 255 255 255 255 255 255 255 255 255 255 255 255 255 255 255 255 255 255 255 255 255 255 255 255 255 255 255 255 255 255 255 255 255 255 255 255 255 255 255 255 255 255 255 255 255 255 255 255 
255 255 255 255 255 255 255 255 255 255 255 255 255 255 255 255 255 255 255 255 255 255 255 255 255 255 255 255 255 255 255 255 255 255 255 255 255 255 255 255 255 255 255 255 255 255 255 255 255 255 255 255 255 255 253 254 254 254 254 254 254 254 255 253 254 254 253 255 254 253 253 254 254 253 254 254 255 253 254 252 254 253 253 253 253 254 254 254 254 253 254 253 255 253 254 253 254 254 253 253 254 253 253 255 253 254 254 253 253 254 252 254 253 254 253 254 253 253 254 254 253 253 254 255 254 255 253 253 255 62 0 2 0 0 0 0 0 0 0 0 0 0 0 0 0 0 0 0 0 0 0 0 0 0 0 0 0 0 0 0 0 0 0 0 0 0 0 0 0 0 0 0 0 0 0 0 0 0 0 0 0 0 0 0 0 0 0 0 0 0 0 0 0 0 0 0 0 0 0 0 0 0 0 0 0 0 0 0 0 0 0 0 0 0 0 0 0 0 0 0 0 0 0 0 0 0 0 0 0 0 0 0 0 0 0 0 0 0 0 0 0 0 0 0 0 0 0 0 0 0 0 0 0 0 0 0 0 0 1 0 0 0 0 0 0 0 0 0 1 0 0 0 0 0 0 0 0 0 0 0 0 0 0 0 0 0 0 0 0 0 0 0 0 0 0 0 0 0 0 0 0 0 0 0 0 0 0 0 0 0 0 0 0 0 0 0 0 0 0 0 0 0 0 0 0 0 0 228 255 254 255 253 255 254 253 254 254 253 254 253 253 253 254 253 254 254 255 253 254 254 254 253 254 254 254 253 253 255 254 253 252 254 254 253 254 253 254 254 253 255 254 253 252 254 253 252 254 254 254 253 254 253 255 253 254 253 253 253 253 254 253 254 253 253 255 254 253 254 253 254 254 255 255 255 255 255 255 255 255 255 255 255 255 255 255 255 255 255 255 255 255 255 255 255 255 255 255 255 255 255 255 255 255 255 255 255 255 255 255 255 255 255 255 255 255 255 255 255 255 255 255 255 255 255 255 
255 255 255 255 255 255 255 255 255 255 255 255 255 255 255 255 255 255 255 255 255 255 255 255 255 255 255 255 255 255 255 255 255 255 255 255 255 255 255 255 255 255 255 255 255 255 255 255 255 255 255 255 255 255 254 255 254 254 255 255 253 253 253 255 253 254 253 253 255 253 253 253 253 253 255 254 255 254 253 254 253 253 253 254 254 253 254 253 254 253 254 254 253 254 254 254 253 254 253 253 255 254 254 253 253 254 253 254 254 255 254 253 254 253 254 253 253 254 254 254 253 254 255 254 253 254 253 254 255 98 0 1 0 0 0 0 0 0 0 1 0 0 0 0 0 0 0 0 0 0 0 0 0 0 0 0 0 0 0 0 0 0 0 0 0 0 0 0 0 0 0 0 0 0 0 0 0 0 0 0 0 0 0 0 0 0 0 0 0 0 0 0 0 1 1 0 0 0 0 0 0 0 0 0 0 0 0 0 0 0 0 0 0 0 0 0 0 0 0 0 0 0 0 0 0 0 0 0 0 0 0 0 0 0 0 0 0 0 0 0 0 0 0 0 0 0 0 0 0 0 0 0 0 0 0 0 0 0 0 0 0 0 0 0 0 0 0 0 0 0 0 0 0 0 0 0 0 0 0 0 0 0 0 0 0 0 0 0 0 0 1 1 0 0 0 0 0 0 0 0 0 0 0 0 0 0 0 0 1 0 0 0 0 0 0 0 0 0 0 0 0 0 0 0 0 0 14 248 255 255 253 254 253 254 254 254 254 254 253 254 254 254 253 252 254 255 254 254 254 253 255 253 253 253 253 254 254 254 254 254 254 253 254 253 255 254 255 254 253 253 254 252 254 254 253 254 254 254 255 253 253 252 254 254 253 254 253 255 253 254 254 254 254 255 253 255 254 254 253 254 254 255 255 255 255 255 255 255 255 255 255 255 255 255 255 255 255 255 255 255 255 255 255 255 255 255 255 255 255 255 255 255 255 255 255 255 255 255 255 255 255 255 255 255 255 255 255 255 255 255 255 255 255 255 255 
255 255 255 255 255 255 255 255 255 255 255 255 255 255 255 255 255 255 255 255 255 255 255 255 255 255 255 255 255 255 255 255 255 255 255 255 255 255 255 255 255 255 255 255 255 255 255 255 255 255 255 255 255 255 255 253 254 255 254 255 254 253 254 255 253 254 254 253 254 253 254 254 254 253 254 254 253 254 253 254 253 254 253 255 253 254 254 253 255 253 254 254 253 254 255 254 254 253 253 254 254 255 255 253 253 254 254 254 255 254 255 253 255 253 254 253 255 254 255 254 253 254 254 253 253 253 253 255 254 184 0 0 0 0 0 0 0 0 0 0 0 0 0 0 0 0 0 0 0 0 0 0 0 0 0 0 0 0 0 0 0 0 0 0 0 0 0 0 0 0 0 0 0 0 0 0 0 0 0 0 0 0 0 0 0 0 0 0 0 0 0 0 0 0 0 0 0 0 0 0 0 0 0 0 0 0 0 0 0 0 0 0 0 0 0 2 0 0 0 0 0 0 0 1 0 0 0 1 0 0 0 0 0 0 0 0 0 0 0 0 1 0 0 0 0 0 0 0 0 0 0 0 0 0 0 0 0 0 0 0 0 0 0 0 0 0 0 0 0 0 0 0 0 0 0 0 0 0 0 0 0 0 0 0 0 0 0 0 0 0 0 0 0 0 0 0 0 0 0 0 0 0 0 0 0 0 0 0 0 0 0 0 0 0 0 0 0 0 0 0 0 0 0 0 0 1 43 255 254 254 253 254 254 254 254 254 253 253 254 253 255 253 253 255 252 253 254 253 254 253 253 253 254 253 254 253 255 253 254 254 255 254 254 254 254 254 255 253 254 253 253 253 255 253 254 253 255 254 255 254 253 254 253 253 253 254 254 253 255 255 253 255 253 255 254 253 255 255 254 254 255 255 255 255 255 255 255 255 255 255 255 255 255 255 255 255 255 255 255 255 255 255 255 255 255 255 255 255 255 255 255 255 255 255 255 255 255 255 255 255 255 255 255 255 255 255 255 255 255 255 255 255 255 255 255 
255 255 255 255 255 255 255 255 255 255 255 255 255 255 255 255 255 255 255 255 255 255 255 255 255 255 255 255 255 255 255 255 255 255 255 255 255 255 255 255 255 255 255 255 255 255 255 255 255 255 255 255 255 255 254 254 254 254 253 255 254 253 255 253 253 255 253 253 253 253 253 254 253 253 253 253 254 253 254 254 255 254 253 253 254 254 254 253 255 253 254 254 254 253 254 254 253 254 254 255 253 254 253 254 253 254 253 255 253 254 254 253 255 254 253 254 254 254 253 254 253 254 254 254 254 253 253 255 253 233 2 0 0 0 0 0 0 0 0 0 0 0 0 0 0 0 0 0 0 0 0 0 0 0 0 0 0 0 0 0 0 0 0 0 0 0 0 1 0 0 0 0 0 1 0 0 0 0 0 0 0 0 0 0 0 0 0 0 0 0 0 0 0 0 0 0 0 0 0 0 0 0 0 0 0 0 0 0 0 0 0 0 0 0 0 0 0 0 0 0 0 0 0 0 0 0 0 1 0 0 0 0 0 0 0 0 0 0 0 0 0 0 0 0 0 0 0 0 0 0 0 0 0 0 0 0 0 0 0 0 0 0 1 0 0 0 0 0 0 0 0 0 0 0 0 0 0 0 0 0 0 0 0 0 0 0 0 0 0 0 0 0 0 0 0 0 0 0 0 0 0 0 0 0 0 0 0 0 0 0 0 0 0 0 0 0 0 0 0 0 0 0 0 0 0 0 122 255 254 254 254 254 254 254 253 255 254 253 255 253 254 253 254 254 254 253 254 253 254 254 253 254 253 253 253 253 255 254 254 253 255 255 255 252 253 255 254 254 252 254 254 253 255 253 255 253 254 254 253 253 254 254 254 253 254 254 253 253 253 255 253 254 253 255 253 253 255 254 254 255 254 255 255 255 255 255 255 255 255 255 255 255 255 255 255 255 255 255 255 255 255 255 255 255 255 255 255 255 255 255 255 255 255 255 255 255 255 255 255 255 255 255 255 255 255 255 255 255 255 255 255 255 255 255 255 
255 255 255 255 255 255 255 255 255 255 255 255 255 255 255 255 255 255 255 255 255 255 255 255 255 255 255 255 255 255 255 255 255 255 255 255 255 255 255 255 255 255 255 255 255 255 255 255 255 255 255 255 255 255 254 254 255 253 253 255 253 254 255 253 253 254 253 253 253 253 254 253 252 254 254 254 255 254 255 254 253 252 253 254 255 253 254 254 253 253 255 253 255 253 253 254 253 254 254 254 253 254 253 254 253 254 254 253 254 254 254 253 253 254 252 255 254 255 253 255 253 254 255 254 254 254 253 255 253 250 5 1 0 1 0 0 0 0 0 0 0 0 0 0 0 0 0 0 0 0 0 0 0 0 0 0 0 0 0 0 0 0 0 0 0 0 0 0 0 0 0 0 0 0 0 0 0 0 0 0 0 0 0 0 0 0 0 0 1 0 0 0 0 0 0 0 0 0 0 0 0 0 0 0 0 0 0 0 0 0 0 0 0 0 0 0 0 0 0 0 0 0 0 0 0 0 0 0 0 1 0 0 0 0 0 0 0 0 0 0 0 0 0 0 0 0 0 0 0 0 0 0 0 0 0 0 0 0 0 0 1 0 0 0 0 0 0 0 0 0 1 0 0 0 0 0 0 0 0 0 0 0 0 0 0 0 0 1 0 0 0 0 0 0 0 1 0 0 0 0 0 0 0 0 0 0 0 0 1 0 0 0 0 0 0 0 0 0 0 0 0 0 0 0 0 0 174 255 255 255 253 253 253 255 253 254 253 253 255 254 254 255 254 253 254 254 253 254 253 254 253 253 253 253 253 254 254 255 254 253 253 255 254 254 254 255 254 254 253 254 253 252 254 254 253 254 254 254 253 254 254 254 255 254 253 254 254 255 253 254 254 254 254 254 253 253 254 252 253 254 253 255 255 255 255 255 255 255 255 255 255 255 255 255 255 255 255 255 255 255 255 255 255 255 255 255 255 255 255 255 255 255 255 255 255 255 255 255 255 255 255 255 255 255 255 255 255 255 255 255 255 255 255 255 255 
255 255 255 255 255 255 255 255 255 255 255 255 255 255 255 255 255 255 255 255 255 255 255 255 255 255 255 255 255 255 255 255 255 255 255 255 255 255 255 255 255 255 255 255 255 255 255 255 255 255 255 255 255 255 255 253 253 254 255 253 254 255 255 254 254 255 253 254 254 254 254 252 254 255 254 255 254 254 254 253 253 254 253 253 254 254 253 255 254 253 253 254 254 253 254 253 253 254 253 255 254 254 253 254 254 255 254 254 254 254 254 253 254 252 253 255 254 253 254 254 254 253 253 254 253 255 253 253 255 255 71 0 0 0 0 0 0 0 0 1 0 0 0 0 0 0 0 0 1 1 0 0 0 0 0 0 0 0 0 0 0 0 0 0 0 0 0 0 0 0 0 0 0 0 0 0 0 0 0 0 0 0 1 0 0 0 0 0 0 0 0 0 0 0 1 0 0 0 0 0 0 0 0 0 0 0 0 0 0 0 0 0 1 0 0 0 0 0 0 0 0 0 0 0 0 0 0 0 0 0 0 0 0 0 0 0 0 1 0 0 0 1 0 0 0 0 0 0 0 0 0 0 0 0 0 0 0 0 0 0 0 0 0 0 0 0 0 0 0 0 0 0 0 0 0 0 0 0 0 0 0 0 0 0 0 0 0 0 0 0 0 0 0 0 0 0 0 0 0 0 0 0 0 0 0 0 1 0 0 0 0 0 0 0 0 0 0 0 0 0 0 0 0 0 2 0 244 252 253 253 253 253 254 254 254 254 253 254 255 253 253 253 254 254 254 255 253 254 253 253 254 253 254 252 254 254 254 253 255 253 253 254 253 254 255 253 254 254 254 254 253 253 253 253 253 254 255 254 254 253 253 255 253 254 254 254 254 254 254 253 253 254 254 253 254 254 254 254 254 254 254 255 255 255 255 255 255 255 255 255 255 255 255 255 255 255 255 255 255 255 255 255 255 255 255 255 255 255 255 255 255 255 255 255 255 255 255 255 255 255 255 255 255 255 255 255 255 255 255 255 255 255 255 255 255 
255 255 255 255 255 255 255 255 255 255 255 255 255 255 255 255 255 255 255 255 255 255 255 255 255 255 255 255 255 255 255 255 255 255 255 255 255 255 255 255 255 255 255 255 255 255 255 255 255 255 255 255 255 255 254 253 254 255 255 254 254 255 254 254 255 254 253 253 255 254 253 254 254 253 253 253 254 253 254 254 254 255 254 254 255 254 253 253 253 254 253 255 255 254 253 253 254 254 253 253 253 253 254 253 253 253 254 252 253 255 255 254 253 253 254 254 254 253 253 253 254 255 254 254 253 254 254 253 255 255 142 0 0 0 0 0 0 1 0 1 0 0 0 0 0 0 0 0 0 0 0 0 0 0 0 0 0 1 0 0 0 0 0 0 0 0 0 0 0 0 0 0 0 0 0 0 0 0 0 0 0 0 1 0 0 0 0 0 0 0 0 0 0 0 0 0 0 0 0 0 0 0 0 0 0 0 1 0 0 0 0 0 0 0 0 0 0 0 0 0 0 0 0 0 0 0 0 0 0 0 0 0 0 0 0 0 0 0 0 0 1 0 0 0 0 0 0 0 1 0 0 0 0 0 0 0 0 0 0 0 0 0 1 0 0 0 0 0 0 0 0 0 0 0 1 0 0 0 0 0 0 0 0 1 0 0 0 0 0 0 0 0 0 0 0 0 0 0 0 0 0 0 0 0 0 1 1 0 0 0 0 0 0 0 0 0 0 0 0 0 0 0 0 0 1 49 255 254 254 254 254 253 254 253 255 252 254 255 253 254 254 254 254 253 254 255 253 254 253 253 255 254 254 254 254 254 253 253 255 255 254 255 253 253 254 254 253 254 253 254 253 253 254 253 253 254 254 255 253 253 254 255 253 254 254 253 253 254 254 253 254 254 254 254 253 255 255 255 254 254 255 255 255 255 255 255 255 255 255 255 255 255 255 255 255 255 255 255 255 255 255 255 255 255 255 255 255 255 255 255 255 255 255 255 255 255 255 255 255 255 255 255 255 255 255 255 255 255 255 255 255 255 255 255 255 
255 255 255 255 255 255 255 255 255 255 255 255 255 255 255 255 255 255 255 255 255 255 255 255 255 255 255 255 255 255 255 255 255 255 255 255 255 255 255 255 255 255 255 255 255 255 255 255 255 255 255 255 255 255 254 253 254 253 253 255 254 254 254 253 254 255 254 255 255 253 254 254 253 253 254 253 253 253 254 254 254 254 252 255 255 254 255 254 253 253 254 254 254 253 253 254 255 254 253 253 253 253 254 254 253 254 255 253 252 254 254 254 253 254 254 253 255 255 253 253 253 255 253 254 254 254 253 255 253 252 229 1 1 1 0 1 0 0 0 0 0 0 0 0 0 0 0 0 0 0 0 0 0 0 0 0 0 0 0 0 1 0 0 0 0 0 0 0 0 0 0 0 0 0 0 0 0 0 0 0 0 0 0 0 0 0 0 0 0 0 0 0 0 0 0 0 0 0 0 0 0 0 0 0 0 0 0 0 0 0 0 0 0 0 0 0 0 0 0 0 0 0 0 0 0 0 0 0 0 0 0 0 0 0 0 0 0 0 0 0 0 0 0 0 0 0 0 0 0 0 1 0 0 0 0 0 0 0 0 0 0 0 0 0 0 0 0 0 0 0 0 0 0 0 0 1 0 0 0 0 0 0 0 0 0 0 0 0 0 0 0 0 0 0 0 0 0 0 0 0 0 0 0 0 0 0 0 0 0 0 0 0 0 0 0 0 0 0 0 1 0 0 0 0 0 158 253 255 254 254 254 253 254 254 254 253 255 255 254 255 253 254 252 253 254 255 253 254 254 253 254 255 253 255 254 253 253 254 254 255 254 255 254 254 255 255 255 254 253 253 254 253 254 254 255 254 252 254 253 254 253 254 253 254 253 254 254 253 253 254 255 255 255 255 254 254 255 253 254 254 254 255 255 255 255 255 255 255 255 255 255 255 255 255 255 255 255 255 255 255 255 255 255 255 255 255 255 255 255 255 255 255 255 255 255 255 255 255 255 255 255 255 255 255 255 255 255 255 255 255 255 255 255 255 255 
255 255 255 255 255 255 255 255 255 255 255 255 255 255 255 255 255 255 255 255 255 255 255 255 255 255 255 255 255 255 255 255 255 255 255 255 255 255 255 255 255 255 255 255 255 255 255 255 255 255 255 255 255 255 254 254 255 253 253 254 254 254 255 253 254 254 254 254 253 253 254 253 254 253 253 253 253 254 253 254 254 253 253 254 253 253 255 255 254 253 254 254 253 253 253 253 253 255 255 253 254 255 253 254 254 254 254 254 253 254 254 254 253 254 254 253 253 254 254 254 253 254 254 253 253 255 253 253 254 251 255 35 1 1 0 0 0 0 1 0 0 0 0 0 0 0 0 0 0 0 0 0 0 1 0 0 0 1 0 0 0 0 0 0 0 0 1 0 0 0 0 0 0 0 0 0 0 0 0 0 0 0 0 0 0 0 0 0 0 0 0 0 1 0 0 0 0 0 0 0 0 0 0 0 1 0 0 0 0 0 0 0 0 0 0 0 0 0 0 0 0 0 0 0 0 0 0 0 0 0 0 0 0 0 0 0 0 0 0 1 0 0 0 0 0 0 0 0 0 0 0 0 0 0 0 0 0 0 0 0 0 0 0 0 0 0 0 0 0 0 0 0 0 0 0 0 0 0 0 0 0 0 0 0 0 0 0 0 0 0 0 0 0 0 0 0 0 1 0 0 0 0 0 0 0 0 0 0 0 0 0 0 0 0 0 0 0 0 0 0 0 0 0 0 0 237 255 255 253 253 254 254 254 254 254 255 253 253 253 253 253 253 253 253 253 254 255 253 254 254 253 254 254 253 255 254 254 255 253 253 253 252 253 253 254 253 254 254 254 253 254 254 253 254 253 254 253 254 255 254 254 254 255 254 253 254 253 253 253 255 253 254 254 255 254 254 255 254 253 255 253 255 255 255 255 255 255 255 255 255 255 255 255 255 255 255 255 255 255 255 255 255 255 255 255 255 255 255 255 255 255 255 255 255 255 255 255 255 255 255 255 255 255 255 255 255 255 255 255 255 255 255 255 255 255 
255 255 255 255 255 255 255 255 255 255 255 255 255 255 255 255 255 255 255 255 255 255 255 255 255 255 255 255 255 255 255 255 255 255 255 255 255 255 255 255 255 255 255 255 255 255 255 255 255 255 255 255 255 255 253 254 255 254 253 254 253 254 253 254 253 254 254 254 253 253 253 253 253 253 255 253 253 255 253 254 253 253 255 255 253 253 253 255 253 253 253 254 253 253 255 254 255 253 253 254 255 254 253 253 254 255 253 253 255 254 253 254 253 253 254 255 254 252 255 254 254 255 254 253 253 254 254 253 253 253 255 137 0 1 0 0 0 0 0 0 0 0 0 0 0 0 0 0 0 0 0 1 0 0 0 0 0 0 0 0 0 0 0 0 0 0 0 0 0 0 0 0 0 0 0 0 0 0 0 0 0 0 0 0 0 0 0 0 0 1 0 1 0 0 0 0 0 0 0 0 0 0 0 0 0 0 0 0 0 0 0 0 0 0 0 1 0 0 0 0 0 0 0 0 0 0 0 0 0 0 0 0 0 0 0 0 0 0 0 0 0 0 0 0 0 0 0 0 0 0 0 0 0 0 0 0 0 0 0 0 0 0 0 1 0 0 0 0 0 0 0 0 0 1 0 0 0 0 0 0 0 0 0 0 0 0 0 0 0 0 0 0 0 0 0 0 0 0 0 0 0 0 0 0 0 0 0 1 0 0 0 0 0 0 0 0 0 0 0 0 0 0 0 1 38 255 255 255 255 253 255 255 255 253 253 253 253 253 253 253 254 254 254 254 255 254 253 253 254 254 253 254 253 254 254 255 253 254 253 253 254 253 253 253 255 255 253 254 254 255 254 255 254 253 252 254 255 252 253 252 254 255 255 255 253 254 253 255 253 254 255 254 254 254 252 254 254 255 255 254 254 255 255 255 255 255 255 255 255 255 255 255 255 255 255 255 255 255 255 255 255 255 255 255 255 255 255 255 255 255 255 255 255 255 255 255 255 255 255 255 255 255 255 255 255 255 255 255 255 255 255 255 255 255 255 
255 255 255 255 255 255 255 255 255 255 255 255 255 255 255 255 255 255 255 255 255 255 255 255 255 255 255 255 255 255 255 255 255 255 255 255 255 255 255 255 255 255 255 255 255 255 255 255 255 255 255 255 255 255 253 255 253 253 253 255 254 254 253 253 254 254 253 253 254 254 254 253 254 253 254 254 253 254 254 254 255 254 254 255 254 254 254 253 253 254 254 253 253 254 253 253 254 255 254 254 253 253 253 253 253 254 255 253 253 254 253 254 254 253 253 255 253 253 254 254 253 254 253 255 255 253 253 254 253 254 252 237 0 2 0 0 0 0 0 0 0 0 0 0 0 0 0 0 0 1 0 0 0 0 0 0 0 0 0 0 0 0 0 0 0 0 1 0 0 0 0 0 0 0 0 0 0 0 0 0 0 0 0 0 0 0 0 0 0 0 0 0 0 0 0 0 0 0 1 0 0 0 0 0 0 0 0 0 0 0 0 0 0 0 0 0 0 0 0 0 0 0 0 0 0 0 0 0 0 0 0 0 0 0 0 0 0 0 1 0 0 0 0 0 0 0 0 1 0 0 0 0 0 0 0 0 0 0 1 0 0 0 0 0 0 0 0 0 0 0 0 0 0 1 0 0 0 0 0 0 0 0 0 0 0 0 0 0 1 0 0 1 0 0 0 0 0 0 0 0 0 0 0 0 0 0 0 0 0 0 0 0 0 0 0 0 0 0 0 0 0 1 0 0 139 255 252 253 254 253 254 253 254 253 253 253 253 253 255 253 255 253 253 254 253 254 253 253 255 253 253 254 253 254 253 254 253 254 253 253 254 253 254 254 255 254 253 253 253 254 255 254 254 253 253 254 253 253 253 253 254 254 254 254 254 255 254 255 254 254 253 254 254 255 253 253 255 255 254 254 254 255 255 255 255 255 255 255 255 255 255 255 255 255 255 255 255 255 255 255 255 255 255 255 255 255 255 255 255 255 255 255 255 255 255 255 255 255 255 255 255 255 255 255 255 255 255 255 255 255 255 255 255 255 255 
255 255 255 255 255 255 255 255 255 255 255 255 255 255 255 255 255 255 255 255 255 255 255 255 255 255 255 255 255 255 255 255 255 255 255 255 255 255 255 255 255 255 255 255 255 255 255 255 255 255 255 255 255 255 253 255 255 253 255 253 255 254 254 253 254 254 255 255 253 255 255 254 255 254 254 254 253 254 253 253 254 253 255 255 255 253 253 255 254 253 254 253 254 254 254 254 253 254 253 253 255 253 253 253 253 255 253 253 253 253 253 254 254 254 253 254 255 254 254 255 253 253 254 255 253 254 253 253 253 255 253 255 48 1 0 0 0 0 0 0 0 0 0 0 0 0 0 0 0 0 0 0 0 0 1 0 0 1 0 0 0 0 0 0 0 0 0 0 0 0 0 0 0 0 0 0 0 0 0 0 1 0 0 0 0 0 0 0 0 0 0 0 0 0 0 0 0 0 0 0 0 0 0 0 0 0 0 0 0 0 0 0 0 0 0 0 0 0 0 0 0 0 0 0 0 0 0 0 0 0 0 0 0 0 0 0 0 0 0 0 0 0 0 0 1 0 0 0 0 0 0 0 0 0 0 0 0 1 0 0 0 0 0 0 0 0 0 0 0 0 0 0 0 0 0 0 0 0 0 0 0 0 0 0 0 0 0 0 0 1 0 0 0 0 0 0 0 0 0 0 0 0 0 0 0 0 0 0 0 0 0 0 0 0 0 0 0 0 0 0 0 1 3 0 239 250 254 253 254 253 254 254 253 254 255 253 254 254 255 254 253 255 253 255 253 255 254 255 253 253 254 254 253 254 254 255 253 255 253 254 253 253 254 253 254 254 254 254 253 254 254 254 254 253 254 254 254 255 254 254 253 254 254 254 253 254 254 253 254 253 253 254 254 254 253 255 255 255 254 254 254 255 255 255 255 255 255 255 255 255 255 255 255 255 255 255 255 255 255 255 255 255 255 255 255 255 255 255 255 255 255 255 255 255 255 255 255 255 255 255 255 255 255 255 255 255 255 255 255 255 255 255 255 255 255 
255 255 255 255 255 255 255 255 255 255 255 255 255 255 255 255 255 255 255 255 255 255 255 255 255 255 255 255 255 255 255 255 255 255 255 255 255 255 255 255 255 255 255 255 255 255 255 255 255 255 255 255 255 255 255 254 253 254 254 254 255 253 254 254 254 253 255 255 254 253 253 255 254 253 254 254 254 253 253 253 254 253 254 254 254 255 255 253 253 254 254 254 255 254 253 254 255 253 253 254 255 253 255 254 253 254 253 254 254 253 253 255 253 254 255 253 255 254 253 254 253 253 254 253 253 253 254 253 255 254 255 254 188 0 1 0 0 0 0 0 0 0 0 0 0 0 0 0 0 0 0 0 1 0 0 0 0 0 0 0 0 0 0 0 0 0 0 0 0 0 0 0 0 0 0 0 0 0 0 0 0 0 0 0 0 0 0 0 0 0 0 0 0 0 1 0 0 0 0 0 0 0 0 0 0 0 0 0 0 0 0 0 0 0 0 0 0 0 0 1 0 0 0 0 0 0 0 0 0 0 0 0 0 1 0 1 0 0 0 0 0 0 0 0 0 0 0 0 0 0 0 0 0 0 0 0 0 0 0 0 0 0 0 0 0 0 0 0 0 0 0 0 0 0 0 0 0 0 0 0 0 0 0 0 0 0 0 0 0 0 0 0 0 1 0 0 0 0 0 0 0 0 0 0 0 0 0 0 0 0 0 0 0 0 0 0 1 0 0 0 0 1 1 70 255 252 255 254 253 253 254 254 254 255 253 254 254 255 254 255 254 255 254 253 253 254 253 255 254 255 254 253 254 253 254 255 254 253 253 254 253 254 254 253 254 255 254 254 254 254 255 255 253 254 253 253 253 254 254 255 254 254 254 254 253 254 253 254 255 254 254 254 254 255 254 255 253 255 254 254 254 255 255 255 255 255 255 255 255 255 255 255 255 255 255 255 255 255 255 255 255 255 255 255 255 255 255 255 255 255 255 255 255 255 255 255 255 255 255 255 255 255 255 255 255 255 255 255 255 255 255 255 255 255 255 
255 255 255 255 255 255 255 255 255 255 255 255 255 255 255 255 255 255 255 255 255 255 255 255 255 255 255 255 255 255 255 255 255 255 255 255 255 255 255 255 255 255 255 255 255 255 255 255 255 255 255 255 255 255 253 254 254 255 253 253 253 254 254 253 254 254 255 253 255 254 254 255 253 254 253 254 254 254 254 253 254 254 254 252 254 255 253 255 253 253 254 255 253 253 253 253 254 254 254 254 255 254 255 254 253 254 253 254 254 254 254 254 253 254 255 253 254 255 254 254 255 253 253 253 253 253 254 255 254 254 255 251 255 13 1 0 0 0 0 0 0 0 0 0 0 0 0 1 0 0 0 0 1 0 0 0 0 0 0 0 0 0 0 0 0 0 0 0 0 0 0 0 0 0 0 0 0 0 0 0 0 0 0 0 0 0 0 0 0 0 0 0 0 0 0 0 0 0 0 0 0 0 0 0 0 0 0 0 0 0 0 0 0 0 0 0 0 0 0 0 1 0 0 0 0 0 0 0 0 0 1 0 0 0 0 0 0 0 0 0 0 0 0 0 0 0 0 0 0 0 0 0 0 0 0 0 0 0 0 0 0 0 0 0 0 0 0 0 0 0 0 0 0 0 0 0 0 0 0 0 0 0 0 0 0 0 0 0 1 0 0 0 0 0 0 0 0 0 0 0 0 0 0 0 0 0 1 0 0 0 0 0 0 1 0 0 0 0 0 0 0 3 0 206 253 254 252 254 253 253 253 254 255 253 253 253 254 253 253 254 253 253 253 253 254 254 253 254 253 253 254 254 254 254 255 253 254 255 253 254 253 253 255 253 253 254 254 253 253 254 254 253 253 254 253 253 253 254 253 254 254 255 253 253 255 254 255 253 253 255 254 254 255 254 253 255 254 254 254 254 255 255 255 255 255 255 255 255 255 255 255 255 255 255 255 255 255 255 255 255 255 255 255 255 255 255 255 255 255 255 255 255 255 255 255 255 255 255 255 255 255 255 255 255 255 255 255 255 255 255 255 255 255 255 255 
255 255 255 255 255 255 255 255 255 255 255 255 255 255 255 255 255 255 255 255 255 255 255 255 255 255 255 255 255 255 255 255 255 255 255 255 255 255 255 255 255 255 255 255 255 255 255 255 255 255 255 255 255 255 254 254 255 254 254 255 254 254 255 253 253 255 254 254 254 253 255 253 253 255 254 254 255 253 254 254 255 254 254 253 254 254 253 254 255 253 253 253 253 253 255 253 253 255 253 254 253 254 254 254 255 253 255 255 254 254 253 255 253 254 253 255 254 253 254 254 254 254 253 253 253 254 254 255 254 255 254 253 254 130 0 0 0 1 0 0 0 0 0 0 0 0 0 0 0 0 0 0 0 0 0 0 0 0 0 0 0 0 0 0 0 0 0 0 0 0 0 0 0 0 0 0 0 0 0 0 0 0 0 0 0 0 0 0 0 0 0 0 1 0 0 0 0 0 0 0 0 0 0 0 0 0 0 0 0 0 1 0 0 0 0 0 0 0 0 0 0 0 0 0 0 0 0 0 0 0 0 0 0 0 0 0 0 0 0 0 0 0 0 0 0 0 0 0 0 0 0 0 0 0 0 0 0 0 1 0 0 0 0 0 0 0 0 0 0 0 0 0 0 0 0 0 0 0 0 0 0 0 0 0 0 0 0 1 1 0 0 1 0 0 0 0 0 0 0 0 0 0 0 0 0 0 0 0 0 0 1 0 0 0 0 0 0 0 0 0 0 1 37 255 254 255 253 254 253 253 253 253 253 255 253 254 254 253 253 254 253 253 253 253 254 254 254 254 253 253 253 254 253 253 255 253 253 255 253 254 254 253 254 253 253 254 253 254 254 254 254 254 254 253 254 253 255 254 254 253 254 255 254 253 253 255 254 253 253 253 253 255 255 254 255 254 253 253 255 254 254 255 255 255 255 255 255 255 255 255 255 255 255 255 255 255 255 255 255 255 255 255 255 255 255 255 255 255 255 255 255 255 255 255 255 255 255 255 255 255 255 255 255 255 255 255 255 255 255 255 255 255 255 255 255 
255 255 255 255 255 255 255 255 255 255 255 255 255 255 255 255 255 255 255 255 255 255 255 255 255 255 255 255 255 255 255 255 255 255 255 255 255 255 255 255 255 255 255 255 255 255 255 255 255 255 255 255 255 255 255 254 254 254 254 255 253 254 255 253 254 253 254 255 253 253 254 253 254 253 254 254 253 254 254 253 254 255 255 253 254 254 254 254 254 254 254 253 253 255 253 253 254 254 253 255 253 255 254 253 255 254 253 254 254 254 254 253 254 255 253 254 254 253 254 254 254 255 254 254 254 254 253 254 255 254 253 254 249 249 4 3 0 0 0 0 0 0 0 0 0 0 0 0 0 1 0 0 0 0 0 0 0 0 0 0 0 0 0 0 0 0 0 0 0 0 0 0 0 0 0 0 0 0 0 0 0 0 0 0 0 0 0 0 0 0 0 0 0 0 0 0 0 0 0 0 0 0 0 0 0 0 0 0 0 0 0 0 0 0 0 0 0 0 0 0 0 0 0 0 0 0 0 0 0 0 0 0 0 0 0 0 0 1 0 0 0 0 0 0 0 0 0 0 0 0 0 0 0 0 0 0 0 0 0 0 0 0 0 0 0 0 0 0 0 0 0 0 0 0 0 0 0 0 0 0 0 0 0 0 0 0 0 0 0 0 0 0 0 0 0 0 0 0 0 0 0 0 0 0 0 0 0 0 0 0 0 0 0 0 0 0 0 0 0 0 0 0 167 255 255 255 254 254 254 255 255 253 254 254 253 253 254 253 254 255 254 255 254 253 254 255 254 254 253 254 252 254 254 253 255 254 254 253 255 253 253 253 253 255 253 253 254 253 254 254 254 254 254 253 254 254 254 254 255 254 253 254 254 253 254 253 253 254 253 254 254 253 254 255 255 254 253 254 255 254 254 255 255 255 255 255 255 255 255 255 255 255 255 255 255 255 255 255 255 255 255 255 255 255 255 255 255 255 255 255 255 255 255 255 255 255 255 255 255 255 255 255 255 255 255 255 255 255 255 255 255 255 255 255 255 
255 255 255 255 255 255 255 255 255 255 255 255 255 255 255 255 255 255 255 255 255 255 255 255 255 255 255 255 255 255 255 255 255 255 255 255 255 255 255 255 255 255 255 255 255 255 255 255 255 255 255 255 255 255 254 253 254 254 253 255 254 254 253 254 253 253 255 253 253 253 253 254 254 253 254 253 253 255 254 254 255 253 255 253 254 253 255 253 253 253 255 253 253 254 253 254 253 254 255 254 254 255 255 252 254 254 252 253 253 254 254 254 255 254 254 253 255 254 254 255 254 254 253 255 253 254 253 255 253 253 253 253 254 255 113 0 0 0 0 0 1 0 0 0 0 0 0 0 0 0 0 0 0 0 0 0 0 0 0 0 0 0 0 0 0 0 0 0 0 0 0 0 0 0 0 0 0 0 0 0 0 1 0 0 0 0 0 0 0 0 0 0 0 0 0 0 0 0 0 0 0 0 0 0 0 0 0 0 0 0 0 0 0 0 0 0 0 0 1 0 0 0 0 0 0 0 0 0 1 0 0 0 0 0 0 0 0 0 0 0 0 0 0 0 0 0 0 0 0 0 0 0 0 0 0 0 0 0 0 0 0 0 0 0 0 0 0 0 0 0 0 0 0 0 0 0 0 0 0 0 0 0 0 0 0 0 0 0 0 0 0 0 0 0 0 0 0 0 0 0 0 0 0 0 0 0 0 0 0 0 0 1 0 0 0 0 0 0 0 0 4 11 255 253 255 255 254 255 254 255 255 254 254 254 253 252 255 253 254 254 253 253 255 254 254 253 254 255 253 253 255 254 254 253 254 254 254 253 255 253 253 254 253 254 253 253 253 254 253 254 253 254 255 253 254 253 253 255 254 255 254 254 253 253 254 253 253 254 253 253 255 254 254 255 255 255 254 255 254 255 254 255 255 255 255 255 255 255 255 255 255 255 255 255 255 255 255 255 255 255 255 255 255 255 255 255 255 255 255 255 255 255 255 255 255 255 255 255 255 255 255 255 255 255 255 255 255 255 255 255 255 255 255 255 255 
255 255 255 255 255 255 255 255 255 255 255 255 255 255 255 255 255 255 255 255 255 255 255 255 255 255 255 255 255 255 255 255 255 255 255 255 255 255 255 255 255 255 255 255 255 255 255 255 255 255 255 255 255 255 255 253 253 254 255 253 255 254 253 255 254 254 254 254 255 253 254 255 253 254 253 254 255 253 254 254 254 253 254 254 255 253 254 253 254 253 254 254 254 253 255 253 254 253 254 254 253 254 254 255 253 253 255 253 253 254 253 255 254 255 253 253 254 253 254 253 254 254 254 255 254 253 254 254 253 253 254 253 255 252 245 4 2 0 0 0 0 0 0 0 0 0 0 0 0 0 0 0 0 0 0 0 0 0 0 0 0 0 0 0 0 0 0 0 0 0 0 0 0 0 1 0 0 0 0 0 1 0 0 0 0 0 0 0 0 1 0 0 0 0 0 0 0 0 0 0 0 0 0 0 0 1 0 0 0 0 0 0 0 0 0 0 0 0 0 0 0 0 0 0 0 0 0 0 0 0 0 1 0 0 0 0 0 0 0 0 0 1 0 0 1 0 0 0 0 0 0 0 0 0 0 0 0 0 0 0 0 0 0 0 0 0 0 0 0 0 0 0 0 0 0 0 0 0 0 0 0 0 0 0 0 0 0 0 0 0 0 0 0 0 0 0 0 0 0 0 0 0 0 0 0 0 0 0 0 0 0 0 0 0 0 0 0 0 0 1 0 155 254 255 255 253 253 255 254 254 254 254 255 253 255 254 255 253 253 254 253 254 254 253 253 255 254 254 254 254 255 254 255 254 254 253 254 253 253 253 254 254 254 254 253 253 253 255 254 255 253 253 255 253 253 254 254 254 254 253 255 253 254 253 254 253 255 253 253 253 253 255 255 254 254 254 254 254 254 254 254 255 255 255 255 255 255 255 255 255 255 255 255 255 255 255 255 255 255 255 255 255 255 255 255 255 255 255 255 255 255 255 255 255 255 255 255 255 255 255 255 255 255 255 255 255 255 255 255 255 255 255 255 255 255 
255 255 255 255 255 255 255 255 255 255 255 255 255 255 255 255 255 255 255 255 255 255 255 255 255 255 255 255 255 255 255 255 255 255 255 255 255 255 255 255 255 255 255 255 255 255 255 255 255 255 255 255 255 255 254 254 254 255 254 254 255 253 254 255 254 255 254 253 253 254 254 255 252 254 254 254 255 254 253 253 254 253 255 254 254 254 254 253 253 253 254 253 255 253 254 253 255 253 255 254 253 254 254 255 254 254 255 253 253 253 253 254 254 254 253 253 253 253 254 254 253 254 254 254 253 253 253 253 255 252 253 254 254 255 254 137 0 0 0 0 0 0 0 0 0 0 0 0 0 0 0 0 0 0 0 0 0 0 0 0 0 0 0 0 0 0 0 0 0 0 0 0 0 0 0 0 0 0 0 0 0 0 0 0 0 0 0 0 0 0 0 0 0 0 0 0 0 0 0 0 0 0 0 0 0 0 0 0 0 0 0 0 0 0 0 0 0 0 0 0 0 0 0 0 0 0 0 0 0 0 0 0 0 0 0 0 0 0 0 0 0 0 0 0 0 0 0 0 0 0 0 0 0 0 0 0 0 0 0 0 0 0 0 0 0 0 0 0 0 0 0 0 0 0 0 0 0 0 0 0 0 0 0 0 0 0 0 0 1 0 0 0 0 0 0 0 0 0 0 0 0 0 0 0 0 0 0 0 0 0 0 0 0 1 0 0 0 1 0 2 31 255 250 254 255 253 253 253 254 253 254 255 253 253 254 254 254 253 254 254 253 255 254 253 253 254 253 254 254 255 254 253 254 253 254 254 254 254 253 253 254 253 253 255 255 253 253 253 254 254 253 254 254 253 253 255 254 254 254 253 254 253 254 255 254 253 254 253 254 254 253 253 253 255 254 253 254 254 255 254 254 255 255 255 255 255 255 255 255 255 255 255 255 255 255 255 255 255 255 255 255 255 255 255 255 255 255 255 255 255 255 255 255 255 255 255 255 255 255 255 255 255 255 255 255 255 255 255 255 255 255 255 255 255 255 
255 255 255 255 255 255 255 255 255 255 255 255 255 255 255 255 255 255 255 255 255 255 255 255 255 255 255 255 255 255 255 255 255 255 255 255 255 255 255 255 255 255 255 255 255 255 255 255 255 255 255 255 255 255 254 254 253 255 253 254 253 253 255 253 254 254 254 253 253 254 255 253 254 253 253 254 254 254 253 254 254 253 255 254 254 255 253 253 253 253 255 253 254 254 254 253 255 254 253 254 254 254 253 255 253 254 254 253 254 253 253 254 253 254 254 254 255 253 254 253 254 254 254 254 253 254 253 255 254 254 254 255 255 255 251 254 10 3 0 0 0 0 0 0 0 0 0 0 0 0 0 0 0 0 0 0 0 0 0 0 0 0 0 0 0 0 1 0 0 0 0 0 0 0 0 0 0 0 0 1 0 0 0 0 0 0 0 0 0 0 0 0 0 0 0 0 0 0 0 0 0 0 0 0 0 0 0 0 0 0 0 0 0 0 0 0 0 0 0 0 0 0 0 0 0 0 0 0 0 0 0 0 0 0 0 0 0 0 0 0 0 0 0 0 0 0 0 0 0 0 0 0 0 0 0 0 0 0 0 0 0 0 0 0 0 0 0 0 0 0 0 0 0 0 0 0 0 0 0 0 0 0 0 0 0 0 0 0 0 0 0 0 0 0 0 0 0 0 0 0 0 0 0 0 0 0 0 0 1 0 0 0 0 0 0 1 0 0 2 0 200 252 255 254 253 253 253 253 254 254 253 254 253 254 255 253 254 254 254 253 255 254 253 254 253 252 254 254 253 253 255 253 253 253 255 254 253 253 253 254 254 253 253 253 254 255 254 253 255 253 255 254 252 254 253 254 254 254 253 253 254 254 254 253 253 255 254 253 254 254 254 253 254 253 254 253 254 255 253 254 255 255 255 255 255 255 255 255 255 255 255 255 255 255 255 255 255 255 255 255 255 255 255 255 255 255 255 255 255 255 255 255 255 255 255 255 255 255 255 255 255 255 255 255 255 255 255 255 255 255 255 255 255 255 255 
255 255 255 255 255 255 255 255 255 255 255 255 255 255 255 255 255 255 255 255 255 255 255 255 255 255 255 255 255 255 255 255 255 255 255 255 255 255 255 255 255 255 255 255 255 255 255 255 255 255 255 255 255 255 255 254 254 254 253 254 253 254 254 254 253 253 254 253 253 253 255 253 254 254 254 253 253 253 253 253 254 253 253 254 254 254 254 255 253 255 253 254 253 254 254 254 254 254 254 253 255 253 254 253 254 255 255 253 253 253 254 253 253 254 253 255 254 255 254 254 254 253 254 254 253 253 254 253 254 254 254 255 254 255 255 254 176 0 1 0 0 0 0 0 0 0 0 0 0 0 0 0 0 0 0 0 0 1 0 0 0 0 0 0 0 0 0 0 1 0 0 0 0 0 0 0 0 0 0 0 0 0 0 0 0 0 0 0 0 0 0 0 0 0 0 0 0 0 0 0 0 0 0 0 0 0 1 0 0 0 0 0 0 0 0 0 0 0 0 0 0 0 0 0 0 0 0 0 0 0 0 0 0 0 0 0 0 0 0 0 0 0 0 0 0 0 0 0 0 0 0 0 0 0 0 0 0 0 0 0 0 0 0 0 1 0 0 0 0 0 0 0 0 0 0 0 0 0 0 0 0 0 0 0 0 0 0 0 0 0 0 0 0 0 0 0 0 0 0 0 0 0 0 0 0 0 0 0 1 1 0 0 0 0 0 0 0 0 1 47 255 253 254 255 253 254 254 253 253 254 254 253 254 254 253 254 253 254 253 253 254 253 254 255 253 253 255 253 255 253 254 253 253 253 254 255 254 253 253 254 254 254 254 253 254 254 255 255 254 253 254 254 254 254 252 253 253 254 253 253 255 254 254 252 254 253 254 253 253 254 253 254 255 253 254 254 253 254 254 254 254 255 255 255 255 255 255 255 255 255 255 255 255 255 255 255 255 255 255 255 255 255 255 255 255 255 255 255 255 255 255 255 255 255 255 255 255 255 255 255 255 255 255 255 255 255 255 255 255 255 255 255 255 255 255 
255 255 255 255 255 255 255 255 255 255 255 255 255 255 255 255 255 255 255 255 255 255 255 255 255 255 255 255 255 255 255 255 255 255 255 255 255 255 255 255 255 255 255 255 255 255 255 255 255 255 255 255 255 255 254 255 254 254 253 254 254 253 254 254 253 254 253 253 253 253 253 254 254 254 253 254 254 252 254 254 253 254 253 252 254 254 254 254 253 253 253 255 254 254 253 255 254 254 254 254 254 254 253 253 253 253 255 253 253 253 254 254 255 253 252 255 254 254 253 254 254 253 252 253 253 254 255 253 254 253 255 254 255 254 255 250 255 36 3 0 0 0 0 0 0 0 0 0 0 0 0 0 0 0 0 0 1 0 0 0 0 0 0 0 1 0 0 0 0 0 0 0 0 0 0 0 0 0 1 0 0 0 0 0 0 0 0 0 0 0 0 0 0 0 0 0 0 0 0 0 0 0 0 0 0 0 0 0 0 0 0 0 0 0 0 0 0 0 0 0 0 0 0 0 0 0 0 0 0 0 0 0 0 0 0 0 0 0 1 0 0 0 0 0 0 0 0 0 0 0 0 0 0 0 0 0 0 0 0 0 0 0 0 0 0 0 0 0 0 0 0 0 0 0 0 0 0 0 0 0 0 0 0 0 0 0 0 0 1 0 0 1 0 0 0 0 0 0 0 0 0 0 0 0 0 0 0 0 0 0 0 0 1 0 0 0 0 2 0 225 252 255 254 254 254 254 254 253 253 254 254 254 254 254 253 254 253 254 255 254 253 253 253 254 254 254 254 254 255 254 253 254 254 254 253 254 254 254 254 253 254 253 255 252 254 253 255 254 253 254 253 254 253 253 255 253 254 254 254 254 254 253 254 253 254 254 254 254 254 253 254 253 254 253 255 254 254 254 254 254 254 255 255 255 255 255 255 255 255 255 255 255 255 255 255 255 255 255 255 255 255 255 255 255 255 255 255 255 255 255 255 255 255 255 255 255 255 255 255 255 255 255 255 255 255 255 255 255 255 255 255 255 255 255 255 
255 255 255 255 255 255 255 255 255 255 255 255 255 255 255 255 255 255 255 255 255 255 255 255 255 255 255 255 255 255 255 255 255 255 255 255 255 255 255 255 255 255 255 255 255 255 255 255 255 255 255 255 255 255 254 253 254 255 253 254 255 253 255 254 253 254 253 254 254 253 252 254 255 255 253 255 254 253 254 254 252 254 254 254 254 255 254 254 254 253 254 254 254 253 254 254 253 254 254 254 253 255 252 254 255 252 254 254 254 254 252 254 254 253 253 254 254 253 254 254 254 252 254 254 254 254 254 254 254 254 254 254 254 253 254 252 250 230 0 6 0 0 0 0 0 0 0 0 0 0 0 0 0 0 0 0 0 0 0 0 0 0 0 0 0 0 0 0 0 0 0 0 0 0 0 0 1 0 0 0 0 0 0 0 0 0 0 0 0 0 0 0 0 0 0 0 0 0 0 0 0 0 0 0 0 0 0 0 0 0 0 0 0 0 0 1 0 0 0 0 0 0 0 0 0 0 0 0 0 0 0 0 0 0 0 0 0 0 0 0 0 0 0 0 0 0 0 0 0 0 0 0 0 0 0 0 0 0 0 0 0 0 0 0 0 0 0 0 0 0 0 0 0 0 0 0 0 0 0 0 0 0 0 0 0 0 0 0 0 0 0 0 0 0 1 0 0 0 0 1 0 0 0 0 0 0 0 0 0 0 0 0 0 0 0 0 0 0 96 255 254 254 254 255 255 254 253 254 253 253 254 254 254 254 254 253 254 254 254 254 252 254 253 255 253 253 254 254 254 255 254 254 253 255 254 254 254 254 254 254 254 254 254 255 253 254 253 254 254 254 254 254 253 254 253 253 254 254 254 254 254 253 254 254 254 254 255 254 253 253 254 253 254 254 255 254 254 254 254 254 255 255 255 255 255 255 255 255 255 255 255 255 255 255 255 255 255 255 255 255 255 255 255 255 255 255 255 255 255 255 255 255 255 255 255 255 255 255 255 255 255 255 255 255 255 255 255 255 255 255 255 255 255 255 255 
255 255 255 255 255 255 255 255 255 255 255 255 255 255 255 255 255 255 255 255 255 255 255 255 255 255 255 255 255 255 255 255 255 255 255 255 255 255 255 255 255 255 255 255 255 255 255 255 255 255 255 255 255 255 254 254 255 253 254 254 254 254 254 254 254 254 255 253 254 254 254 254 253 255 254 254 254 253 254 253 254 254 254 255 253 254 253 254 254 253 254 253 253 253 255 254 253 254 255 254 253 252 254 254 255 254 254 254 255 253 254 254 254 253 253 253 252 254 253 254 253 254 253 255 253 254 253 253 255 254 255 253 254 253 254 253 252 255 130 0 1 0 0 0 0 0 0 0 0 0 0 0 0 0 0 0 0 0 0 0 0 0 0 0 0 0 0 0 0 0 0 0 0 0 0 0 0 0 0 0 0 0 0 0 0 0 0 0 0 0 0 0 0 0 0 0 0 0 0 0 0 0 0 0 0 0 0 0 0 0 0 0 0 0 0 1 0 0 0 0 0 0 0 0 0 0 0 1 0 0 0 0 0 0 0 0 0 0 0 0 0 0 0 0 0 0 0 0 0 0 0 0 0 0 0 0 0 0 0 0 0 0 0 0 0 0 0 0 0 0 0 0 0 0 0 0 0 0 0 0 0 0 0 0 0 0 0 0 0 0 0 0 1 0 0 0 0 0 0 0 0 0 0 0 0 0 0 0 0 0 0 0 0 0 0 0 3 4 254 250 252 254 254 254 254 254 253 254 253 253 254 254 254 254 254 254 254 254 253 253 254 254 255 254 254 253 254 253 254 253 253 253 254 255 254 254 254 254 254 254 254 255 253 255 254 254 252 254 253 254 253 253 254 255 252 254 253 254 253 254 254 255 253 254 254 254 254 254 253 254 254 254 254 253 255 253 254 254 254 254 254 255 255 255 255 255 255 255 255 255 255 255 255 255 255 255 255 255 255 255 255 255 255 255 255 255 255 255 255 255 255 255 255 255 255 255 255 255 255 255 255 255 255 255 255 255 255 255 255 255 255 255 255 255 255 
255 255 255 255 255 255 255 255 255 255 255 255 255 255 255 255 255 255 255 255 255 255 255 255 255 255 255 255 255 255 255 255 255 255 255 255 255 255 255 255 255 255 255 255 255 255 255 255 255 255 255 255 255 255 254 255 253 254 253 253 254 255 255 253 255 254 255 253 254 253 254 254 253 254 254 254 253 254 253 253 254 254 253 253 253 254 253 254 254 252 254 255 253 255 255 253 253 255 253 253 253 254 254 253 252 254 254 254 255 253 255 253 254 254 254 254 254 254 253 254 253 254 254 254 253 255 254 254 254 253 254 253 253 253 253 252 255 249 255 38 3 0 0 0 0 0 0 0 0 0 0 0 0 0 0 0 0 0 0 0 0 0 0 0 0 0 0 0 0 0 0 0 0 0 0 0 0 0 0 0 0 0 0 0 0 0 0 0 0 0 0 0 0 0 0 0 0 0 0 0 0 0 0 0 0 0 0 0 0 0 0 0 0 0 0 0 0 0 0 0 0 0 0 0 0 0 0 1 1 0 0 0 0 0 0 0 0 0 0 0 0 0 0 0 0 0 0 0 0 0 0 0 0 0 0 0 0 0 0 0 0 0 0 0 0 0 0 0 0 0 0 0 0 0 0 0 0 0 0 0 0 0 0 0 0 0 0 0 0 0 0 0 0 0 0 0 0 0 0 0 0 0 0 0 0 0 0 0 0 0 0 0 0 0 0 3 0 191 253 252 254 253 254 254 254 254 254 254 253 254 253 254 254 254 254 254 254 253 254 253 255 253 255 254 255 253 253 252 254 254 254 254 254 254 254 253 254 254 254 254 252 255 254 254 253 254 253 254 254 253 254 253 254 254 254 254 254 254 253 255 253 255 253 253 253 254 255 254 255 254 254 253 254 253 254 253 255 253 255 254 255 255 255 255 255 255 255 255 255 255 255 255 255 255 255 255 255 255 255 255 255 255 255 255 255 255 255 255 255 255 255 255 255 255 255 255 255 255 255 255 255 255 255 255 255 255 255 255 255 255 255 255 255 255 255 
255 255 255 255 255 255 255 255 255 255 255 255 255 255 255 255 255 255 255 255 255 255 255 255 255 255 255 255 255 255 255 255 255 255 255 255 255 255 255 255 255 255 255 255 255 255 255 255 255 255 255 255 255 255 253 254 254 255 253 253 255 254 254 255 254 254 254 253 255 253 255 253 254 253 254 255 253 255 253 253 254 254 254 253 255 254 254 254 253 253 254 255 254 254 253 253 255 254 255 253 254 254 252 254 253 253 253 255 253 255 254 253 253 253 254 252 255 253 255 254 253 253 254 253 253 254 253 254 253 253 254 253 254 253 253 254 255 255 250 243 1 6 0 0 0 0 0 0 0 0 0 0 0 0 0 0 0 0 0 0 0 0 0 0 0 0 1 0 1 0 0 0 0 0 0 0 0 0 0 0 0 0 0 0 0 0 0 0 0 0 0 0 0 0 0 0 1 0 0 0 0 0 0 0 0 0 0 0 0 0 0 0 0 0 0 0 0 0 0 1 0 0 1 0 0 0 0 0 0 0 0 1 0 0 0 0 0 0 0 0 0 0 0 0 0 0 0 0 0 0 0 0 0 0 0 0 0 0 1 0 0 0 0 0 0 0 0 0 0 0 0 0 0 0 0 0 0 0 0 0 0 0 0 0 0 0 0 0 0 0 0 1 0 0 0 0 0 0 0 0 0 0 0 0 0 0 0 0 0 0 0 0 0 1 2 0 75 255 251 253 253 254 253 253 255 254 254 254 254 255 253 253 254 253 253 252 255 253 255 253 253 254 253 255 254 253 254 254 253 254 254 255 252 253 254 252 254 254 253 255 253 254 253 254 255 254 254 253 255 253 255 253 252 254 255 254 255 253 254 255 254 253 253 254 254 253 254 255 253 255 253 253 255 254 254 254 254 254 255 254 254 255 255 255 255 255 255 255 255 255 255 255 255 255 255 255 255 255 255 255 255 255 255 255 255 255 255 255 255 255 255 255 255 255 255 255 255 255 255 255 255 255 255 255 255 255 255 255 255 255 255 255 255 255 255 
255 255 255 255 255 255 255 255 255 255 255 255 255 255 255 255 255 255 255 255 255 255 255 255 255 255 255 255 255 255 255 255 255 255 255 255 255 255 255 255 255 255 255 255 255 255 255 255 255 255 255 255 255 255 254 255 254 253 254 255 254 253 254 254 253 254 255 253 254 253 253 255 254 255 254 255 254 253 254 254 254 255 253 254 255 255 253 254 253 254 254 253 254 253 252 254 253 254 253 254 255 253 253 254 254 253 255 253 255 253 254 254 254 253 253 254 254 254 254 254 254 253 253 253 253 254 254 253 254 254 254 254 255 254 254 255 255 254 254 254 179 0 2 0 0 0 0 0 0 0 0 0 0 0 0 0 0 0 0 0 0 0 0 0 0 0 0 0 0 0 0 1 0 0 0 0 0 0 0 0 0 0 0 0 0 0 0 0 0 0 0 0 0 0 0 0 0 0 0 0 0 0 0 1 0 0 0 0 0 0 0 0 0 0 0 0 0 0 0 0 0 0 0 0 1 0 0 0 0 0 0 0 0 0 0 0 0 0 0 0 0 1 0 0 0 0 0 0 0 0 0 0 0 0 0 0 0 0 0 0 0 0 0 0 0 0 0 0 0 0 0 0 0 0 0 0 0 0 0 0 0 0 0 0 0 0 0 0 0 0 1 0 0 0 0 0 0 0 1 0 0 0 0 0 0 1 0 0 0 0 0 0 0 0 5 24 255 250 255 255 254 254 254 253 252 253 253 253 254 255 254 254 254 253 254 253 254 253 253 254 253 254 253 255 253 253 254 255 254 253 254 254 254 254 253 254 254 253 254 254 254 255 254 253 253 254 254 253 253 254 255 253 253 255 254 254 254 253 254 253 255 254 254 254 254 253 253 254 254 254 254 253 254 254 255 254 254 254 255 253 253 255 255 255 255 255 255 255 255 255 255 255 255 255 255 255 255 255 255 255 255 255 255 255 255 255 255 255 255 255 255 255 255 255 255 255 255 255 255 255 255 255 255 255 255 255 255 255 255 255 255 255 255 255 255 
255 255 255 255 255 255 255 255 255 255 255 255 255 255 255 255 255 255 255 255 255 255 255 255 255 255 255 255 255 255 255 255 255 255 255 255 255 255 255 255 255 255 255 255 255 255 255 255 255 255 255 255 255 255 254 254 254 254 253 255 254 253 254 253 255 253 254 255 254 254 254 254 253 254 254 254 253 253 255 254 254 254 252 254 254 253 254 254 254 253 253 255 254 254 253 254 254 254 253 254 255 255 253 253 254 253 253 253 254 253 254 254 255 253 253 254 253 254 255 253 254 253 254 254 254 254 255 253 255 253 255 254 254 253 255 254 255 253 255 250 255 86 0 2 0 0 0 0 0 0 0 0 0 0 0 0 0 0 1 0 0 0 0 0 0 0 0 0 0 0 0 0 0 0 1 0 0 0 0 0 0 0 0 0 0 0 0 0 0 0 0 0 0 0 0 0 0 0 0 0 0 0 0 0 0 0 0 0 0 0 0 0 0 0 0 0 0 0 0 0 0 0 0 0 0 0 0 0 0 0 0 0 0 0 0 0 1 0 0 0 0 0 0 0 0 0 0 0 0 1 0 1 0 0 0 0 1 0 0 0 0 0 0 0 0 0 0 0 0 0 0 0 0 0 0 0 0 0 1 0 0 0 0 0 0 0 0 0 0 0 0 0 0 0 0 0 0 0 0 0 0 0 0 0 0 0 0 0 0 0 0 0 0 3 5 245 250 255 254 254 255 253 254 253 254 253 253 254 253 254 253 255 254 254 255 254 253 254 253 254 254 254 254 255 253 254 254 253 254 254 254 253 254 255 254 254 254 253 255 253 253 254 254 255 253 253 255 253 254 254 253 254 254 254 253 254 255 254 254 253 254 254 255 254 253 253 254 255 253 255 255 253 254 254 253 254 253 253 253 253 254 255 255 255 255 255 255 255 255 255 255 255 255 255 255 255 255 255 255 255 255 255 255 255 255 255 255 255 255 255 255 255 255 255 255 255 255 255 255 255 255 255 255 255 255 255 255 255 255 255 255 255 255 255 255 
255 255 255 255 255 255 255 255 255 255 255 255 255 255 255 255 255 255 255 255 255 255 255 255 255 255 255 255 255 255 255 255 255 255 255 255 255 255 255 255 255 255 255 255 255 255 255 255 255 255 255 255 255 255 253 255 254 254 253 253 254 254 255 253 253 254 254 253 254 254 255 253 255 255 253 255 254 254 253 255 253 252 254 254 254 253 255 253 254 253 254 253 255 252 255 254 254 255 253 252 253 255 254 254 254 253 253 255 253 254 253 254 253 254 255 253 254 253 254 252 253 253 255 255 254 254 253 255 254 253 253 254 253 254 253 255 255 254 253 255 247 255 44 1 1 0 0 1 1 1 0 0 0 0 0 0 0 0 0 0 0 1 0 0 0 0 0 0 0 0 0 0 0 0 0 0 0 1 0 0 0 0 0 0 0 0 0 0 0 0 0 0 0 0 0 0 0 0 0 0 0 0 0 0 0 0 0 0 0 0 0 0 0 0 1 0 1 0 0 0 0 0 0 0 0 0 0 0 1 0 0 0 0 0 0 0 0 0 0 0 0 0 0 0 0 0 0 0 0 0 0 0 0 0 0 0 0 1 0 0 0 0 0 1 0 0 0 0 0 0 0 0 0 0 0 0 0 0 0 0 0 0 0 0 0 1 0 0 0 0 0 0 0 0 0 0 0 0 0 0 1 0 0 0 0 0 0 0 0 0 0 1 3 0 224 250 255 253 253 254 254 253 253 253 255 253 254 254 254 254 254 253 255 254 254 254 255 254 254 254 253 254 253 254 253 254 253 255 253 255 254 253 254 253 255 254 254 255 254 254 253 254 254 255 253 254 255 252 254 254 253 255 254 254 253 252 253 253 254 254 254 254 253 254 254 254 253 253 253 253 254 254 253 254 254 255 254 254 253 255 255 255 255 255 255 255 255 255 255 255 255 255 255 255 255 255 255 255 255 255 255 255 255 255 255 255 255 255 255 255 255 255 255 255 255 255 255 255 255 255 255 255 255 255 255 255 255 255 255 255 255 255 255 255 255 
255 255 255 255 255 255 255 255 255 255 255 255 255 255 255 255 255 255 255 255 255 255 255 255 255 255 255 255 255 255 255 255 255 255 255 255 255 255 255 255 255 255 255 255 255 255 255 255 255 255 255 255 255 255 255 253 254 253 254 254 253 253 255 254 253 254 253 252 254 253 255 253 253 254 253 253 254 255 254 255 253 253 254 254 254 253 254 253 254 254 254 253 255 253 254 254 254 254 253 253 253 253 254 252 254 253 253 255 253 254 253 254 254 253 255 253 254 253 254 253 253 255 254 254 253 253 255 254 254 253 253 254 253 254 254 255 255 255 253 253 250 245 255 41 0 2 2 1 0 1 0 0 0 0 0 0 1 0 0 0 0 0 0 0 0 0 0 0 0 0 0 0 1 0 0 0 0 0 0 0 0 0 0 0 0 0 0 0 0 0 0 0 0 0 0 0 0 0 0 0 0 0 0 0 0 0 0 0 0 0 0 0 0 0 0 0 1 0 0 0 0 1 0 0 0 0 0 0 0 0 0 0 0 0 0 0 0 0 0 0 0 0 0 0 0 0 0 0 0 0 0 0 0 0 0 0 0 0 0 0 0 0 0 0 0 1 0 0 0 0 0 0 0 0 0 0 0 1 0 0 0 0 0 0 0 0 0 0 0 0 0 0 0 0 0 0 0 0 0 0 1 0 0 0 0 1 0 0 0 0 1 3 0 208 254 254 255 253 254 254 254 255 253 254 254 253 254 252 254 254 254 253 255 254 254 253 253 253 254 253 254 253 253 254 254 255 254 255 254 255 253 253 254 255 253 253 255 254 254 255 254 253 254 253 253 254 253 253 253 255 253 253 253 254 253 253 253 254 253 254 255 254 253 254 253 254 253 253 254 254 253 254 253 254 253 254 254 255 255 253 254 255 255 255 255 255 255 255 255 255 255 255 255 255 255 255 255 255 255 255 255 255 255 255 255 255 255 255 255 255 255 255 255 255 255 255 255 255 255 255 255 255 255 255 255 255 255 255 255 255 255 255 255 255 255 
255 255 255 255 255 255 255 255 255 255 255 255 255 255 255 255 255 255 255 255 255 255 255 255 255 255 255 255 255 255 255 255 255 255 255 255 255 255 255 255 255 255 255 255 255 255 255 255 255 255 255 255 255 255 253 253 254 253 254 255 253 253 254 254 254 254 254 253 253 254 254 253 253 255 255 254 255 253 254 255 253 254 254 253 254 255 253 254 254 254 253 254 254 255 254 254 253 253 253 253 253 254 254 253 254 255 254 255 255 254 254 253 254 254 254 253 254 254 254 255 254 254 253 253 253 254 253 253 255 255 254 253 255 255 254 255 255 255 253 253 252 250 248 255 72 0 8 4 1 0 0 0 0 0 0 3 2 0 0 0 0 0 0 0 0 0 0 0 0 0 0 0 0 0 0 0 0 0 0 0 0 0 0 0 0 0 0 0 0 0 0 0 0 0 0 0 0 0 0 0 0 0 0 1 0 0 0 0 0 1 0 0 0 0 0 0 0 0 0 1 0 0 0 0 0 0 0 0 0 0 0 0 0 0 0 0 0 0 0 0 0 0 1 0 1 0 0 1 0 0 1 1 0 0 0 0 0 0 0 0 0 0 0 0 0 0 0 0 0 0 0 0 0 0 0 0 0 0 0 0 0 0 0 0 0 0 1 0 0 0 0 0 0 0 0 0 0 0 0 0 1 1 0 1 0 1 0 1 2 1 3 11 234 253 252 253 254 254 254 253 254 254 253 254 254 255 255 253 254 253 254 253 254 253 253 253 252 254 255 253 254 253 253 254 254 254 254 254 253 253 254 253 254 253 253 253 255 253 254 253 254 253 254 254 255 255 254 254 253 253 253 254 254 253 253 255 255 254 253 254 254 254 255 253 253 254 253 253 253 255 253 254 254 253 253 254 254 253 253 255 254 255 255 255 255 255 255 255 255 255 255 255 255 255 255 255 255 255 255 255 255 255 255 255 255 255 255 255 255 255 255 255 255 255 255 255 255 255 255 255 255 255 255 255 255 255 255 255 255 255 255 255 255 255 255 
255 255 255 255 255 255 255 255 255 255 255 255 255 255 255 255 255 255 255 255 255 255 255 255 255 255 255 255 255 255 255 255 255 255 255 255 255 255 255 255 255 255 255 255 255 255 255 255 255 255 255 255 255 255 253 255 254 254 255 254 253 254 254 253 254 253 254 254 253 254 255 254 255 254 254 253 254 253 255 253 254 254 253 255 253 254 253 253 254 253 254 253 253 254 253 254 252 254 253 253 254 254 255 255 254 254 253 253 255 255 254 255 253 253 254 253 255 254 255 255 254 254 255 252 254 254 253 253 254 254 253 253 254 254 253 253 254 255 254 252 253 252 252 245 255 163 3 2 5 0 1 3 0 0 1 4 2 0 0 0 0 0 0 0 0 0 0 0 0 0 0 0 0 0 0 0 0 0 0 0 0 0 0 0 0 0 1 0 0 0 0 0 0 0 1 0 0 0 0 0 0 0 0 0 0 0 0 0 0 0 0 0 0 0 0 0 0 0 0 0 0 0 0 0 0 0 1 0 0 0 0 0 0 0 0 0 0 1 0 0 0 0 0 0 0 0 0 0 0 0 0 0 0 0 0 0 0 0 0 0 0 0 0 0 0 0 0 0 0 0 0 0 0 0 0 0 0 0 0 0 0 0 0 0 0 0 0 0 0 0 0 0 0 0 0 0 0 0 0 0 2 2 0 0 1 1 0 1 5 0 63 251 249 254 252 252 253 254 254 253 253 255 254 254 253 254 253 254 253 255 254 253 254 252 254 254 253 254 254 255 254 255 253 253 254 252 254 255 254 253 253 254 254 254 254 254 254 255 253 254 255 255 254 255 253 254 254 253 254 253 255 255 253 253 253 255 255 254 254 255 254 253 254 253 255 254 253 253 253 253 253 253 255 254 255 253 255 253 254 254 254 255 255 255 255 255 255 255 255 255 255 255 255 255 255 255 255 255 255 255 255 255 255 255 255 255 255 255 255 255 255 255 255 255 255 255 255 255 255 255 255 255 255 255 255 255 255 255 255 255 255 255 255 255 255 
255 255 255 255 255 255 255 255 255 255 255 255 255 255 255 255 255 255 255 255 255 255 255 255 255 255 255 255 255 255 255 255 255 255 255 255 255 255 255 255 255 255 255 255 255 255 255 255 255 255 255 255 255 255 254 254 254 253 255 253 254 254 254 254 254 253 255 255 254 253 255 253 253 254 254 254 254 254 255 255 253 253 254 254 254 254 252 253 255 253 253 254 254 254 254 253 253 253 254 253 253 254 254 255 255 254 254 254 253 254 254 253 253 254 254 255 254 254 253 253 254 253 254 253 254 255 253 253 254 254 253 253 253 254 254 253 255 253 254 253 253 252 254 254 249 254 251 105 5 0 1 6 3 2 3 6 0 0 2 0 0 0 0 0 0 0 0 0 0 0 0 0 0 0 0 0 0 0 0 0 0 0 0 0 0 0 0 0 0 0 0 1 0 0 0 0 0 0 0 0 0 0 0 0 0 0 0 0 0 0 0 0 0 0 0 1 0 0 0 0 0 0 0 0 0 0 0 0 0 0 1 0 0 0 0 0 0 0 0 0 0 0 0 0 0 0 1 0 1 0 0 0 0 0 1 0 0 0 0 0 0 0 0 0 0 1 0 0 0 0 1 0 0 0 0 0 0 0 0 0 0 0 0 0 0 0 0 0 0 0 0 0 1 0 1 0 0 0 1 0 3 4 3 2 4 3 0 0 49 212 255 246 254 255 254 253 254 253 254 255 253 253 255 255 254 254 253 254 254 254 255 253 254 254 253 255 254 253 254 254 253 254 253 253 253 253 253 255 253 253 253 253 255 253 254 255 253 253 253 255 253 255 255 253 254 255 253 253 253 253 253 254 254 253 253 254 254 253 253 253 254 254 255 253 254 254 254 253 254 254 254 253 253 255 254 255 254 255 254 254 254 255 255 255 255 255 255 255 255 255 255 255 255 255 255 255 255 255 255 255 255 255 255 255 255 255 255 255 255 255 255 255 255 255 255 255 255 255 255 255 255 255 255 255 255 255 255 255 255 255 255 255 255 255 255 
255 255 255 255 255 255 255 255 255 255 255 255 255 255 255 255 255 255 255 255 255 255 255 255 255 255 255 255 255 255 255 255 255 255 255 255 255 255 255 255 255 255 255 255 255 255 255 255 255 255 255 255 255 255 254 254 254 253 254 254 254 254 255 253 253 253 254 255 254 254 253 255 254 254 253 253 253 254 254 253 254 254 253 253 253 253 253 254 253 254 253 254 255 253 254 253 255 253 253 254 252 253 254 254 253 254 254 254 253 253 254 254 253 253 253 255 254 254 255 254 254 253 254 255 253 255 254 253 254 255 254 254 254 255 254 253 253 253 253 254 254 253 253 254 255 254 248 255 250 168 102 21 11 0 5 27 145 94 0 0 0 0 0 0 0 0 0 0 0 0 0 0 0 0 0 0 0 0 0 0 0 0 0 0 0 0 0 0 0 0 0 0 0 0 0 0 0 0 0 0 0 0 0 0 0 0 0 1 0 0 0 1 0 0 0 0 0 0 0 0 0 0 0 0 0 0 0 0 0 0 0 0 0 0 0 1 0 0 0 0 0 0 0 0 0 0 0 0 0 0 0 0 0 0 0 0 0 0 0 0 0 0 0 0 0 0 0 0 0 0 0 0 0 0 0 0 0 0 0 0 0 0 0 0 0 1 0 0 1 0 1 0 0 0 0 0 0 0 1 44 71 14 0 0 14 54 131 235 255 248 253 254 253 254 255 254 253 254 255 254 253 254 255 254 253 254 254 255 253 254 253 254 254 254 254 254 254 253 255 255 253 255 253 253 253 254 254 253 254 254 254 254 253 253 254 254 253 253 253 253 253 254 253 253 253 253 254 254 253 253 253 254 254 254 254 254 254 254 254 254 253 253 253 253 253 253 254 254 254 255 253 254 253 254 254 255 254 254 254 255 254 255 255 255 255 255 255 255 255 255 255 255 255 255 255 255 255 255 255 255 255 255 255 255 255 255 255 255 255 255 255 255 255 255 255 255 255 255 255 255 255 255 255 255 255 255 255 255 255 255 255 255 255 255 255 
255 255 255 255 255 255 255 255 255 255 255 255 255 255 255 255 255 255 255 255 255 255 255 255 255 255 255 255 255 255 255 255 255 255 255 255 255 255 255 255 255 255 255 255 255 255 255 255 255 255 255 255 255 255 255 254 254 254 254 254 253 254 255 253 253 253 254 253 254 254 254 253 253 255 252 254 254 254 254 254 253 255 252 253 254 252 253 253 253 255 253 253 253 254 253 253 253 254 254 254 252 254 254 254 254 254 253 254 253 253 253 255 253 252 254 253 255 254 255 253 253 254 255 253 253 254 253 254 254 254 253 254 253 254 253 253 253 253 254 253 253 254 255 254 255 255 253 251 249 251 255 255 251 237 244 255 254 205 0 3 0 0 0 0 0 0 0 0 0 0 0 0 0 0 0 0 0 0 0 0 1 0 0 0 0 0 0 0 0 0 0 0 0 0 0 0 0 0 0 0 0 0 0 0 0 0 1 0 0 0 0 0 0 0 0 0 0 0 0 0 0 0 0 0 0 0 0 0 0 0 0 0 0 0 0 0 0 0 0 0 0 0 0 0 0 0 0 0 0 1 0 0 0 0 0 0 0 0 0 0 0 0 0 0 0 0 0 0 0 0 0 0 0 0 0 0 0 0 1 0 0 0 0 0 0 0 0 0 0 0 0 0 0 0 0 0 1 0 0 196 255 254 236 235 253 255 254 248 252 254 255 255 252 253 255 255 253 254 254 254 253 254 253 254 253 253 254 255 254 255 253 254 254 254 253 254 254 254 253 254 253 254 254 254 253 253 254 254 254 255 253 254 254 253 254 254 253 253 253 253 253 254 254 255 253 253 255 253 253 254 254 253 254 254 253 255 253 254 253 253 253 254 253 253 255 253 253 254 255 254 254 253 254 254 255 253 253 255 254 253 254 255 255 255 255 255 255 255 255 255 255 255 255 255 255 255 255 255 255 255 255 255 255 255 255 255 255 255 255 255 255 255 255 255 255 255 255 255 255 255 255 255 255 255 255 255 255 255 255 255 255 255 255 255 255 
255 255 255 255 255 255 255 255 255 255 255 255 255 255 255 255 255 255 255 255 255 255 255 255 255 255 255 255 255 255 255 255 255 255 255 255 255 255 255 255 255 255 255 255 255 255 255 255 255 255 255 255 255 255 253 254 253 253 255 254 254 254 255 254 254 253 255 253 255 253 253 254 254 254 254 253 254 254 253 254 253 254 254 255 253 253 253 253 255 254 253 254 253 254 253 253 253 255 253 254 254 254 253 255 254 254 254 254 254 254 254 253 254 254 255 253 255 253 254 254 253 254 253 253 255 254 253 255 255 253 254 254 253 254 254 254 253 253 254 253 253 254 253 255 254 255 254 252 250 251 254 255 254 251 250 251 252 247 9 5 0 0 0 0 0 0 1 0 0 0 0 0 0 0 0 0 0 0 0 0 0 0 0 1 0 0 0 0 0 0 0 0 0 0 0 0 0 0 0 0 0 0 0 0 0 0 0 0 0 0 0 0 0 0 0 0 0 0 0 0 0 0 0 0 0 0 0 0 0 0 0 0 0 0 0 0 0 0 0 0 0 0 0 0 0 0 0 0 0 0 0 0 0 0 0 0 0 0 0 0 0 0 0 0 0 0 0 0 0 0 0 0 0 0 0 0 0 0 0 0 0 0 0 0 0 0 0 0 0 0 0 0 0 0 0 1 0 3 0 235 254 253 252 252 254 252 251 251 253 255 255 255 253 253 254 255 254 253 254 253 253 255 253 254 255 254 253 254 254 253 254 255 254 253 254 254 254 253 252 253 254 253 253 255 254 254 254 253 254 254 254 254 253 254 254 253 254 254 254 253 255 254 253 253 253 254 254 254 254 253 254 253 253 253 254 253 254 254 254 253 254 254 255 253 253 255 253 253 253 254 255 253 254 254 253 254 255 253 254 253 254 255 255 255 255 255 255 255 255 255 255 255 255 255 255 255 255 255 255 255 255 255 255 255 255 255 255 255 255 255 255 255 255 255 255 255 255 255 255 255 255 255 255 255 255 255 255 255 255 255 255 255 255 255 255 
255 255 255 255 255 255 255 255 255 255 255 255 255 255 255 255 255 255 255 255 255 255 255 255 255 255 255 255 255 255 255 255 255 255 255 255 255 255 255 255 255 255 255 255 255 255 255 255 255 255 255 255 255 255 254 254 254 252 255 254 255 254 255 253 254 253 254 254 255 253 252 255 253 254 255 253 254 253 253 253 254 255 255 253 254 255 254 253 255 254 254 253 254 253 254 253 253 255 253 254 255 253 253 254 254 254 254 253 255 254 253 253 254 253 255 254 254 253 255 254 254 253 253 254 253 253 254 255 253 254 253 254 254 254 253 253 253 255 253 253 255 254 253 255 255 253 253 253 252 253 255 253 253 252 251 250 254 255 64 0 0 0 0 0 0 0 0 0 0 0 0 0 0 0 0 0 0 0 0 0 0 0 0 0 0 1 0 0 0 0 0 0 0 0 0 0 0 0 0 0 0 0 0 0 0 0 0 1 0 0 0 0 0 0 0 0 0 0 0 0 0 0 0 0 0 0 0 0 0 0 0 1 0 0 0 0 0 0 0 0 1 0 0 1 0 0 0 0 0 0 0 0 0 0 0 0 0 0 0 0 0 0 0 1 1 0 0 0 0 0 0 0 0 0 0 0 0 0 0 0 0 0 0 0 0 0 0 0 0 0 0 0 0 0 0 1 0 1 44 255 250 252 251 253 253 253 254 254 253 253 254 254 254 254 253 255 255 252 254 254 254 254 253 253 255 253 254 254 253 252 253 255 255 254 255 254 254 253 253 254 254 253 253 255 253 255 254 253 254 254 255 254 253 255 254 254 254 254 253 253 254 254 253 253 254 254 252 253 254 253 254 253 255 253 255 253 254 254 254 254 253 253 255 253 253 254 253 253 253 254 253 255 253 255 253 254 254 254 254 254 254 255 255 255 255 255 255 255 255 255 255 255 255 255 255 255 255 255 255 255 255 255 255 255 255 255 255 255 255 255 255 255 255 255 255 255 255 255 255 255 255 255 255 255 255 255 255 255 255 255 255 255 255 255 255 
255 255 255 255 255 255 255 255 255 255 255 255 255 255 255 255 255 255 255 255 255 255 255 255 255 255 255 255 255 255 255 255 255 255 255 255 255 255 255 255 255 255 255 255 255 255 255 255 255 255 255 255 255 255 255 254 255 254 253 255 254 254 253 253 255 253 253 255 254 254 254 255 254 253 255 254 253 254 253 253 254 254 255 253 254 254 253 254 254 253 254 252 254 254 254 253 254 253 254 255 254 254 252 254 253 253 253 254 253 254 252 253 254 253 255 254 253 254 253 254 255 253 254 255 253 254 254 254 253 253 254 254 253 255 253 254 253 253 254 254 253 254 255 254 254 253 253 254 253 254 254 255 255 253 252 252 254 254 168 0 0 0 0 0 0 0 0 0 0 0 0 0 0 0 0 0 0 0 0 0 0 0 0 0 0 0 0 0 0 0 0 0 0 0 0 0 0 0 0 0 0 0 0 0 0 0 0 0 0 0 0 0 0 0 0 0 1 0 0 0 0 0 0 0 1 1 0 0 0 0 0 0 0 0 0 0 0 0 0 0 0 0 0 0 0 0 0 0 0 0 0 0 0 0 0 0 0 0 0 0 0 0 0 0 0 0 0 0 0 0 0 0 0 0 0 0 0 0 0 0 0 0 0 0 0 0 1 0 0 0 0 0 0 0 1 0 0 0 153 255 253 251 253 255 253 254 254 255 253 252 254 255 255 255 253 254 254 254 253 253 254 254 254 254 254 254 253 254 254 254 253 253 255 254 255 255 254 254 253 254 253 254 254 253 253 254 253 253 253 253 254 253 253 254 254 252 254 253 254 254 254 253 253 253 254 254 254 254 253 253 254 253 254 253 253 254 253 253 254 255 254 253 253 254 253 253 254 254 253 253 253 254 254 254 254 253 254 255 254 255 254 255 255 255 255 255 255 255 255 255 255 255 255 255 255 255 255 255 255 255 255 255 255 255 255 255 255 255 255 255 255 255 255 255 255 255 255 255 255 255 255 255 255 255 255 255 255 255 255 255 255 255 255 255 255 
255 255 255 255 255 255 255 255 255 255 255 255 255 255 255 255 255 255 255 255 255 255 255 255 255 255 255 255 255 255 255 255 255 255 255 255 255 255 255 255 255 255 255 255 255 255 255 255 255 255 255 255 255 255 254 254 254 255 253 254 255 255 254 254 252 253 254 255 254 254 254 254 254 254 253 255 254 253 253 253 254 254 254 255 254 253 253 255 253 253 254 254 253 255 253 253 255 253 253 254 254 253 254 254 253 254 253 254 252 253 253 254 253 254 254 253 255 254 253 253 254 254 254 254 254 255 253 254 254 254 254 254 254 254 253 254 253 254 253 255 254 254 255 255 253 253 254 253 254 254 253 254 255 253 253 253 254 254 247 10 1 0 1 0 0 0 0 0 0 0 0 0 1 0 0 0 0 0 0 0 0 0 0 0 0 0 0 0 0 0 0 0 0 0 0 0 0 0 0 0 0 0 0 0 0 0 0 1 0 0 0 0 0 0 0 0 0 0 0 0 0 0 0 0 0 0 0 1 0 0 0 0 0 0 0 0 0 0 0 0 0 0 0 0 0 0 0 0 0 0 0 0 0 0 0 0 0 0 0 0 0 0 0 0 0 0 0 0 0 0 0 0 0 0 0 0 0 0 0 0 0 0 0 0 0 0 0 0 0 0 0 0 0 0 0 1 0 0 246 254 254 253 253 253 253 253 255 254 254 254 253 254 253 254 254 253 254 253 253 254 254 254 253 255 253 254 253 254 254 254 255 253 255 254 254 253 255 254 255 254 254 253 254 253 254 253 253 254 254 253 255 254 254 253 254 254 254 254 255 253 254 254 254 253 254 254 255 254 254 253 253 254 253 253 253 254 254 253 253 254 253 254 253 255 254 254 255 253 253 253 253 254 255 253 254 254 255 255 253 253 254 255 255 255 255 255 255 255 255 255 255 255 255 255 255 255 255 255 255 255 255 255 255 255 255 255 255 255 255 255 255 255 255 255 255 255 255 255 255 255 255 255 255 255 255 255 255 255 255 255 255 255 255 255 255 
255 255 255 255 255 255 255 255 255 255 255 255 255 255 255 255 255 255 255 255 255 255 255 255 255 255 255 255 255 255 255 255 255 255 255 255 255 255 255 255 255 255 255 255 255 255 255 255 255 255 255 255 255 255 254 253 253 254 253 255 255 254 254 253 254 253 254 254 254 254 254 254 253 254 253 255 255 253 254 253 255 255 254 254 254 254 253 254 253 254 254 253 254 253 253 254 253 255 253 254 253 252 254 253 253 254 253 253 253 254 254 253 254 253 254 253 255 254 255 253 253 255 253 253 255 254 253 254 253 254 254 253 254 254 253 253 253 255 253 254 255 254 253 254 253 254 253 253 255 253 253 254 255 254 253 253 254 255 255 100 0 1 0 0 0 0 0 0 0 0 0 0 0 0 0 0 0 0 0 0 0 0 0 0 0 0 0 0 0 0 0 0 0 0 0 0 0 0 0 1 0 0 0 0 0 0 0 0 0 0 0 0 1 0 0 0 0 0 0 0 0 0 0 0 0 0 0 0 0 0 0 0 0 0 0 0 0 0 0 0 0 0 0 0 0 0 0 0 0 0 0 0 0 0 0 0 0 0 0 0 0 0 0 0 0 0 0 0 0 0 0 1 0 0 1 0 0 0 0 0 0 0 0 0 0 0 0 0 0 0 0 0 0 0 1 0 1 84 255 255 254 253 253 254 254 253 253 254 253 255 253 255 254 253 254 253 254 254 253 254 255 253 254 254 254 254 253 254 253 254 254 253 253 253 254 254 254 255 253 254 254 254 253 253 254 253 254 253 253 254 253 253 254 253 253 255 254 254 253 254 253 253 254 253 255 254 254 253 254 254 254 253 253 255 254 253 254 253 254 253 254 254 254 254 253 254 254 253 254 254 254 254 253 255 254 255 255 253 253 254 254 255 255 255 255 255 255 255 255 255 255 255 255 255 255 255 255 255 255 255 255 255 255 255 255 255 255 255 255 255 255 255 255 255 255 255 255 255 255 255 255 255 255 255 255 255 255 255 255 255 255 255 255 255 255 
255 255 255 255 255 255 255 255 255 255 255 255 255 255 255 255 255 255 255 255 255 255 255 255 255 255 255 255 255 255 255 255 255 255 255 255 255 255 255 255 255 255 255 255 255 255 255 255 255 255 255 255 255 255 253 254 254 253 255 254 254 254 253 254 254 253 254 253 254 254 253 255 253 253 254 254 253 253 254 254 253 254 254 253 253 255 254 253 254 253 254 253 254 253 254 254 253 254 254 254 254 254 253 254 253 252 254 254 253 254 255 253 255 254 254 253 253 254 255 254 254 253 253 253 255 253 253 253 254 253 253 253 254 254 253 253 253 255 254 254 254 254 253 254 254 254 253 253 253 254 254 255 254 254 254 253 254 255 252 233 0 1 0 0 0 1 0 0 0 0 0 0 0 0 0 0 0 0 0 0 0 0 0 0 0 0 0 0 0 0 0 0 0 0 0 0 0 0 0 0 0 0 0 0 0 0 0 0 0 0 0 0 0 0 0 0 0 0 0 0 0 0 0 0 0 0 0 0 0 0 0 0 0 0 0 0 0 0 0 0 0 0 0 0 0 0 0 0 0 0 0 0 0 0 0 0 0 0 0 0 0 0 0 0 0 0 0 0 0 0 0 0 0 0 0 0 0 0 0 0 0 0 0 0 0 0 1 0 0 0 0 0 0 0 0 2 0 219 253 255 255 253 253 254 255 253 254 255 254 253 253 254 255 253 254 253 254 253 254 254 254 253 255 253 255 254 253 254 254 253 253 253 254 254 253 253 253 255 254 253 254 255 253 253 254 253 255 254 253 254 253 253 254 254 254 253 254 253 253 254 253 254 252 254 254 254 254 254 253 255 255 252 254 255 254 253 254 254 254 254 254 255 255 255 254 253 253 255 254 254 255 253 254 253 254 255 255 253 254 255 255 255 255 255 255 255 255 255 255 255 255 255 255 255 255 255 255 255 255 255 255 255 255 255 255 255 255 255 255 255 255 255 255 255 255 255 255 255 255 255 255 255 255 255 255 255 255 255 255 255 255 255 255 255 255 
255 255 255 255 255 255 255 255 255 255 255 255 255 255 255 255 255 255 255 255 255 255 255 255 255 255 255 255 255 255 255 255 255 255 255 255 255 255 255 255 255 255 255 255 255 255 255 255 255 255 255 255 255 255 254 254 254 252 255 253 253 254 254 255 253 254 254 254 253 254 253 255 253 254 253 254 254 254 254 255 254 253 254 254 254 255 255 254 253 253 253 254 254 254 253 253 254 254 254 253 254 255 253 254 254 254 253 254 253 254 253 254 255 254 254 254 253 253 254 253 254 255 254 254 253 254 253 254 254 255 254 254 254 254 253 254 254 254 254 254 254 254 255 254 254 253 254 253 254 254 254 253 254 253 253 253 255 255 254 255 65 1 0 0 0 0 0 0 0 0 0 0 0 0 0 0 0 0 0 0 0 0 0 0 0 0 0 0 0 0 1 0 0 0 0 0 0 0 0 0 0 0 0 0 0 0 0 0 0 0 0 1 0 0 0 0 1 0 0 0 0 0 0 0 0 0 0 0 0 0 0 0 0 0 0 0 0 0 0 0 0 0 0 0 0 0 0 0 0 0 0 0 0 0 0 0 0 0 0 0 0 0 0 0 0 0 0 0 0 0 0 0 0 0 0 0 0 0 0 0 0 0 0 0 0 0 0 0 0 0 0 0 0 0 0 0 51 255 254 255 255 254 254 253 253 253 255 254 254 253 254 253 253 253 254 253 254 253 255 253 253 253 254 253 253 253 254 252 255 254 254 253 253 253 253 253 253 255 255 254 253 253 254 254 254 254 253 255 254 253 254 253 254 254 254 255 255 254 254 254 253 254 253 255 253 253 255 255 254 254 254 254 255 253 253 255 254 253 253 255 254 254 253 255 255 254 254 255 253 253 253 253 253 253 253 253 255 254 255 254 255 255 255 255 255 255 255 255 255 255 255 255 255 255 255 255 255 255 255 255 255 255 255 255 255 255 255 255 255 255 255 255 255 255 255 255 255 255 255 255 255 255 255 255 255 255 255 255 255 255 255 255 255 255 255 
255 255 255 255 255 255 255 255 255 255 255 255 255 255 255 255 255 255 255 255 255 255 255 255 255 255 255 255 255 255 255 255 255 255 255 255 255 255 255 255 255 255 255 255 255 255 255 255 255 255 255 255 255 255 254 253 253 253 255 254 253 254 253 254 253 254 254 253 254 255 254 254 253 253 254 254 254 255 255 254 255 254 255 254 254 252 253 253 254 253 253 254 254 254 254 254 254 255 255 253 253 253 253 254 254 255 254 253 252 254 253 254 253 253 254 255 253 254 254 254 254 255 253 253 253 254 254 255 254 255 254 254 254 254 252 254 254 253 254 253 253 255 255 253 254 253 254 254 254 253 254 255 253 253 253 254 255 254 255 252 218 0 1 0 0 0 0 0 0 0 1 0 0 1 0 0 0 0 0 0 0 0 0 0 0 0 0 0 0 0 0 0 0 0 0 0 1 0 0 0 1 0 1 0 0 0 0 0 0 0 0 0 0 0 0 0 0 0 0 0 0 0 0 1 0 0 0 0 0 0 0 0 0 0 0 0 0 0 0 0 0 0 0 1 0 0 0 0 0 0 0 0 0 0 0 0 0 0 0 0 0 0 0 0 1 0 0 0 0 0 0 0 0 0 0 0 0 0 0 0 0 0 0 0 0 0 0 0 0 0 0 0 0 0 0 0 199 253 255 255 254 254 253 253 253 254 254 253 254 254 254 253 254 254 253 253 255 254 252 253 253 254 253 253 254 253 255 253 254 255 254 254 253 254 254 254 254 253 255 254 254 254 253 254 254 255 253 254 254 254 254 254 253 253 255 254 255 254 254 254 254 253 254 253 254 254 254 255 254 254 255 254 255 253 254 254 255 253 253 253 253 253 254 253 254 255 253 255 253 253 253 254 253 254 254 253 254 254 254 254 255 255 255 255 255 255 255 255 255 255 255 255 255 255 255 255 255 255 255 255 255 255 255 255 255 255 255 255 255 255 255 255 255 255 255 255 255 255 255 255 255 255 255 255 255 255 255 255 255 255 255 255 255 255 255 
255 255 255 255 255 255 255 255 255 255 255 255 255 255 255 255 255 255 255 255 255 255 255 255 255 255 255 255 255 255 255 255 255 255 255 255 255 255 255 255 255 255 255 255 255 255 255 255 255 255 255 255 255 255 253 254 254 254 253 254 254 252 253 255 254 254 255 253 254 253 254 254 254 254 254 255 254 254 255 254 253 254 254 253 253 254 254 254 255 253 253 254 253 253 254 254 254 254 255 254 253 253 254 253 253 254 255 253 254 253 253 254 254 254 254 255 253 255 254 255 254 253 254 254 255 253 254 254 254 254 253 254 254 253 254 252 254 253 254 253 253 253 252 254 252 254 253 254 253 254 253 253 253 254 253 254 255 255 255 252 255 57 1 0 0 0 0 0 0 0 0 0 0 0 0 0 0 0 0 0 0 0 0 0 0 0 0 0 0 0 0 0 0 0 0 0 0 0 0 0 0 1 0 0 0 0 0 0 0 0 0 0 0 0 0 0 0 0 0 0 0 0 0 0 0 0 0 0 0 0 0 0 0 0 0 0 0 0 0 0 1 0 0 0 0 0 0 0 0 0 0 0 1 0 0 1 0 0 0 0 0 0 0 0 0 0 1 0 0 0 0 0 0 0 0 0 0 0 0 0 0 0 0 0 0 0 0 0 0 1 0 0 0 0 2 39 255 253 255 254 255 253 252 254 254 253 255 253 253 254 253 254 253 253 254 253 254 254 253 254 253 254 254 253 255 254 254 253 254 254 254 255 253 254 254 253 253 254 255 253 253 255 252 253 254 253 255 253 252 255 255 255 253 254 255 254 253 254 253 254 253 253 254 253 253 254 253 253 254 254 254 254 253 255 254 253 254 255 253 253 254 253 254 254 253 255 253 255 254 254 254 255 254 253 255 253 254 253 254 255 255 255 255 255 255 255 255 255 255 255 255 255 255 255 255 255 255 255 255 255 255 255 255 255 255 255 255 255 255 255 255 255 255 255 255 255 255 255 255 255 255 255 255 255 255 255 255 255 255 255 255 255 255 255 255 
255 255 255 255 255 255 255 255 255 255 255 255 255 255 255 255 255 255 255 255 255 255 255 255 255 255 255 255 255 255 255 255 255 255 255 255 255 255 255 255 255 255 255 255 255 255 255 255 255 255 255 255 255 255 254 253 253 255 254 254 254 253 254 255 254 253 255 253 253 254 253 254 253 254 255 254 254 254 253 253 254 253 253 253 253 253 253 253 254 254 253 253 254 253 254 253 254 254 254 255 254 254 253 254 253 254 254 254 255 253 253 254 254 253 254 255 254 252 254 252 253 253 255 254 253 254 254 253 253 254 253 254 254 254 255 254 253 255 253 254 253 253 254 253 254 253 253 254 253 254 253 253 253 254 253 253 253 255 255 252 250 233 0 5 0 1 1 0 0 0 0 0 0 0 0 0 0 0 0 0 0 0 0 0 0 0 0 0 0 0 0 1 0 0 0 0 0 0 0 0 0 0 0 0 0 1 0 0 0 0 0 0 0 0 0 0 0 0 0 0 0 0 0 0 0 0 0 0 0 0 1 0 0 0 0 0 0 0 0 0 0 0 0 0 0 0 0 0 0 0 0 0 0 0 0 0 0 0 0 0 0 0 0 0 0 0 0 0 0 0 0 0 0 0 0 0 0 0 0 0 0 0 1 0 0 0 0 0 0 0 0 1 1 3 0 208 251 255 255 255 254 253 253 253 253 253 255 253 253 255 254 253 253 253 254 253 254 254 255 254 254 253 255 253 253 254 254 253 254 254 255 253 254 254 254 253 254 255 253 255 253 254 253 254 254 254 255 254 253 255 255 254 254 255 252 253 253 253 253 254 254 254 254 253 254 253 254 253 253 254 253 254 253 255 254 255 253 254 254 254 252 253 254 254 254 253 254 253 254 254 253 254 254 254 255 254 254 254 254 255 255 255 255 255 255 255 255 255 255 255 255 255 255 255 255 255 255 255 255 255 255 255 255 255 255 255 255 255 255 255 255 255 255 255 255 255 255 255 255 255 255 255 255 255 255 255 255 255 255 255 255 255 255 255 255 
255 255 255 255 255 255 255 255 255 255 255 255 255 255 255 255 255 255 255 255 255 255 255 255 255 255 255 255 255 255 255 255 255 255 255 255 255 255 255 255 255 255 255 255 255 255 255 255 255 255 255 255 255 255 254 254 253 254 254 255 254 254 255 253 253 253 254 254 253 254 253 254 254 253 255 253 255 255 253 253 254 253 253 254 253 253 253 254 254 252 254 253 255 254 254 253 255 255 255 253 254 254 253 252 254 254 254 254 254 255 253 254 253 253 254 255 253 253 253 253 254 254 253 253 254 254 254 253 254 254 254 254 254 254 253 254 254 255 253 253 254 253 253 253 254 253 254 255 253 255 253 253 255 255 254 254 253 254 254 254 254 255 130 0 2 0 0 0 0 0 0 0 0 0 0 0 0 0 0 0 0 0 0 0 0 0 1 0 0 0 0 0 0 0 0 0 0 0 1 0 0 0 0 0 0 0 0 0 0 0 0 0 1 0 1 0 1 0 0 0 0 0 0 0 0 0 0 0 0 0 0 0 0 0 0 0 0 0 0 0 0 0 0 0 0 0 0 0 0 0 0 0 0 0 0 0 0 0 0 0 0 0 0 0 0 0 0 0 0 0 0 0 0 0 0 0 0 0 0 0 0 0 0 0 0 0 0 0 0 0 0 0 2 0 77 255 251 253 253 254 254 254 254 253 253 253 254 253 254 253 254 254 253 253 253 253 254 254 255 255 253 254 253 254 254 255 253 253 254 255 254 254 255 253 253 254 254 253 254 253 253 254 255 254 254 253 253 252 253 253 253 254 254 255 254 253 254 253 254 253 255 252 253 254 253 253 255 254 253 255 254 253 254 254 253 255 254 254 254 254 253 253 254 253 255 253 254 254 254 254 253 254 254 254 253 254 255 254 255 255 255 255 255 255 255 255 255 255 255 255 255 255 255 255 255 255 255 255 255 255 255 255 255 255 255 255 255 255 255 255 255 255 255 255 255 255 255 255 255 255 255 255 255 255 255 255 255 255 255 255 255 255 255 255 255 
255 255 255 255 255 255 255 255 255 255 255 255 255 255 255 255 255 255 255 255 255 255 255 255 255 255 255 255 255 255 255 255 255 255 255 255 255 255 255 255 255 255 255 255 255 255 255 255 255 255 255 255 255 255 255 255 255 253 254 252 254 255 254 253 254 255 253 255 253 254 253 254 253 255 253 253 254 254 255 253 254 254 254 254 253 253 255 253 253 253 254 254 253 254 254 254 254 253 255 253 253 254 253 253 254 254 253 255 255 253 253 255 254 254 254 255 253 255 253 253 254 254 254 253 254 254 255 254 254 255 254 253 254 254 253 254 253 254 254 254 254 254 253 253 254 254 253 255 253 255 253 254 255 253 255 254 254 253 253 253 254 250 255 26 2 0 0 0 0 1 0 0 0 0 0 0 0 0 0 0 0 0 0 0 0 0 0 0 0 0 0 0 0 0 0 0 0 0 0 0 1 0 1 0 0 0 0 0 0 0 0 0 0 0 0 0 1 0 0 0 0 0 0 0 0 0 0 0 0 0 0 0 0 0 0 0 0 0 0 0 0 0 0 0 0 0 0 0 0 0 0 0 0 0 0 0 0 0 0 0 0 0 0 0 0 0 0 0 0 0 0 0 0 0 0 0 0 0 0 0 0 0 0 0 0 0 0 0 0 0 0 0 2 5 248 249 255 253 253 254 252 254 255 254 255 254 255 254 254 254 255 254 254 255 254 254 254 255 253 254 253 253 253 255 255 253 253 254 255 253 254 254 254 253 255 253 253 253 254 253 253 254 254 254 253 253 253 253 253 253 253 253 254 253 255 253 254 254 254 253 255 253 254 254 253 253 253 253 253 254 254 253 254 254 254 254 253 255 253 254 254 253 254 253 255 254 255 253 254 254 253 254 253 254 252 254 254 254 255 255 255 255 255 255 255 255 255 255 255 255 255 255 255 255 255 255 255 255 255 255 255 255 255 255 255 255 255 255 255 255 255 255 255 255 255 255 255 255 255 255 255 255 255 255 255 255 255 255 255 255 255 255 255 255 255 
255 255 255 255 255 255 255 255 255 255 255 255 255 255 255 255 255 255 255 255 255 255 255 255 255 255 255 255 255 255 255 255 255 255 255 255 255 255 255 255 255 255 255 255 255 255 255 255 255 255 255 255 255 255 254 255 253 254 255 253 254 254 254 255 255 253 254 253 255 255 253 253 253 253 253 254 254 255 253 253 255 254 254 254 254 253 253 253 253 255 254 255 254 253 254 255 254 252 253 254 253 254 253 255 253 254 253 254 254 253 253 253 254 254 254 253 253 253 254 254 253 253 254 253 255 254 254 254 254 253 255 254 254 254 255 253 254 254 254 253 253 253 254 253 253 254 254 253 254 254 253 253 253 253 255 254 254 254 252 254 255 255 252 222 0 2 0 0 0 1 0 0 0 0 0 0 0 0 0 0 0 0 0 0 0 0 0 0 0 0 0 0 0 0 0 0 0 0 0 0 0 0 0 0 0 0 0 0 0 0 0 0 0 0 0 1 0 0 0 0 0 0 0 0 0 0 0 0 0 0 0 0 0 0 0 0 0 0 1 0 0 0 0 0 0 0 0 0 0 0 0 0 0 0 0 0 0 0 0 0 1 0 0 0 0 0 0 0 0 0 0 0 0 0 0 0 0 0 0 0 0 0 0 0 0 0 0 1 0 1 0 1 0 176 254 255 253 254 253 253 253 254 253 254 254 253 254 253 253 255 253 252 254 254 254 253 254 255 253 254 253 254 253 254 255 253 253 254 255 253 255 254 255 254 255 254 253 253 253 255 253 253 254 255 253 254 254 255 253 253 255 254 254 254 253 254 253 255 254 254 253 254 254 255 254 255 253 253 253 254 253 253 254 253 255 252 253 253 253 254 252 253 255 254 253 255 253 253 254 254 254 255 253 254 253 254 253 254 254 255 254 255 255 255 255 255 255 255 255 255 255 255 255 255 255 255 255 255 255 255 255 255 255 255 255 255 255 255 255 255 255 255 255 255 255 255 255 255 255 255 255 255 255 255 255 255 255 255 255 255 255 255 255 255 255 
255 255 255 255 255 255 255 255 255 255 255 255 255 255 255 255 255 255 255 255 255 255 255 255 255 255 255 255 255 255 255 255 255 255 255 255 255 255 255 255 255 255 255 255 255 255 255 255 255 255 255 255 255 255 254 254 253 254 253 254 254 254 254 255 254 254 254 253 254 253 253 255 254 253 254 253 254 254 253 255 254 255 254 255 253 255 253 255 254 254 254 255 254 254 254 254 255 253 254 254 253 253 254 253 254 254 253 254 253 255 254 254 254 253 253 255 253 253 254 254 253 253 253 253 254 254 254 254 254 253 254 253 253 253 253 253 254 253 253 254 253 253 253 253 253 253 254 253 254 254 253 253 253 253 254 255 255 254 253 253 255 254 252 255 119 0 1 0 0 1 0 0 0 0 0 0 0 0 0 1 0 0 0 0 0 0 0 0 0 0 0 0 0 0 0 0 0 0 0 0 0 0 0 0 0 0 0 0 0 0 0 0 0 0 0 1 0 0 0 0 0 0 0 0 0 0 0 0 0 0 0 0 0 0 0 0 0 0 0 0 0 0 0 0 0 0 0 0 0 0 0 0 0 0 0 0 0 0 0 0 0 0 0 0 0 0 0 0 0 0 0 0 0 0 0 0 0 0 0 0 0 0 0 0 0 0 0 0 2 1 0 0 77 255 252 255 255 254 253 253 253 254 253 254 254 253 254 253 252 254 254 253 254 254 255 253 254 253 254 255 253 253 253 253 255 254 254 253 255 252 253 254 253 254 254 254 252 254 253 253 252 253 255 255 254 255 253 253 253 254 254 254 254 255 253 254 253 255 254 253 254 253 254 255 253 254 253 254 255 254 253 253 255 253 253 253 253 254 255 253 253 254 253 254 254 254 253 254 254 255 254 253 255 254 253 254 254 254 254 254 254 255 255 255 255 255 255 255 255 255 255 255 255 255 255 255 255 255 255 255 255 255 255 255 255 255 255 255 255 255 255 255 255 255 255 255 255 255 255 255 255 255 255 255 255 255 255 255 255 255 255 255 255 255 255 
255 255 255 255 255 255 255 255 255 255 255 255 255 255 255 255 255 255 255 255 255 255 255 255 255 255 255 255 255 255 255 255 255 255 255 255 255 255 255 255 255 255 255 255 255 255 255 255 255 255 255 255 255 255 253 255 253 254 255 254 255 253 254 253 253 255 253 253 255 253 254 253 255 253 254 253 254 253 253 255 254 253 254 255 254 254 253 254 253 253 255 253 253 255 253 254 254 253 254 253 254 253 254 254 254 254 254 253 254 254 254 253 254 253 254 253 255 253 254 255 254 254 253 254 254 255 254 253 254 254 253 253 254 254 253 254 254 253 253 254 253 253 253 254 254 252 253 254 255 253 254 253 253 254 254 255 254 254 254 253 253 255 252 248 255 40 3 2 3 1 0 0 0 0 1 0 0 0 0 0 0 0 0 0 0 0 0 0 1 0 0 0 0 0 1 0 0 0 0 0 0 0 0 0 0 0 0 0 0 0 0 0 0 0 0 0 0 0 1 0 0 0 0 0 0 0 0 0 0 1 0 0 0 0 0 0 0 0 0 0 0 0 0 0 0 0 0 0 0 0 0 0 0 0 0 0 0 0 0 0 0 0 0 0 0 0 0 0 0 0 0 0 0 0 0 0 0 0 0 0 0 0 0 0 0 0 0 2 4 4 4 7 255 247 255 255 255 254 253 254 254 254 254 254 254 254 253 253 253 253 254 254 254 255 255 253 254 253 253 254 254 253 253 253 253 254 253 254 253 254 253 254 253 253 255 254 253 254 255 252 253 254 254 253 253 254 253 253 254 254 255 253 254 253 253 255 254 253 254 253 254 253 253 255 254 254 255 253 254 254 253 253 253 253 253 254 254 255 255 254 254 255 254 254 253 254 253 254 255 254 254 255 254 253 253 254 254 255 254 254 254 255 255 255 255 255 255 255 255 255 255 255 255 255 255 255 255 255 255 255 255 255 255 255 255 255 255 255 255 255 255 255 255 255 255 255 255 255 255 255 255 255 255 255 255 255 255 255 255 255 255 255 255 255 255 
255 255 255 255 255 255 255 255 255 255 255 255 255 255 255 255 255 255 255 255 255 255 255 255 255 255 255 255 255 255 255 255 255 255 255 255 255 255 255 255 255 255 255 255 255 255 255 255 255 255 255 255 255 255 255 253 253 253 255 253 254 253 253 254 253 254 254 254 253 255 254 253 255 253 254 254 253 254 253 254 253 253 254 253 255 253 253 255 253 253 255 253 254 255 253 254 254 253 253 254 253 255 254 254 253 254 253 254 253 254 254 254 255 253 254 253 254 253 254 253 253 254 255 253 254 253 254 253 255 253 253 254 254 254 255 254 254 253 253 253 254 254 254 253 254 253 254 254 254 255 253 254 253 255 254 254 254 254 255 253 253 253 253 251 247 251 7 6 2 0 0 0 0 0 0 0 0 0 0 0 0 0 0 0 0 0 0 0 0 0 0 0 0 0 0 0 0 0 0 0 0 0 0 0 0 0 0 0 1 0 0 0 0 0 0 0 0 0 0 0 0 0 0 0 1 1 0 0 0 0 0 0 0 0 0 0 0 0 0 0 0 0 0 0 0 0 0 0 0 0 0 0 0 0 0 0 0 0 0 0 0 0 0 0 0 0 0 0 0 0 0 0 0 0 0 0 0 0 0 0 0 0 0 0 0 0 0 0 4 6 3 231 251 252 253 254 254 254 253 253 254 255 253 255 254 253 253 253 255 253 253 254 254 255 253 255 253 254 253 252 254 254 254 254 253 253 255 253 253 255 253 254 253 253 254 253 254 254 255 253 255 253 253 253 253 254 254 254 254 253 254 254 254 253 253 254 253 253 254 253 254 253 254 254 253 253 254 253 254 253 253 253 253 254 253 254 253 254 254 255 253 254 254 254 253 254 253 254 254 253 253 254 255 254 253 254 255 255 254 255 254 255 255 255 255 255 255 255 255 255 255 255 255 255 255 255 255 255 255 255 255 255 255 255 255 255 255 255 255 255 255 255 255 255 255 255 255 255 255 255 255 255 255 255 255 255 255 255 255 255 255 255 255 255 255 
255 255 255 255 255 255 255 255 255 255 255 255 255 255 255 255 255 255 255 255 255 255 255 255 255 255 255 255 255 255 255 255 255 255 255 255 255 255 255 255 255 255 255 255 255 255 255 255 255 255 255 255 255 255 254 254 253 254 254 254 253 254 254 253 253 253 254 253 253 254 254 255 253 254 252 254 253 253 254 255 254 254 254 253 254 253 253 253 253 254 253 254 255 253 254 254 254 253 253 254 253 253 253 255 253 253 254 255 253 253 254 255 255 253 254 253 254 255 253 253 253 254 254 254 253 254 253 253 255 253 253 255 255 253 254 254 253 253 254 253 254 254 253 255 254 255 254 253 254 253 254 253 253 253 254 255 254 255 254 253 253 253 253 253 254 250 232 0 4 0 0 0 0 0 0 0 0 0 0 0 0 0 0 0 0 0 0 0 0 0 0 0 0 0 0 0 0 0 0 0 0 0 0 0 0 0 0 0 0 0 0 0 1 0 0 0 0 0 0 0 0 0 0 0 1 0 0 0 0 0 0 0 0 0 0 0 0 1 0 0 0 0 0 0 0 0 0 0 0 0 0 0 0 0 0 0 0 0 0 0 0 0 0 0 0 0 0 0 0 0 0 0 0 0 0 0 0 0 0 0 0 0 0 0 0 0 0 0 6 0 221 251 252 253 252 254 253 254 253 254 254 255 253 254 253 253 253 253 253 254 254 254 254 255 254 255 253 254 254 253 254 255 253 253 254 253 254 254 254 254 253 254 254 253 255 253 253 254 253 254 255 253 253 254 253 254 253 255 254 253 254 254 254 253 254 255 253 254 254 255 254 254 253 255 254 254 254 254 255 253 253 253 254 253 253 254 254 254 255 254 253 254 255 253 254 255 253 253 255 254 255 253 254 254 254 254 255 253 254 254 254 255 255 255 255 255 255 255 255 255 255 255 255 255 255 255 255 255 255 255 255 255 255 255 255 255 255 255 255 255 255 255 255 255 255 255 255 255 255 255 255 255 255 255 255 255 255 255 255 255 255 255 255 255 255 
255 255 255 255 255 255 255 255 255 255 255 255 255 255 255 255 255 255 255 255 255 255 255 255 255 255 255 255 255 255 255 255 255 255 255 255 255 255 255 255 255 255 255 255 255 255 255 255 255 255 255 255 255 255 254 253 254 254 255 255 253 254 254 254 255 254 254 254 253 255 254 255 254 255 253 253 253 253 254 253 255 253 254 253 253 254 254 253 253 255 253 253 254 253 253 254 253 253 253 254 253 253 253 253 254 254 255 254 253 253 254 254 254 253 253 253 254 254 253 255 254 254 254 253 254 253 253 253 254 254 254 254 253 254 255 253 253 253 255 253 253 255 253 254 253 254 254 254 253 253 253 254 254 253 253 254 253 255 254 253 253 253 254 253 255 253 254 204 0 6 0 0 1 1 0 0 0 0 0 0 0 0 0 0 1 0 0 0 0 0 0 0 0 0 0 0 0 0 0 0 0 0 0 0 0 0 0 0 0 0 0 0 0 0 0 0 0 0 0 0 0 0 0 0 0 0 0 0 0 0 0 0 0 0 0 0 0 0 0 0 0 0 0 0 0 0 0 0 0 0 0 0 0 0 0 0 1 0 0 0 0 0 0 0 0 0 0 0 0 0 1 0 0 0 0 0 0 0 0 0 0 0 0 0 1 0 0 5 0 166 255 254 254 253 253 253 253 253 253 254 255 253 253 254 253 254 253 253 254 253 254 254 254 254 253 255 253 253 253 253 255 254 254 253 253 254 255 254 253 254 255 254 254 254 253 254 254 253 253 255 253 254 254 253 253 253 253 254 255 254 254 253 254 255 254 254 253 254 253 255 254 254 253 253 255 253 254 254 254 254 253 255 253 253 253 253 254 253 253 254 254 255 253 254 253 253 254 254 254 253 254 253 253 254 254 254 255 254 255 253 254 255 255 255 255 255 255 255 255 255 255 255 255 255 255 255 255 255 255 255 255 255 255 255 255 255 255 255 255 255 255 255 255 255 255 255 255 255 255 255 255 255 255 255 255 255 255 255 255 255 255 255 255 255 255 
255 255 255 255 255 255 255 255 255 255 255 255 255 255 255 255 255 255 255 255 255 255 255 255 255 255 255 255 255 255 255 255 255 255 255 255 255 255 255 255 255 255 255 255 255 255 255 255 255 255 255 255 255 255 254 254 254 253 254 255 253 254 254 253 253 253 254 254 254 253 255 253 253 254 254 253 253 254 254 253 255 253 254 255 254 253 254 253 254 254 253 253 253 255 253 255 254 254 253 253 255 253 253 253 253 255 253 253 253 254 253 255 253 254 254 253 253 255 254 254 254 255 254 254 254 253 253 255 254 253 254 254 253 254 255 253 255 253 253 253 254 255 254 254 254 253 254 253 253 253 253 253 254 253 253 254 254 254 254 253 254 253 253 254 255 255 253 255 179 0 8 0 3 1 0 0 0 0 0 0 0 0 0 0 0 1 0 0 1 0 0 0 0 0 0 0 0 0 0 0 0 0 0 0 0 0 0 0 0 0 0 0 0 0 0 0 0 0 0 0 0 0 0 0 0 0 0 0 0 0 0 0 0 0 0 0 0 0 0 0 0 0 0 0 0 0 0 0 0 0 0 0 0 0 0 0 0 1 0 0 0 0 0 0 0 0 0 0 1 0 0 1 0 0 0 0 0 0 0 0 0 0 0 2 3 1 7 0 157 255 251 255 255 254 253 253 253 253 255 254 254 253 253 255 253 253 254 255 253 253 255 254 254 254 253 254 253 253 253 253 255 254 254 255 254 253 254 253 253 254 253 254 254 254 252 253 253 255 253 255 255 253 253 252 254 253 254 254 254 253 254 253 253 253 253 254 254 255 254 253 255 254 254 253 254 255 254 254 254 253 253 253 253 255 253 253 255 253 254 253 254 254 253 254 253 253 254 254 254 254 254 254 254 253 254 255 255 255 255 254 254 255 255 255 255 255 255 255 255 255 255 255 255 255 255 255 255 255 255 255 255 255 255 255 255 255 255 255 255 255 255 255 255 255 255 255 255 255 255 255 255 255 255 255 255 255 255 255 255 255 255 255 255 255 255 
255 255 255 255 255 255 255 255 255 255 255 255 255 255 255 255 255 255 255 255 255 255 255 255 255 255 255 255 255 255 255 255 255 255 255 255 255 255 255 255 255 255 255 255 255 255 255 255 255 255 255 255 255 255 255 254 254 253 254 253 253 254 253 253 253 253 253 255 253 253 253 254 253 253 254 254 254 255 254 253 254 254 254 253 254 253 254 254 253 254 253 253 253 255 253 254 253 253 253 254 254 253 254 254 253 253 253 253 253 254 253 255 254 255 253 255 253 253 254 254 253 253 255 254 254 254 253 254 253 253 254 253 253 253 253 253 255 253 253 253 254 253 255 253 254 254 253 253 253 255 254 254 255 254 254 254 254 254 253 254 253 253 253 255 254 254 255 249 255 197 0 6 5 1 0 0 0 0 0 0 0 0 0 0 0 0 0 0 0 0 0 0 0 0 0 0 0 0 0 0 0 0 0 0 0 0 0 0 0 0 0 0 0 0 0 0 0 0 0 0 0 0 0 0 1 0 0 0 0 0 0 0 0 0 0 0 0 0 0 0 0 0 0 0 0 0 0 0 0 0 0 0 0 0 0 0 0 0 0 0 0 0 0 0 0 0 0 0 0 0 0 0 0 0 0 0 0 0 0 0 0 0 0 2 4 10 0 185 255 249 255 255 254 255 253 254 252 254 254 253 253 255 253 253 254 254 254 253 253 254 255 254 254 253 254 253 255 254 254 254 253 254 255 254 255 253 254 253 253 254 253 254 254 254 254 254 253 253 254 253 253 254 253 253 253 253 255 255 253 255 253 254 253 253 255 253 253 254 253 253 255 254 253 253 253 254 253 254 254 253 255 253 254 254 253 254 254 253 253 253 255 253 254 253 255 254 253 254 255 253 253 255 255 253 255 254 254 255 253 255 253 255 255 255 255 255 255 255 255 255 255 255 255 255 255 255 255 255 255 255 255 255 255 255 255 255 255 255 255 255 255 255 255 255 255 255 255 255 255 255 255 255 255 255 255 255 255 255 255 255 255 255 255 255 255 
255 255 255 255 255 255 255 255 255 255 255 255 255 255 255 255 255 255 255 255 255 255 255 255 255 255 255 255 255 255 255 255 255 255 255 255 255 255 255 255 255 255 255 255 255 255 255 255 255 255 255 255 255 255 254 254 253 253 255 254 253 254 253 253 254 255 253 253 254 253 252 255 254 253 253 254 254 253 255 254 254 253 255 253 254 254 254 254 253 253 255 252 253 253 254 254 254 254 254 255 254 253 254 253 255 254 253 255 253 253 254 253 253 253 252 255 253 254 254 254 254 253 254 253 255 254 254 252 253 254 255 253 255 254 253 253 255 253 253 254 254 253 254 253 253 254 254 254 253 254 255 253 254 253 253 253 254 255 254 253 253 255 253 254 255 255 253 252 250 252 230 0 5 1 0 0 0 0 0 0 0 0 0 0 0 0 0 0 0 0 0 0 0 0 0 0 0 0 1 0 0 0 0 0 0 0 0 0 0 0 0 0 0 1 0 0 0 0 0 0 0 0 0 0 0 0 0 0 0 0 0 0 0 0 0 0 0 0 0 0 0 0 0 0 0 0 1 0 0 0 0 0 0 0 0 0 0 0 0 0 0 0 0 0 0 0 1 0 0 0 0 0 0 0 0 0 0 0 1 0 0 0 0 0 6 0 202 255 247 252 254 255 255 254 254 254 254 253 253 253 254 253 254 253 255 254 253 253 254 255 255 253 253 253 253 253 253 253 253 255 254 255 254 254 255 254 255 253 253 255 253 253 253 253 254 254 255 253 253 253 252 253 254 254 254 253 253 253 253 253 253 253 253 253 253 253 253 254 253 253 255 254 253 253 254 253 253 254 254 253 254 253 255 254 254 254 253 253 253 254 254 253 254 254 255 255 253 254 254 254 253 253 255 254 254 254 254 255 253 255 254 255 255 255 255 255 255 255 255 255 255 255 255 255 255 255 255 255 255 255 255 255 255 255 255 255 255 255 255 255 255 255 255 255 255 255 255 255 255 255 255 255 255 255 255 255 255 255 255 255 255 255 255 255 255 
255 255 255 255 255 255 255 255 255 255 255 255 255 255 255 255 255 255 255 255 255 255 255 255 255 255 255 255 255 255 255 255 255 255 255 255 255 255 255 255 255 255 255 255 255 255 255 255 255 255 255 255 255 255 254 254 254 254 254 254 253 255 254 254 254 253 253 254 253 254 253 254 253 253 254 254 254 253 254 253 255 253 253 254 254 253 254 254 254 253 255 254 253 253 255 255 254 254 254 254 255 253 253 254 253 254 254 254 254 254 252 252 254 253 253 254 255 253 255 253 253 254 254 253 255 254 253 254 253 254 254 253 254 254 253 253 253 254 254 254 253 253 253 255 253 253 254 253 253 253 254 254 254 254 253 253 253 253 254 254 254 254 254 255 254 253 253 252 253 252 251 251 42 0 7 0 0 0 0 0 1 0 0 0 0 0 0 0 0 0 0 0 0 0 0 0 0 0 0 0 0 0 0 0 0 0 0 0 0 0 0 0 0 0 0 1 0 0 0 1 0 0 0 1 0 0 0 0 0 0 0 1 0 0 0 0 0 0 0 0 0 1 0 0 0 0 0 0 1 0 0 0 0 1 0 0 0 0 0 0 0 0 1 0 0 0 0 0 0 0 0 0 0 0 0 0 0 0 0 1 2 0 1 5 4 240 253 252 252 252 252 254 254 255 255 254 254 254 253 255 253 252 255 253 253 254 253 253 253 255 253 253 253 255 253 254 252 254 253 253 255 253 253 255 253 253 254 254 253 253 254 254 253 254 254 254 253 253 254 254 254 254 254 255 254 253 254 253 253 253 253 253 253 254 254 253 254 254 254 254 254 255 254 252 253 254 253 254 255 253 253 255 254 255 255 255 254 253 253 253 254 253 254 254 254 253 254 254 254 254 254 254 255 254 254 255 255 254 253 254 254 255 255 255 255 255 255 255 255 255 255 255 255 255 255 255 255 255 255 255 255 255 255 255 255 255 255 255 255 255 255 255 255 255 255 255 255 255 255 255 255 255 255 255 255 255 255 255 255 255 255 255 255 255 255 
255 255 255 255 255 255 255 255 255 255 255 255 255 255 255 255 255 255 255 255 255 255 255 255 255 255 255 255 255 255 255 255 255 255 255 255 255 255 255 255 255 255 255 255 255 255 255 255 255 255 255 255 255 255 254 253 254 255 254 254 254 254 254 255 255 253 255 255 253 253 254 254 253 255 253 254 254 253 254 254 254 254 253 253 254 254 254 255 254 253 254 254 254 253 255 254 255 254 254 253 254 254 254 255 253 254 253 254 255 253 253 253 253 254 253 254 255 255 253 254 252 254 254 254 254 254 254 254 254 253 254 253 253 253 254 253 253 255 253 254 254 254 253 254 253 255 254 253 254 254 254 253 254 254 254 253 253 253 255 253 255 253 255 255 254 253 253 253 254 255 253 251 255 96 0 9 1 0 0 0 0 0 0 0 0 0 0 0 0 0 0 0 0 0 0 0 0 0 0 0 0 0 0 0 0 0 0 0 1 0 0 0 0 0 0 0 0 0 0 0 0 0 0 0 0 0 1 0 0 0 0 0 0 0 0 0 0 0 0 0 0 0 1 0 0 0 0 0 0 0 0 0 0 0 0 0 0 0 0 0 0 0 0 0 0 0 0 0 0 0 1 0 0 0 0 0 0 0 1 3 3 9 0 28 248 252 252 255 254 253 253 252 255 253 255 255 255 253 253 255 253 253 253 254 254 253 254 254 253 254 253 253 253 254 253 254 254 254 253 253 254 255 254 254 254 254 254 254 254 254 255 254 254 254 253 254 253 254 254 253 254 254 254 253 254 254 254 254 254 254 255 253 255 253 254 254 255 254 254 254 253 253 254 254 253 254 253 254 255 254 253 255 253 253 255 253 254 253 255 253 253 254 255 254 255 254 255 254 255 253 254 253 254 254 253 255 253 253 255 254 254 255 255 255 255 255 255 255 255 255 255 255 255 255 255 255 255 255 255 255 255 255 255 255 255 255 255 255 255 255 255 255 255 255 255 255 255 255 255 255 255 255 255 255 255 255 255 255 255 255 255 255 255 255 255 
255 255 255 255 255 255 255 255 255 255 255 255 255 255 255 255 255 255 255 255 255 255 255 255 255 255 255 255 255 255 255 255 255 255 255 255 255 255 255 255 255 255 255 255 255 255 255 255 255 255 255 255 255 255 253 254 253 255 253 255 254 255 253 254 255 254 255 253 254 253 255 253 253 254 255 253 253 254 254 253 253 253 253 255 253 254 255 253 254 253 254 254 254 254 254 253 254 253 255 253 254 254 254 254 254 254 253 255 253 253 254 254 253 254 255 254 254 255 253 253 254 252 254 254 253 253 255 253 254 255 253 254 254 254 253 254 253 254 253 254 253 255 254 254 254 255 254 253 254 254 254 253 253 254 254 254 253 253 254 254 254 254 254 255 253 252 253 254 255 255 255 254 245 255 200 6 1 8 0 0 1 0 0 0 0 0 0 0 0 0 0 0 0 0 0 0 0 0 0 0 0 0 0 0 0 0 0 0 0 0 0 0 0 0 0 0 1 0 0 0 0 0 0 0 0 0 0 0 0 0 0 0 0 0 0 0 0 0 0 0 0 0 0 0 0 0 0 0 0 0 0 0 0 0 0 0 0 0 0 0 0 0 0 0 0 0 0 0 0 0 0 0 0 0 0 0 0 0 0 4 6 0 116 255 248 252 255 254 255 253 254 253 254 253 254 255 253 253 253 254 254 255 253 253 254 253 254 255 255 254 254 254 254 254 253 253 254 253 255 254 253 253 254 254 253 255 254 255 253 254 254 254 255 254 253 254 253 254 253 255 253 254 254 253 254 254 254 253 255 253 255 254 255 254 254 253 255 255 254 253 253 253 253 254 253 254 253 253 254 253 254 254 253 253 254 254 254 253 254 253 253 254 255 254 254 254 254 253 254 253 254 254 254 254 253 254 253 254 254 255 254 255 255 255 255 255 255 255 255 255 255 255 255 255 255 255 255 255 255 255 255 255 255 255 255 255 255 255 255 255 255 255 255 255 255 255 255 255 255 255 255 255 255 255 255 255 255 255 255 255 255 255 255 255 255 
255 255 255 255 255 255 255 255 255 255 255 255 255 255 255 255 255 255 255 255 255 255 255 255 255 255 255 255 255 255 255 255 255 255 255 255 255 255 255 255 255 255 255 255 255 255 255 255 255 255 255 255 255 255 254 255 253 255 252 254 253 255 254 254 255 254 253 253 254 253 253 254 254 254 254 254 252 255 254 253 254 253 253 254 254 254 253 254 254 253 254 254 254 254 254 253 253 253 253 254 254 254 254 254 254 254 253 255 254 254 253 253 253 253 254 254 255 255 254 254 255 253 254 254 254 253 254 254 254 254 253 254 254 254 254 255 254 254 254 254 254 255 254 253 254 254 254 254 255 253 254 254 254 255 254 254 253 253 255 253 254 254 254 255 253 253 253 254 254 255 255 255 252 246 250 255 88 0 6 3 1 0 0 0 0 1 0 0 0 0 0 0 0 0 0 0 0 0 0 0 0 0 0 0 0 0 0 0 0 0 0 0 0 0 0 0 0 0 0 0 0 0 0 0 0 0 0 0 1 0 0 0 0 0 0 0 0 0 0 0 0 1 0 0 0 0 0 0 0 0 0 0 0 0 0 0 0 0 0 1 0 0 0 0 0 0 0 0 0 0 0 0 0 0 0 1 0 0 10 1 21 215 255 246 251 253 255 255 254 254 253 253 253 253 253 253 253 254 254 253 253 255 254 254 254 252 253 255 253 254 254 254 254 253 253 254 252 254 255 254 253 253 254 253 254 253 254 255 253 254 253 253 254 255 254 253 253 253 255 253 254 254 255 254 254 253 254 253 254 254 253 255 253 253 254 253 253 255 254 253 253 254 255 253 254 254 254 252 254 253 255 253 254 254 253 253 255 253 252 254 253 253 253 254 253 253 254 254 254 253 255 254 253 254 254 253 253 255 254 253 254 255 255 255 255 255 255 255 255 255 255 255 255 255 255 255 255 255 255 255 255 255 255 255 255 255 255 255 255 255 255 255 255 255 255 255 255 255 255 255 255 255 255 255 255 255 255 255 255 255 255 255 255 255 255 
255 255 255 255 255 255 255 255 255 255 255 255 255 255 255 255 255 255 255 255 255 255 255 255 255 255 255 255 255 255 255 255 255 255 255 255 255 255 255 255 255 255 255 255 255 255 255 255 255 255 255 255 255 255 254 254 254 254 254 254 253 253 253 253 253 254 253 255 253 254 252 254 255 255 254 254 254 254 254 253 254 253 254 253 254 254 254 253 254 253 254 253 255 254 255 254 253 254 253 254 254 254 255 254 255 255 253 253 254 254 253 253 254 254 254 255 254 254 254 253 255 253 253 255 254 254 254 254 253 254 254 253 253 255 254 254 255 253 254 253 254 254 254 253 254 255 254 254 253 254 255 254 254 254 255 253 253 254 253 254 254 253 254 254 254 254 254 254 255 254 255 253 252 251 249 250 255 207 22 0 10 1 0 0 0 0 0 0 0 0 0 0 0 0 0 0 0 0 0 0 0 0 0 0 0 0 0 0 0 0 0 0 0 0 0 1 0 0 0 0 0 0 0 0 0 0 0 0 0 0 0 0 0 0 0 0 0 0 0 1 0 0 0 0 0 0 0 0 0 0 0 0 0 0 0 0 0 0 0 0 0 0 0 0 0 1 0 0 0 0 1 0 1 0 0 2 6 1 0 118 255 254 250 253 252 253 255 253 255 254 254 254 254 254 253 253 254 254 255 253 254 254 255 254 254 254 252 254 254 253 254 254 253 253 254 254 253 255 253 253 254 254 253 253 253 254 254 254 254 255 254 253 252 253 254 253 254 254 254 253 254 254 254 254 255 254 254 253 255 254 253 254 253 254 254 254 253 254 254 254 252 254 255 253 254 254 254 254 253 255 255 253 254 255 254 253 253 253 253 254 254 254 254 254 254 254 255 254 255 253 253 253 253 254 255 254 254 255 254 253 254 255 255 255 255 255 255 255 255 255 255 255 255 255 255 255 255 255 255 255 255 255 255 255 255 255 255 255 255 255 255 255 255 255 255 255 255 255 255 255 255 255 255 255 255 255 255 255 255 255 255 255 255 255 255 
255 255 255 255 255 255 255 255 255 255 255 255 255 255 255 255 255 255 255 255 255 255 255 255 255 255 255 255 255 255 255 255 255 255 255 255 255 255 255 255 255 255 255 255 255 255 255 255 255 255 255 255 255 255 253 254 254 254 254 254 253 253 254 254 253 254 253 255 254 254 254 254 253 254 253 254 255 254 253 254 253 254 255 253 254 255 254 254 254 254 254 254 255 254 253 254 253 253 253 253 254 254 254 253 254 255 253 253 253 255 254 252 255 253 254 255 253 254 254 253 254 254 254 255 255 254 254 254 254 253 255 253 254 253 253 253 254 253 254 253 253 253 254 253 254 254 255 253 254 253 254 253 252 253 254 253 253 255 253 255 254 254 254 253 254 253 253 255 253 255 253 253 252 252 252 255 248 251 255 134 0 0 6 1 0 0 0 0 0 0 0 0 0 0 0 0 0 0 0 0 0 0 0 0 0 0 0 0 0 0 0 0 0 0 0 0 0 0 0 0 0 0 0 0 0 0 0 0 0 0 0 0 0 0 0 0 1 0 0 1 0 0 0 0 0 0 0 0 0 0 0 0 0 0 0 0 0 0 0 0 0 0 0 0 0 0 0 0 0 0 0 0 0 0 6 2 0 53 236 255 246 252 255 254 252 254 254 255 255 254 254 254 255 254 253 254 252 254 255 253 254 253 254 254 254 254 254 253 255 254 253 254 253 253 254 254 254 253 254 253 253 254 253 255 253 255 253 255 253 254 255 254 255 253 254 254 253 255 254 254 253 254 253 254 253 254 254 254 254 253 254 254 253 253 255 254 254 253 255 255 254 253 252 254 253 253 254 253 254 254 254 254 253 255 253 255 253 254 253 254 255 253 254 254 254 253 254 254 254 254 253 253 254 254 254 254 255 254 254 254 253 255 255 255 255 255 255 255 255 255 255 255 255 255 255 255 255 255 255 255 255 255 255 255 255 255 255 255 255 255 255 255 255 255 255 255 255 255 255 255 255 255 255 255 255 255 255 255 255 255 255 255 255 255 255 
255 255 255 255 255 255 255 255 255 255 255 255 255 255 255 255 255 255 255 255 255 255 255 255 255 255 255 255 255 255 255 255 255 255 255 255 255 255 255 255 255 255 255 255 255 255 255 255 255 255 255 255 255 255 253 254 254 254 254 254 253 253 254 254 254 253 254 253 253 254 253 255 253 254 253 253 254 253 253 254 253 254 254 254 253 255 253 253 254 255 255 254 255 253 253 254 254 254 254 253 255 255 252 254 254 254 253 254 253 253 253 254 253 254 253 254 254 253 254 253 253 254 254 254 254 254 254 253 254 254 254 253 253 254 253 253 254 254 255 254 252 254 254 252 254 254 253 254 255 254 255 253 254 254 253 253 253 255 254 253 254 255 254 254 254 253 253 255 255 255 253 253 253 254 253 254 255 253 244 254 251 85 0 1 1 0 0 0 0 0 0 0 0 0 0 0 0 0 0 0 0 0 0 0 0 0 0 0 0 0 0 0 0 0 0 0 0 0 0 0 0 0 0 0 0 0 0 0 0 0 0 0 0 0 0 0 0 0 0 0 0 0 0 0 0 0 0 0 0 0 0 0 0 0 0 0 0 0 0 0 0 0 0 0 0 0 0 0 0 0 0 1 1 1 0 31 201 255 249 248 255 255 254 255 253 253 254 255 255 255 253 253 255 254 255 252 254 253 254 253 254 253 254 254 254 253 255 254 253 254 253 254 253 254 253 253 255 252 254 254 253 254 253 254 254 255 253 255 254 253 255 254 253 253 255 253 254 254 254 253 254 253 253 253 253 254 254 253 254 254 254 255 253 254 254 254 254 254 255 254 253 254 254 253 253 254 252 253 253 254 253 254 254 255 253 254 253 254 254 253 253 254 253 254 254 253 255 255 253 254 254 254 255 254 254 253 255 253 255 253 254 255 255 255 255 255 255 255 255 255 255 255 255 255 255 255 255 255 255 255 255 255 255 255 255 255 255 255 255 255 255 255 255 255 255 255 255 255 255 255 255 255 255 255 255 255 255 255 255 255 255 255 255 255 255 
255 255 255 255 255 255 255 255 255 255 255 255 255 255 255 255 255 255 255 255 255 255 255 255 255 255 255 255 255 255 255 255 255 255 255 255 255 255 255 255 255 255 255 255 255 255 255 255 255 255 255 255 255 255 254 254 254 253 254 253 254 254 255 253 254 253 254 254 254 254 252 253 254 254 254 253 254 254 254 254 255 253 253 255 252 253 255 253 254 253 254 253 254 254 253 253 255 254 255 253 253 254 254 254 255 253 253 253 254 254 253 255 253 253 253 255 254 253 253 253 254 255 253 254 253 253 255 253 254 254 253 254 253 254 254 253 255 255 253 253 254 254 254 253 254 254 254 254 253 255 255 254 254 254 254 253 253 254 253 254 253 254 254 253 254 254 255 254 255 254 253 252 254 254 254 254 255 255 253 247 240 255 228 71 0 0 0 0 0 0 0 0 0 0 0 0 0 0 0 0 0 0 0 0 0 0 0 0 0 0 0 0 0 0 0 0 0 0 0 0 0 0 0 0 0 0 0 0 0 0 0 0 0 0 1 0 0 0 1 1 0 0 0 0 1 0 0 0 0 0 0 0 0 0 0 0 0 0 0 0 0 0 0 0 0 1 0 0 0 0 0 1 0 58 200 255 251 245 254 251 252 255 254 254 253 252 254 254 254 254 255 254 255 255 254 254 255 253 254 253 253 253 255 253 255 253 253 255 252 253 254 254 254 255 254 253 254 253 253 254 255 253 253 253 254 252 255 254 255 253 253 253 253 255 253 253 254 254 253 254 255 252 254 253 253 255 255 253 254 254 253 255 253 255 255 254 255 255 254 253 254 253 254 252 254 255 254 253 253 254 254 253 254 255 253 253 254 254 254 255 254 255 253 253 252 254 254 253 255 254 254 254 254 254 255 254 254 254 254 253 255 255 255 255 255 255 255 255 255 255 255 255 255 255 255 255 255 255 255 255 255 255 255 255 255 255 255 255 255 255 255 255 255 255 255 255 255 255 255 255 255 255 255 255 255 255 255 255 255 255 255 255 255 255 255 
255 255 255 255 255 255 255 255 255 255 255 255 255 255 255 255 255 255 255 255 255 255 255 255 255 255 255 255 255 255 255 255 255 255 255 255 255 255 255 255 255 255 255 255 255 255 255 255 255 255 255 255 255 255 254 253 254 253 254 254 255 255 254 253 254 253 254 255 255 253 254 253 254 254 255 253 254 253 254 254 253 253 254 254 253 254 253 255 254 254 253 253 253 255 254 253 253 253 252 254 253 254 254 255 253 254 253 254 253 253 254 254 254 253 254 254 255 253 253 253 254 253 254 254 254 254 255 253 254 254 253 254 254 253 254 255 255 254 253 253 255 254 253 253 254 252 254 253 254 254 254 255 253 253 254 254 254 253 253 255 253 255 255 253 254 254 254 255 254 253 253 253 255 255 252 253 252 250 253 254 255 229 108 23 1 0 0 0 0 0 0 0 0 0 0 0 0 0 0 0 0 0 0 0 0 0 0 0 0 0 0 0 0 0 0 0 0 0 0 0 0 0 0 0 0 0 0 0 0 0 0 0 0 0 0 0 0 0 0 0 0 0 0 0 0 0 0 0 0 0 0 0 0 0 0 0 0 0 0 0 0 0 0 0 0 0 0 0 0 0 0 0 0 154 218 255 255 253 253 247 250 255 255 255 253 252 253 253 254 254 252 253 255 255 254 255 255 254 253 254 254 254 254 255 254 254 254 254 253 254 253 253 254 255 254 253 254 254 254 254 254 253 254 253 255 253 254 253 253 253 254 254 254 255 254 254 253 254 254 255 255 253 254 253 254 252 253 255 254 254 254 253 253 255 254 253 254 254 253 253 255 254 253 253 254 255 255 254 253 254 255 253 255 253 254 254 255 254 255 255 254 253 254 254 254 253 255 253 254 254 254 253 255 253 255 255 254 255 255 254 254 255 255 255 255 255 255 255 255 255 255 255 255 255 255 255 255 255 255 255 255 255 255 255 255 255 255 255 255 255 255 255 255 255 255 255 255 255 255 255 255 255 255 255 255 255 255 255 255 255 255 255 255 255 255 
255 255 255 255 255 255 255 255 255 255 255 255 255 255 255 255 255 255 255 255 255 255 255 255 255 255 255 255 255 255 255 255 255 255 255 255 255 255 255 255 255 255 255 255 255 255 255 255 255 255 255 255 255 255 255 253 255 253 253 254 254 254 254 254 254 253 254 254 253 254 254 255 255 254 253 252 254 255 254 254 253 253 254 254 253 254 253 253 254 253 254 254 254 254 254 254 253 254 253 254 254 254 254 252 254 253 254 254 253 253 254 254 253 255 253 253 253 253 253 253 254 254 255 255 253 255 254 253 254 254 254 253 254 254 254 255 254 254 254 253 254 254 253 253 254 253 254 254 254 254 254 253 254 254 254 254 254 253 254 253 255 254 255 255 254 253 255 255 253 253 252 253 255 255 254 250 254 255 244 164 36 0 1 5 0 0 0 0 0 0 0 0 0 0 0 0 0 0 0 0 0 0 1 0 0 0 0 0 0 0 0 0 0 0 0 0 0 0 0 0 0 0 0 0 1 0 0 0 1 0 0 0 0 1 0 0 0 1 0 0 0 0 0 0 0 0 0 0 0 0 1 0 0 0 0 0 0 0 0 0 0 0 0 0 0 0 0 0 0 0 0 0 2 0 0 19 94 200 252 255 253 253 254 255 254 252 253 254 254 252 254 254 254 255 255 253 255 254 253 254 254 254 254 254 254 254 253 253 254 254 254 254 254 253 253 253 253 254 255 253 254 253 254 253 253 255 253 254 254 254 254 254 253 253 254 254 253 255 254 254 253 254 253 254 253 254 253 254 254 254 254 253 254 255 254 253 255 254 254 253 255 254 255 253 254 254 253 254 253 254 254 254 254 253 254 254 254 254 254 253 255 254 255 254 255 253 253 255 254 254 254 253 254 253 254 254 254 253 254 254 255 255 255 255 255 255 255 255 255 255 255 255 255 255 255 255 255 255 255 255 255 255 255 255 255 255 255 255 255 255 255 255 255 255 255 255 255 255 255 255 255 255 255 255 255 255 255 255 255 255 255 255 255 255 255 
255 255 255 255 255 255 255 255 255 255 255 255 255 255 255 255 255 255 255 255 255 255 255 255 255 255 255 255 255 255 255 255 255 255 255 255 255 255 255 255 255 255 255 255 255 255 255 255 255 255 255 255 255 255 255 254 253 253 255 253 254 254 253 253 253 254 254 254 253 255 253 253 255 255 254 253 254 255 255 254 254 254 253 254 254 254 253 253 255 253 254 254 254 253 253 255 254 252 253 254 253 253 254 253 253 254 253 254 254 253 254 254 254 255 253 254 254 253 253 254 253 254 253 254 253 254 254 255 253 253 255 253 254 254 254 253 255 254 254 253 254 255 254 254 255 255 253 255 254 254 253 254 254 255 253 255 252 255 254 253 255 253 255 255 253 253 255 255 253 254 253 253 255 255 250 255 171 64 1 0 6 5 3 2 0 0 0 0 0 1 0 0 0 0 0 1 0 0 0 0 0 0 0 0 0 1 0 0 0 0 0 0 0 0 1 0 0 0 0 0 0 0 0 0 0 0 1 0 0 0 0 0 0 0 0 0 0 0 0 0 0 0 0 0 0 1 0 0 0 0 0 0 0 0 0 0 0 0 0 0 0 0 1 0 0 0 0 0 0 0 0 0 0 2 6 8 1 0 4 54 168 251 251 255 253 251 253 254 255 253 253 254 255 254 253 254 253 255 254 255 255 254 252 253 252 253 253 254 254 254 254 253 253 254 254 255 253 253 254 253 255 255 255 253 254 254 253 254 255 253 252 254 253 254 254 254 254 254 254 254 253 253 253 255 253 255 254 255 253 252 254 253 254 255 254 253 252 253 254 253 252 253 254 253 253 254 253 255 255 255 253 255 253 253 255 254 254 254 253 253 254 255 253 253 255 254 253 253 254 254 254 253 254 253 254 254 254 253 254 254 254 255 255 255 255 255 255 255 255 255 255 255 255 255 255 255 255 255 255 255 255 255 255 255 255 255 255 255 255 255 255 255 255 255 255 255 255 255 255 255 255 255 255 255 255 255 255 255 255 255 255 255 255 255 255 
255 255 255 255 255 255 255 255 255 255 255 255 255 255 255 255 255 255 255 255 255 255 255 255 255 255 255 255 255 255 255 255 255 255 255 255 255 255 255 255 255 255 255 255 255 255 255 255 255 255 255 255 255 255 254 254 254 255 253 253 255 255 254 254 254 254 252 254 255 254 254 253 253 254 254 253 254 253 255 254 254 253 253 253 255 254 253 254 254 253 254 254 253 253 253 255 255 254 254 254 253 253 254 253 253 255 253 254 255 253 254 253 254 254 253 254 254 254 254 254 254 254 253 253 255 253 255 255 253 254 254 254 253 253 253 253 253 254 252 254 253 253 254 253 254 254 253 255 254 254 253 253 253 255 253 254 253 254 255 252 254 253 254 253 253 255 255 255 253 253 254 254 252 253 255 83 0 3 8 1 0 0 1 0 0 0 0 0 1 0 0 0 0 0 0 0 0 0 0 0 0 0 0 0 0 0 0 0 0 0 1 0 0 0 0 0 0 0 0 0 0 0 0 0 0 0 0 0 0 0 0 0 0 0 0 0 0 0 0 0 0 0 0 0 0 0 1 0 0 0 0 0 0 0 0 0 0 0 0 0 0 0 0 0 0 0 0 0 0 0 0 0 0 1 3 0 0 1 9 4 0 21 250 252 251 252 253 255 255 255 253 252 253 254 253 254 253 254 253 254 253 254 253 253 253 253 253 254 254 254 255 253 254 253 254 254 255 252 254 253 254 253 254 253 255 253 255 253 253 253 253 254 254 253 254 252 255 254 253 254 253 253 254 254 253 253 255 253 253 253 254 254 254 254 254 254 253 253 253 253 254 253 254 254 253 254 255 252 253 254 253 255 254 255 255 253 255 254 254 254 255 255 254 253 253 255 254 254 252 253 254 254 254 254 255 255 254 254 255 254 254 255 255 255 255 255 255 255 255 255 255 255 255 255 255 255 255 255 255 255 255 255 255 255 255 255 255 255 255 255 255 255 255 255 255 255 255 255 255 255 255 255 255 255 255 255 255 255 255 255 255 255 255 255 255 
255 255 255 255 255 255 255 255 255 255 255 255 255 255 255 255 255 255 255 255 255 255 255 255 255 255 255 255 255 255 255 255 255 255 255 255 255 255 255 255 255 255 255 255 255 255 255 255 255 255 255 255 255 255 255 254 254 254 255 254 254 255 254 255 252 254 253 254 253 253 255 253 253 255 254 253 255 253 254 253 255 254 254 253 254 253 255 253 254 253 253 253 254 254 254 254 253 253 254 253 253 253 254 254 254 254 254 253 253 255 255 253 254 254 254 253 254 255 254 254 254 255 253 253 254 254 255 255 254 254 254 255 254 253 253 254 254 253 253 253 254 255 253 253 255 255 253 254 253 254 254 253 253 253 255 254 255 254 254 253 254 255 253 253 253 254 254 255 252 251 252 254 250 254 254 10 2 0 2 1 0 0 0 0 0 0 0 0 0 0 0 0 0 1 0 0 0 0 0 0 0 0 0 0 0 0 0 0 0 0 0 0 0 0 0 1 0 0 0 0 0 0 0 0 0 0 0 0 0 0 0 0 0 0 0 0 0 0 0 0 0 0 0 0 0 0 0 0 0 0 0 0 0 0 0 0 0 0 0 0 0 0 0 0 0 0 0 0 0 1 0 0 0 0 1 2 0 0 2 1 0 0 169 255 251 252 251 254 254 255 254 253 253 255 254 253 253 255 255 253 253 253 255 254 255 253 253 254 253 254 255 254 254 252 254 253 253 253 254 253 255 254 253 255 255 253 254 253 253 254 255 255 255 253 254 253 254 253 254 253 254 253 254 254 255 253 253 254 254 255 252 254 254 253 254 253 254 253 253 254 255 253 255 254 254 254 255 253 253 254 253 253 254 253 254 253 255 255 254 255 254 252 254 255 254 254 254 255 253 254 254 253 254 253 254 253 254 253 255 254 254 255 255 255 255 255 255 255 255 255 255 255 255 255 255 255 255 255 255 255 255 255 255 255 255 255 255 255 255 255 255 255 255 255 255 255 255 255 255 255 255 255 255 255 255 255 255 255 255 255 255 255 255 255 255 
255 255 255 255 255 255 255 255 255 255 255 255 255 255 255 255 255 255 255 255 255 255 255 255 255 255 255 255 255 255 255 255 255 255 255 255 255 255 255 255 255 255 255 255 255 255 255 255 255 255 255 255 255 255 254 255 254 254 252 254 254 255 255 254 253 254 255 255 252 253 254 255 254 253 253 254 254 254 254 254 254 253 255 253 255 253 254 255 254 253 255 253 253 255 253 253 252 254 253 255 253 253 254 254 253 253 253 253 253 255 253 255 254 253 253 253 253 253 253 255 254 253 253 253 253 254 254 253 255 254 253 255 254 254 253 253 255 253 254 254 253 255 254 253 255 255 253 254 254 254 253 253 253 253 254 255 255 253 254 254 254 254 254 252 253 254 255 254 251 250 249 255 229 104 10 1 0 0 0 1 1 0 0 0 0 0 0 0 0 0 0 0 0 0 0 0 0 0 0 0 0 0 0 0 0 0 0 0 0 0 0 0 0 1 0 0 0 0 0 0 0 0 0 1 0 0 0 0 0 0 0 0 0 0 0 0 0 0 0 0 0 1 0 0 0 0 0 0 0 0 0 0 0 1 0 0 0 0 0 0 0 0 0 0 0 0 0 0 0 0 0 1 0 0 0 0 0 0 0 2 1 1 0 53 175 246 255 249 254 252 253 254 254 255 254 254 253 255 253 254 254 254 253 255 254 253 253 253 253 254 254 255 253 253 254 253 253 255 254 255 253 255 255 253 252 254 255 253 254 254 254 253 254 253 255 254 254 254 254 253 254 253 254 253 254 254 253 253 253 253 253 255 253 253 253 253 254 253 253 255 253 254 253 253 253 254 255 254 255 253 254 254 255 253 253 255 254 254 255 254 255 253 253 255 253 253 253 254 253 254 254 253 255 254 254 255 254 254 255 254 255 255 255 255 255 255 255 255 255 255 255 255 255 255 255 255 255 255 255 255 255 255 255 255 255 255 255 255 255 255 255 255 255 255 255 255 255 255 255 255 255 255 255 255 255 255 255 255 255 255 255 255 255 255 255 
255 255 255 255 255 255 255 255 255 255 255 255 255 255 255 255 255 255 255 255 255 255 255 255 255 255 255 255 255 255 255 255 255 255 255 255 255 255 255 255 255 255 255 255 255 255 255 255 255 255 255 255 255 255 253 253 253 254 253 254 254 255 254 254 254 254 255 253 253 254 254 253 254 253 253 253 253 253 254 254 253 253 254 254 254 255 254 254 254 255 255 253 254 254 254 253 253 254 253 254 253 253 253 253 253 254 254 254 254 254 254 254 254 255 253 253 253 253 253 253 254 254 255 255 254 254 253 254 255 253 254 255 254 253 254 254 253 253 253 254 253 253 255 255 253 253 253 255 253 253 253 255 255 254 254 255 254 255 254 253 255 255 253 252 254 254 255 249 252 254 193 53 0 1 6 2 0 0 0 0 0 0 0 0 0 0 0 0 0 0 0 0 0 0 0 0 0 0 0 0 0 0 0 0 0 0 0 0 0 0 0 0 0 0 0 0 0 0 0 0 0 0 0 1 0 0 0 0 0 0 0 0 0 0 0 0 0 0 0 0 0 0 0 0 0 0 0 0 0 0 0 0 0 0 0 0 0 0 0 0 0 0 0 0 0 0 0 0 0 0 0 0 0 0 0 0 0 0 0 0 1 0 3 6 0 0 81 220 255 249 251 253 255 254 253 253 254 255 253 254 254 254 254 253 254 255 253 254 255 254 254 254 253 254 254 253 254 253 255 255 253 253 255 254 253 253 253 255 254 254 254 253 253 253 253 255 253 254 253 254 253 253 255 253 254 255 253 253 253 253 253 254 253 254 254 252 254 254 253 253 254 253 254 253 254 254 253 255 253 253 254 254 255 254 255 255 254 254 253 253 253 254 253 254 253 253 255 253 253 255 255 253 254 253 254 254 254 253 254 255 255 255 255 255 255 255 255 255 255 255 255 255 255 255 255 255 255 255 255 255 255 255 255 255 255 255 255 255 255 255 255 255 255 255 255 255 255 255 255 255 255 255 255 255 255 255 255 255 255 255 255 255 255 255 255 
255 255 255 255 255 255 255 255 255 255 255 255 255 255 255 255 255 255 255 255 255 255 255 255 255 255 255 255 255 255 255 255 255 255 255 255 255 255 255 255 255 255 255 255 255 255 255 255 255 255 255 255 255 255 254 253 255 254 254 254 254 255 253 254 253 253 255 253 254 254 254 253 254 255 253 254 254 255 253 254 253 253 255 254 254 253 253 253 255 254 255 253 254 255 254 254 254 254 255 254 254 253 253 253 253 254 254 255 254 254 254 254 252 253 255 254 255 254 253 254 254 254 253 253 255 253 253 253 254 253 253 253 253 254 254 255 253 253 253 253 253 255 255 254 255 253 254 253 253 253 253 255 255 253 254 253 255 253 253 254 255 255 253 252 255 248 253 251 153 13 0 6 4 0 0 0 1 0 0 0 0 0 0 0 0 0 0 0 0 0 0 0 0 0 0 0 0 0 0 0 0 0 0 0 0 0 0 0 0 0 0 0 0 0 0 0 0 0 0 0 0 1 0 1 0 0 0 0 0 0 0 0 0 0 0 1 0 0 0 0 0 0 0 0 0 0 0 0 0 0 0 0 0 0 0 0 0 0 0 0 0 0 0 0 0 0 0 0 0 0 0 0 0 0 0 0 0 0 0 0 1 0 0 1 4 5 4 0 53 215 255 249 253 254 251 253 254 254 255 253 253 255 255 253 255 253 254 254 253 255 255 254 254 253 255 254 255 253 254 254 253 252 253 255 254 254 254 253 254 254 255 253 253 254 253 254 253 254 254 255 253 253 255 254 255 255 255 254 254 254 253 255 254 255 254 253 254 255 253 253 254 253 254 253 253 254 254 254 255 253 254 255 253 252 254 254 255 255 253 253 254 255 254 254 253 253 253 254 255 254 254 253 253 253 253 254 255 254 254 253 254 255 255 255 255 255 255 255 255 255 255 255 255 255 255 255 255 255 255 255 255 255 255 255 255 255 255 255 255 255 255 255 255 255 255 255 255 255 255 255 255 255 255 255 255 255 255 255 255 255 255 255 255 255 255 
255 255 255 255 255 255 255 255 255 255 255 255 255 255 255 255 255 255 255 255 255 255 255 255 255 255 255 255 255 255 255 255 255 255 255 255 255 255 255 255 255 255 255 255 255 255 255 255 255 255 255 255 255 255 254 254 255 254 254 254 253 255 253 254 253 253 253 253 254 253 255 253 254 254 253 254 253 253 255 254 255 253 253 253 255 253 253 255 254 254 252 255 255 252 254 253 254 254 254 253 255 254 254 253 254 254 253 254 255 253 254 253 253 253 254 253 254 255 253 254 254 253 253 253 254 254 253 253 254 254 253 253 255 254 255 254 255 254 255 254 254 253 254 253 253 254 254 253 253 255 254 254 254 254 254 253 255 253 253 254 255 255 251 247 253 255 144 7 0 5 0 1 1 1 0 0 0 0 0 0 0 0 0 0 0 0 0 0 0 0 0 0 0 0 0 0 0 0 0 0 0 0 0 0 0 0 0 0 0 0 0 0 0 0 0 0 0 0 0 0 0 1 0 0 0 0 0 0 0 0 0 0 0 0 0 0 0 0 0 0 0 0 0 0 0 0 0 0 0 0 0 0 0 0 0 0 0 0 0 0 0 0 0 0 0 0 1 1 0 0 0 0 0 0 0 0 0 0 0 0 0 0 0 0 2 0 0 2 5 0 49 221 255 246 251 252 255 255 254 253 253 254 254 254 253 253 253 254 255 253 254 254 252 254 253 253 253 254 253 254 254 253 254 254 254 253 255 255 254 255 253 254 253 253 253 254 255 254 253 254 253 253 253 254 254 254 254 253 254 253 254 254 254 255 254 253 253 253 254 255 253 253 254 254 255 253 254 254 255 255 254 255 253 253 253 254 253 255 254 254 253 254 253 254 254 253 253 254 255 254 255 254 253 253 254 254 254 254 255 254 254 255 255 255 255 255 255 255 255 255 255 255 255 255 255 255 255 255 255 255 255 255 255 255 255 255 255 255 255 255 255 255 255 255 255 255 255 255 255 255 255 255 255 255 255 255 255 255 255 255 255 255 255 255 255 
255 255 255 255 255 255 255 255 255 255 255 255 255 255 255 255 255 255 255 255 255 255 255 255 255 255 255 255 255 255 255 255 255 255 255 255 255 255 255 255 255 255 255 255 255 255 255 255 255 255 255 255 255 255 253 254 254 254 255 254 254 254 254 254 255 255 253 252 254 254 253 254 254 255 253 254 253 253 253 254 253 255 253 254 253 255 255 254 254 255 253 254 255 253 254 253 254 254 255 255 253 254 254 253 254 254 254 254 253 253 253 253 255 255 254 255 253 253 255 253 254 254 253 255 253 254 253 253 254 255 253 254 254 255 254 254 253 255 254 253 255 253 254 253 253 254 254 254 253 253 255 255 255 253 254 254 255 253 253 253 255 251 249 255 163 13 0 4 1 1 1 0 0 0 0 0 0 0 0 0 0 0 0 0 0 0 0 0 0 0 0 0 0 0 0 0 0 1 0 0 0 0 0 0 0 0 0 0 0 1 0 0 0 0 1 0 0 1 0 0 0 0 0 0 0 0 0 0 0 0 0 0 0 0 0 0 0 0 0 0 0 0 0 0 0 1 0 0 0 0 0 1 0 0 0 0 0 0 0 1 0 0 1 0 0 0 0 0 0 0 0 0 0 0 0 0 0 0 0 0 0 0 0 0 0 0 0 0 2 2 4 0 78 239 255 244 255 255 254 253 253 255 254 254 253 254 252 254 253 253 254 255 253 253 253 253 255 255 255 253 254 253 255 255 253 253 253 254 254 253 255 255 255 253 253 254 253 254 254 253 255 254 254 254 255 255 254 255 254 253 254 253 254 254 254 253 253 253 254 254 254 253 255 254 255 253 254 254 253 255 253 254 253 254 252 254 254 253 253 253 254 255 254 253 255 254 253 255 254 253 253 254 254 254 255 254 255 253 255 254 255 255 255 255 255 255 255 255 255 255 255 255 255 255 255 255 255 255 255 255 255 255 255 255 255 255 255 255 255 255 255 255 255 255 255 255 255 255 255 255 255 255 255 255 255 255 255 255 255 255 255 255 255 255 255 
255 255 255 255 255 255 255 255 255 255 255 255 255 255 255 255 255 255 255 255 255 255 255 255 255 255 255 255 255 255 255 255 255 255 255 255 255 255 255 255 255 255 255 255 255 255 255 255 255 255 255 255 255 255 253 253 253 253 253 254 255 253 255 254 255 253 254 254 253 255 254 255 255 253 253 255 254 255 254 255 254 255 253 254 253 253 254 253 253 253 255 255 253 254 255 253 253 254 253 254 253 254 254 253 254 254 254 254 255 255 253 253 253 254 254 255 254 253 255 253 253 254 253 253 254 254 255 255 253 254 253 254 253 254 253 253 254 253 255 254 254 253 253 254 255 254 254 255 253 253 255 254 254 253 254 255 255 252 252 255 243 255 214 26 0 6 2 0 0 0 0 0 0 0 0 0 0 0 1 0 0 0 0 0 0 0 0 0 0 0 0 0 0 0 0 0 0 0 1 0 0 1 0 0 0 0 0 0 0 0 0 0 0 0 0 0 1 0 0 0 0 0 0 1 0 0 0 0 0 0 0 0 0 0 1 0 0 0 0 0 0 0 0 0 0 0 0 0 0 0 0 0 0 0 0 0 0 0 0 0 0 0 0 0 0 0 0 0 0 0 0 0 0 0 0 0 0 1 0 0 0 0 0 0 0 1 0 0 0 0 1 4 4 0 120 255 250 249 255 252 253 255 255 255 253 253 253 253 253 254 253 253 254 254 253 254 253 253 254 254 255 253 253 253 254 254 254 255 253 252 254 253 254 254 254 253 254 253 253 254 253 253 254 252 254 254 255 253 255 254 253 254 254 255 254 252 254 253 254 254 254 254 253 253 254 255 254 254 253 255 253 253 255 254 253 254 255 254 254 254 255 254 253 253 253 254 254 253 255 254 253 254 254 253 254 255 254 255 253 254 254 255 255 255 255 255 255 255 255 255 255 255 255 255 255 255 255 255 255 255 255 255 255 255 255 255 255 255 255 255 255 255 255 255 255 255 255 255 255 255 255 255 255 255 255 255 255 255 255 255 255 255 255 255 255 
255 255 255 255 255 255 255 255 255 255 255 255 255 255 255 255 255 255 255 255 255 255 255 255 255 255 255 255 255 255 255 255 255 255 255 255 255 255 255 255 255 255 255 255 255 255 255 255 255 255 255 255 255 255 254 254 254 254 253 255 254 254 253 254 254 253 255 255 253 255 254 255 254 253 253 255 255 254 254 254 255 254 253 254 253 252 254 255 253 254 254 253 253 254 254 253 254 254 254 254 254 254 254 253 254 254 253 254 254 253 254 253 253 255 254 255 254 255 253 254 255 254 254 253 253 254 253 253 254 254 255 253 254 253 253 253 254 253 254 254 254 254 254 253 253 254 255 253 253 255 255 254 253 253 254 255 253 252 248 251 255 89 0 4 3 2 0 0 0 0 0 0 0 0 0 0 0 0 0 0 0 0 0 0 0 0 0 0 0 0 0 0 0 0 0 0 0 0 0 0 0 0 0 0 0 0 0 0 0 0 0 0 0 0 0 0 0 0 0 0 0 0 0 0 0 0 0 0 0 0 0 0 0 0 0 0 0 0 0 0 0 0 1 0 0 0 0 0 0 0 0 0 0 0 0 0 0 0 1 0 0 0 0 0 0 0 0 0 0 0 0 0 0 0 1 0 0 0 0 0 0 0 0 0 0 0 0 0 0 1 0 0 2 2 0 16 196 255 247 251 255 255 253 254 254 253 254 253 253 255 253 253 254 254 255 254 253 253 253 253 253 253 253 254 254 253 255 255 253 253 254 253 253 254 253 253 254 254 252 255 253 254 253 253 254 255 253 253 254 254 254 253 253 253 255 252 253 253 253 253 254 253 255 254 253 255 253 254 254 254 252 254 253 254 255 254 255 254 255 255 253 254 253 254 253 255 253 254 253 253 254 254 253 252 255 254 254 255 253 255 255 255 255 255 255 255 255 255 255 255 255 255 255 255 255 255 255 255 255 255 255 255 255 255 255 255 255 255 255 255 255 255 255 255 255 255 255 255 255 255 255 255 255 255 255 255 255 255 255 255 255 255 255 255 255 
255 255 255 255 255 255 255 255 255 255 255 255 255 255 255 255 255 255 255 255 255 255 255 255 255 255 255 255 255 255 255 255 255 255 255 255 255 255 255 255 255 255 255 255 255 255 255 255 255 255 255 255 255 255 255 255 254 254 255 254 254 255 254 253 253 255 255 255 253 254 255 254 254 253 254 253 254 254 255 254 253 255 253 254 254 254 253 253 253 255 254 254 253 254 254 253 253 253 255 254 253 254 255 253 254 253 253 254 254 253 253 253 253 254 255 253 253 253 254 254 253 254 255 254 253 254 254 253 253 255 254 255 254 254 255 253 254 254 255 253 255 253 254 254 253 254 254 253 254 255 254 255 252 254 255 255 254 245 255 208 11 1 2 2 1 0 0 1 0 0 0 0 0 0 0 0 0 0 0 0 0 0 0 0 0 0 0 0 0 0 0 0 0 0 0 0 0 0 0 1 0 0 0 0 0 0 0 0 0 0 0 0 0 0 0 0 0 0 0 0 0 0 0 0 0 0 0 0 0 0 0 0 0 0 0 0 0 0 0 0 0 0 0 0 0 0 0 0 0 0 0 0 0 0 0 0 0 1 0 0 0 0 0 0 0 0 0 0 0 0 0 0 0 0 0 0 0 0 0 0 0 0 0 0 0 0 1 0 0 0 0 0 0 0 1 3 0 61 238 254 248 255 254 252 253 254 254 254 254 253 253 254 254 253 255 254 254 253 253 253 253 253 254 254 253 254 253 253 254 254 255 254 253 253 254 253 253 254 254 253 252 255 254 254 253 254 253 254 253 254 254 253 253 253 254 255 253 254 254 253 254 253 255 254 255 253 254 254 254 254 253 254 253 253 253 254 253 254 253 254 254 253 254 254 254 253 254 253 254 254 253 254 254 254 255 253 255 253 254 254 254 255 255 255 255 255 255 255 255 255 255 255 255 255 255 255 255 255 255 255 255 255 255 255 255 255 255 255 255 255 255 255 255 255 255 255 255 255 255 255 255 255 255 255 255 255 255 255 255 255 255 255 255 255 255 
255 255 255 255 255 255 255 255 255 255 255 255 255 255 255 255 255 255 255 255 255 255 255 255 255 255 255 255 255 255 255 255 255 255 255 255 255 255 255 255 255 255 255 255 255 255 255 255 255 255 255 255 255 255 254 253 254 254 255 254 255 254 253 254 254 255 253 255 253 254 254 253 254 253 254 254 254 253 253 254 254 253 254 254 253 255 254 253 255 254 254 253 254 254 255 254 254 254 254 254 254 254 255 253 254 254 254 254 254 254 253 253 253 254 254 253 254 254 253 254 253 255 253 254 254 254 255 254 254 253 253 254 254 254 254 253 254 254 254 253 254 253 253 254 254 255 253 254 254 254 255 253 253 254 255 249 250 255 83 0 3 1 0 0 0 0 0 0 0 0 0 0 0 0 0 0 0 0 0 0 0 0 0 0 0 0 0 0 0 0 0 0 0 0 0 0 0 0 0 0 0 0 0 0 0 0 0 0 1 0 1 0 0 0 0 0 0 0 0 0 0 0 0 0 0 0 1 0 0 0 0 0 0 1 0 0 0 0 0 0 0 0 0 0 0 0 0 0 0 0 0 0 0 0 0 0 0 0 0 0 0 0 0 0 0 0 0 0 0 0 0 0 0 0 0 1 0 0 0 0 0 0 0 0 0 0 0 0 0 0 0 0 0 0 0 0 6 4 0 165 255 244 255 252 253 255 254 255 255 253 253 254 253 254 253 255 253 254 255 253 254 254 254 254 253 254 253 254 255 253 255 254 253 253 255 253 253 255 254 253 255 253 254 254 255 253 253 255 255 254 254 254 253 254 254 254 254 254 254 253 255 254 253 254 253 253 253 253 254 254 253 254 253 254 252 254 253 253 255 253 254 253 255 253 254 254 255 254 254 254 255 254 254 254 255 253 254 253 255 255 254 255 255 255 255 255 255 255 255 255 255 255 255 255 255 255 255 255 255 255 255 255 255 255 255 255 255 255 255 255 255 255 255 255 255 255 255 255 255 255 255 255 255 255 255 255 255 255 255 255 255 255 255 255 255 
255 255 255 255 255 255 255 255 255 255 255 255 255 255 255 255 255 255 255 255 255 255 255 255 255 255 255 255 255 255 255 255 255 255 255 255 255 255 255 255 255 255 255 255 255 255 255 255 255 255 255 255 255 255 254 253 254 254 253 255 253 253 254 254 253 253 254 254 253 254 253 254 253 253 254 254 254 254 253 255 255 254 254 254 253 254 255 254 254 253 255 254 254 254 255 253 255 254 254 254 253 255 252 253 254 254 254 254 254 254 253 254 254 254 253 254 254 255 254 253 254 253 254 254 254 254 253 254 255 253 254 254 254 254 253 253 254 253 254 253 254 253 254 254 254 254 254 254 254 255 254 254 252 255 245 255 228 12 1 7 0 0 0 0 0 0 0 0 0 0 0 0 0 0 0 0 0 0 0 0 0 0 0 0 0 0 0 0 0 0 0 0 1 0 0 0 0 0 0 0 0 0 0 0 0 0 0 0 0 2 0 0 0 0 0 0 0 0 0 0 0 0 0 0 0 0 0 0 0 0 0 0 0 0 0 0 0 0 0 0 0 0 0 0 0 0 0 0 0 0 0 0 0 0 0 0 0 0 0 0 0 0 0 0 0 0 0 0 0 0 0 0 0 0 0 0 0 0 0 0 0 0 0 0 0 0 0 0 0 0 0 0 0 0 0 0 1 3 4 0 69 255 251 249 253 253 255 255 254 254 253 252 254 254 254 253 254 254 254 253 253 255 253 253 254 253 254 255 254 253 254 254 255 254 253 254 253 254 253 254 253 254 254 255 253 253 254 254 254 253 254 255 252 254 254 254 254 254 253 253 255 254 253 253 253 254 254 254 253 253 254 254 254 254 254 255 255 254 254 254 252 253 254 254 254 253 254 255 254 253 254 253 254 253 254 253 254 254 254 254 254 255 255 255 255 255 255 255 255 255 255 255 255 255 255 255 255 255 255 255 255 255 255 255 255 255 255 255 255 255 255 255 255 255 255 255 255 255 255 255 255 255 255 255 255 255 255 255 255 255 255 255 255 255 255 
255 255 255 255 255 255 255 255 255 255 255 255 255 255 255 255 255 255 255 255 255 255 255 255 255 255 255 255 255 255 255 255 255 255 255 255 255 255 255 255 255 255 255 255 255 255 255 255 255 255 255 255 255 255 254 254 253 255 253 254 254 254 255 254 253 254 255 254 253 254 254 254 253 254 253 253 255 255 254 255 254 255 254 253 254 253 255 253 254 254 255 253 254 255 254 254 254 253 253 254 254 254 254 254 253 253 254 254 254 254 253 254 253 254 253 253 254 254 254 253 254 254 254 253 254 253 254 254 255 253 254 254 254 254 253 253 255 253 253 253 255 254 253 254 254 254 253 253 254 255 253 252 252 250 255 137 0 2 4 2 0 0 0 0 0 0 0 0 0 0 0 0 0 1 0 0 0 0 0 0 0 0 0 0 0 0 0 0 0 0 0 0 0 0 0 0 0 0 0 0 0 0 0 0 0 1 0 0 0 0 0 0 0 0 0 1 0 0 0 0 0 0 0 0 0 1 1 0 0 0 0 0 0 0 0 0 0 0 1 0 0 0 0 0 0 0 0 0 0 0 0 1 0 0 0 1 0 0 0 0 0 0 0 1 0 0 0 0 0 0 0 0 0 0 0 0 0 0 1 0 0 0 0 0 0 0 0 0 0 0 0 0 0 0 0 0 0 0 0 4 1 6 218 255 247 254 255 255 253 253 253 254 253 253 255 254 255 253 253 253 253 254 254 254 254 253 255 254 253 254 253 254 254 254 253 254 254 253 253 254 253 254 254 254 253 253 254 254 253 254 254 255 254 253 253 254 253 254 254 253 253 252 255 253 254 255 253 254 253 252 255 253 254 254 255 255 254 254 253 253 254 254 253 254 255 253 254 254 254 253 253 254 254 254 252 253 254 254 254 255 255 255 255 255 255 255 255 255 255 255 255 255 255 255 255 255 255 255 255 255 255 255 255 255 255 255 255 255 255 255 255 255 255 255 255 255 255 255 255 255 255 255 255 255 255 255 255 255 255 255 255 255 255 255 255 
255 255 255 255 255 255 255 255 255 255 255 255 255 255 255 255 255 255 255 255 255 255 255 255 255 255 255 255 255 255 255 255 255 255 255 255 255 255 255 255 255 255 255 255 255 255 255 255 255 255 255 255 255 255 255 254 253 254 253 253 254 255 253 254 255 254 254 255 253 254 255 254 253 255 253 254 254 255 253 255 254 252 255 254 254 253 254 253 254 253 254 253 254 254 254 255 253 253 254 253 255 253 254 254 254 254 255 254 253 255 253 254 253 255 253 253 253 253 254 254 255 253 254 254 253 254 254 253 254 253 254 254 253 253 254 253 253 254 254 254 255 254 253 254 254 253 254 253 255 254 255 249 251 249 78 0 5 0 0 0 0 0 0 0 0 0 0 0 0 0 0 1 0 0 0 0 0 0 0 0 1 0 0 0 0 0 0 0 0 0 0 1 0 0 0 0 0 0 0 0 0 0 0 0 0 0 0 0 0 0 0 0 0 0 0 0 1 0 0 0 0 0 0 0 0 0 0 0 1 0 0 0 0 0 0 0 0 0 0 0 0 0 0 0 0 0 0 0 0 0 0 0 0 0 0 0 1 0 0 0 0 0 1 1 0 0 0 0 0 0 0 0 0 0 0 0 0 0 0 0 0 0 0 0 0 0 0 0 0 0 0 0 0 1 0 1 0 0 0 0 3 4 0 117 255 244 255 255 254 253 252 254 253 254 254 255 254 254 254 253 254 254 254 254 253 254 255 255 253 254 253 253 253 254 254 253 255 253 254 253 254 253 254 253 253 254 255 255 254 254 254 254 255 254 253 254 254 254 255 253 253 253 255 255 254 254 253 254 254 254 253 253 255 254 253 254 253 254 252 253 254 255 254 254 253 254 255 253 254 254 254 254 254 255 254 253 254 253 255 254 253 255 255 255 255 255 255 255 255 255 255 255 255 255 255 255 255 255 255 255 255 255 255 255 255 255 255 255 255 255 255 255 255 255 255 255 255 255 255 255 255 255 255 255 255 255 255 255 255 255 255 255 255 255 255 
255 255 255 255 255 255 255 255 255 255 255 255 255 255 255 255 255 255 255 255 255 255 255 255 255 255 255 255 255 255 255 255 255 255 255 255 255 255 255 255 255 255 255 255 255 255 255 255 255 255 255 255 255 255 254 253 253 254 253 255 254 255 253 253 254 253 253 254 254 255 254 254 253 254 253 253 254 254 254 253 254 254 254 255 254 254 253 254 253 253 252 254 253 254 254 254 253 254 254 253 254 253 253 254 253 254 253 254 253 254 253 254 254 253 253 254 253 253 254 254 254 253 255 253 253 254 252 253 254 253 254 254 254 253 254 254 254 254 255 254 253 254 254 255 255 254 253 253 255 255 247 254 244 16 1 4 0 0 0 0 0 0 0 0 0 0 0 0 0 0 0 0 0 0 0 0 0 0 0 0 0 0 0 0 0 0 0 0 0 0 0 0 0 0 0 0 0 0 0 0 0 0 0 0 0 0 0 0 0 0 0 0 0 0 1 0 0 0 0 0 0 0 0 0 0 0 0 0 0 0 0 0 0 0 0 0 0 0 0 0 0 0 0 0 0 0 0 0 0 0 0 0 0 0 1 0 0 0 0 0 0 0 0 0 0 0 1 0 0 0 0 0 0 0 1 0 0 0 0 0 0 0 0 0 0 0 0 0 0 0 0 0 0 0 0 0 0 0 0 1 1 2 8 0 58 255 250 253 254 253 252 253 253 254 254 253 254 253 255 254 255 254 254 254 253 254 254 254 254 253 253 254 254 254 253 254 253 254 255 254 253 254 254 253 254 254 254 255 254 253 255 253 254 255 254 253 253 255 254 253 254 252 253 255 255 253 254 254 254 254 254 254 255 254 253 254 254 254 252 254 253 253 254 254 253 255 253 254 253 253 253 254 254 254 255 254 254 254 254 254 253 255 255 255 255 255 255 255 255 255 255 255 255 255 255 255 255 255 255 255 255 255 255 255 255 255 255 255 255 255 255 255 255 255 255 255 255 255 255 255 255 255 255 255 255 255 255 255 255 255 255 255 255 255 255 
255 255 255 255 255 255 255 255 255 255 255 255 255 255 255 255 255 255 255 255 255 255 255 255 255 255 255 255 255 255 255 255 255 255 255 255 255 255 255 255 255 255 255 255 255 255 255 255 255 255 255 255 255 255 254 253 253 254 254 254 255 254 255 254 253 253 253 254 253 255 253 255 254 253 254 254 253 253 253 255 255 255 252 254 254 255 253 254 253 255 253 255 253 255 253 253 254 254 254 254 255 253 254 254 254 253 253 254 253 253 255 254 254 253 255 254 254 253 254 253 254 254 253 253 254 253 253 254 254 253 254 254 254 254 254 255 255 254 253 255 253 255 255 254 255 255 253 253 255 249 255 175 7 4 3 0 0 0 0 0 0 0 0 0 0 0 0 0 0 0 0 0 0 0 0 0 0 0 0 0 0 0 0 0 0 0 0 0 1 0 0 0 0 0 0 0 0 0 0 0 0 0 0 0 0 0 0 0 0 0 0 0 0 0 0 0 0 0 0 0 0 0 0 0 1 0 0 1 0 0 0 0 0 0 0 0 0 0 0 0 0 0 0 0 0 0 0 0 0 0 0 0 0 0 0 0 0 1 1 0 0 0 0 0 0 0 0 0 0 0 0 0 0 0 0 0 0 0 0 0 0 0 0 0 0 0 0 0 0 0 0 0 0 0 0 0 0 0 0 0 1 1 0 6 0 24 239 251 250 254 253 252 253 254 253 253 253 254 254 254 253 254 253 253 255 255 254 254 254 252 254 255 254 254 252 254 254 253 253 255 253 253 254 253 255 253 253 255 253 254 255 253 254 255 253 254 253 254 252 253 254 253 254 254 253 253 253 254 253 253 253 254 253 255 253 254 253 254 254 253 253 254 253 254 254 254 253 255 254 253 254 253 254 255 253 255 254 255 254 255 255 255 255 255 255 255 255 255 255 255 255 255 255 255 255 255 255 255 255 255 255 255 255 255 255 255 255 255 255 255 255 255 255 255 255 255 255 255 255 255 255 255 255 255 255 255 255 255 255 255 255 255 255 255 255 
255 255 255 255 255 255 255 255 255 255 255 255 255 255 255 255 255 255 255 255 255 255 255 255 255 255 255 255 255 255 255 255 255 255 255 255 255 255 255 255 255 255 255 255 255 255 255 255 255 255 255 255 255 255 254 255 254 255 253 254 254 254 253 253 253 254 253 254 254 253 254 254 254 254 254 255 254 253 253 254 255 254 253 253 254 253 254 253 254 254 255 254 253 253 254 254 254 252 253 253 254 253 255 254 254 254 253 254 254 254 254 254 254 255 254 254 254 253 254 253 254 253 253 254 254 254 254 253 255 254 254 252 253 254 255 254 254 254 253 254 254 255 254 254 253 253 253 254 248 255 157 0 4 3 0 0 0 0 0 0 0 0 0 0 0 0 0 0 0 0 0 0 0 0 0 0 0 0 0 0 0 0 0 0 0 0 0 0 0 0 0 0 0 0 1 0 0 0 0 0 0 0 0 0 0 0 0 0 0 0 0 0 0 1 0 0 0 0 1 0 0 0 0 0 0 0 0 0 0 0 0 0 0 0 0 0 0 0 0 0 1 0 0 0 0 0 0 0 0 0 0 0 0 0 0 0 0 0 0 1 0 0 0 0 0 0 0 0 0 0 0 0 0 0 0 0 0 0 0 0 0 0 0 0 0 0 0 0 0 0 0 0 0 0 0 0 0 0 0 0 0 0 0 0 2 5 6 244 254 248 253 253 253 254 254 254 253 253 255 254 254 254 253 253 254 255 254 253 252 253 254 253 253 254 253 253 253 255 254 253 254 253 254 252 254 254 254 253 254 254 254 254 254 253 253 254 255 254 254 253 253 254 253 255 252 253 254 255 253 253 253 254 253 255 254 253 254 254 254 253 253 255 254 255 253 254 254 254 255 254 254 253 255 254 253 254 253 255 254 253 255 255 255 255 255 255 255 255 255 255 255 255 255 255 255 255 255 255 255 255 255 255 255 255 255 255 255 255 255 255 255 255 255 255 255 255 255 255 255 255 255 255 255 255 255 255 255 255 255 255 255 255 255 255 255 
255 255 255 255 255 255 255 255 255 255 255 255 255 255 255 255 255 255 255 255 255 255 255 255 255 255 255 255 255 255 255 255 255 255 255 255 255 255 255 255 255 255 255 255 255 255 255 255 255 255 255 255 255 255 253 255 253 254 253 254 253 254 255 253 255 255 254 255 254 254 253 254 253 253 254 255 253 254 254 253 253 253 255 253 255 254 255 254 254 253 254 253 254 253 254 254 253 253 254 254 254 254 253 253 253 254 254 254 253 255 253 253 254 255 254 253 254 255 254 253 254 254 254 255 254 254 254 253 253 253 253 253 254 254 253 255 253 253 253 253 254 255 255 255 254 252 253 251 255 149 0 9 1 1 0 0 0 0 0 0 0 0 0 0 0 0 0 0 0 0 0 0 0 0 0 0 0 0 0 0 0 0 0 0 0 0 0 0 0 0 1 0 0 0 0 0 0 0 0 0 0 0 0 0 0 0 0 0 0 0 0 0 0 0 0 0 0 0 0 0 0 0 0 0 0 0 0 0 0 0 0 0 0 0 0 0 0 0 0 0 0 0 0 0 0 0 0 0 0 0 0 0 0 0 0 0 0 0 0 0 0 0 0 0 0 0 0 0 0 0 1 0 0 0 0 0 0 0 0 0 0 0 0 0 0 0 0 0 0 0 0 0 0 0 0 0 0 1 0 0 0 0 0 0 0 2 4 0 181 255 249 252 253 255 254 254 253 253 254 254 253 253 254 253 255 253 253 253 254 254 254 255 255 254 255 254 253 254 254 254 255 253 254 253 254 253 253 254 253 254 254 255 254 253 254 253 254 254 255 253 254 253 254 254 253 254 255 254 254 253 253 255 252 254 255 254 255 253 254 253 254 255 254 254 254 254 253 253 253 254 254 254 254 254 255 253 253 254 254 253 255 255 255 255 255 255 255 255 255 255 255 255 255 255 255 255 255 255 255 255 255 255 255 255 255 255 255 255 255 255 255 255 255 255 255 255 255 255 255 255 255 255 255 255 255 255 255 255 255 255 255 255 255 255 255 
255 255 255 255 255 255 255 255 255 255 255 255 255 255 255 255 255 255 255 255 255 255 255 255 255 255 255 255 255 255 255 255 255 255 255 255 255 255 255 255 255 255 255 255 255 255 255 255 255 255 255 255 255 255 254 255 253 254 254 254 253 253 254 254 255 253 254 253 254 254 254 254 254 254 254 253 253 253 253 253 253 253 254 253 254 253 253 253 254 254 253 254 254 255 254 254 254 254 255 253 255 254 253 254 254 254 253 253 255 254 253 254 254 253 255 254 253 253 254 252 254 254 255 253 255 253 253 254 253 254 253 253 253 255 253 255 254 255 253 253 254 255 255 255 254 252 247 255 135 0 7 0 2 0 0 0 0 0 0 0 0 0 0 0 0 0 0 0 0 0 0 0 0 1 0 0 0 0 0 0 0 0 0 0 0 0 0 0 0 1 0 0 1 0 0 0 0 0 0 1 0 0 0 0 0 0 0 0 0 0 0 0 0 0 0 0 0 0 0 0 0 0 0 0 1 0 0 0 0 0 0 0 1 0 0 0 0 0 0 0 0 0 0 0 0 0 0 0 0 0 0 0 0 0 0 0 0 0 0 0 0 0 0 0 0 0 0 0 0 0 0 0 0 0 0 0 0 0 0 0 0 0 0 0 0 0 0 0 0 0 0 0 0 0 0 0 0 0 0 1 0 0 0 0 0 1 1 8 0 168 255 247 255 254 255 254 254 253 254 254 253 254 253 253 255 253 254 253 254 254 254 255 254 253 254 253 253 253 253 253 254 255 254 254 253 254 253 255 253 254 254 255 254 254 254 253 254 254 253 255 254 253 254 253 253 255 254 254 255 253 254 253 253 253 253 254 253 254 255 253 254 253 252 253 255 254 254 253 254 254 253 253 255 254 255 254 255 253 254 255 254 255 255 255 255 255 255 255 255 255 255 255 255 255 255 255 255 255 255 255 255 255 255 255 255 255 255 255 255 255 255 255 255 255 255 255 255 255 255 255 255 255 255 255 255 255 255 255 255 255 255 255 255 255 255 
255 255 255 255 255 255 255 255 255 255 255 255 255 255 255 255 255 255 255 255 255 255 255 255 255 255 255 255 255 255 255 255 255 255 255 255 255 255 255 255 255 255 255 255 255 255 255 255 255 255 255 255 255 255 253 254 254 253 253 255 253 253 253 254 253 254 254 253 255 253 255 254 255 254 254 253 253 253 254 253 254 253 254 254 254 253 253 253 254 253 253 254 254 254 254 255 253 254 255 254 254 255 253 253 254 254 253 254 253 253 253 254 254 254 254 252 253 253 254 253 254 253 255 255 253 254 253 254 254 255 253 254 254 255 254 255 252 255 253 253 255 254 255 254 254 248 255 127 0 6 0 1 0 0 0 0 0 0 0 0 0 0 0 0 0 0 1 0 0 0 0 0 0 0 0 0 0 0 0 0 0 0 0 0 0 0 0 0 0 0 0 0 0 1 0 0 0 0 0 0 0 0 0 0 0 0 0 0 0 0 0 0 0 0 0 0 0 0 0 0 0 0 0 0 0 0 0 0 0 0 0 0 1 0 0 0 1 0 0 0 0 0 0 0 0 0 0 0 0 0 0 0 0 0 0 0 0 0 0 0 0 0 0 0 0 0 1 0 0 0 0 0 0 0 0 0 0 0 1 0 0 0 0 0 0 0 0 0 0 0 0 0 0 0 0 0 0 0 0 0 0 0 0 0 0 0 0 0 8 0 163 255 250 255 255 254 253 254 255 253 253 253 253 254 253 254 253 254 254 254 254 253 255 254 253 253 254 254 253 253 254 253 253 254 253 254 254 255 253 254 253 254 254 253 255 253 254 254 254 253 254 254 255 254 254 253 254 253 255 255 254 254 254 253 253 254 253 254 255 254 254 253 253 253 253 255 252 254 253 254 255 254 254 253 254 253 254 255 254 254 254 255 255 255 255 255 255 255 255 255 255 255 255 255 255 255 255 255 255 255 255 255 255 255 255 255 255 255 255 255 255 255 255 255 255 255 255 255 255 255 255 255 255 255 255 255 255 255 255 255 255 255 255 255 255 
255 255 255 255 255 255 255 255 255 255 255 255 255 255 255 255 255 255 255 255 255 255 255 255 255 255 255 255 255 255 255 255 255 255 255 255 255 255 255 255 255 255 255 255 255 255 255 255 255 255 255 255 255 255 254 255 253 254 253 254 253 254 254 254 253 254 253 254 254 255 255 253 255 254 253 255 254 253 253 252 254 254 254 255 253 255 254 254 253 254 255 253 253 254 253 254 253 253 253 253 253 255 254 253 254 254 255 254 255 254 254 253 253 254 254 253 254 255 254 255 253 254 254 254 253 254 254 254 254 253 253 253 254 254 254 254 253 255 253 253 255 254 254 255 249 255 133 0 6 0 0 0 0 1 0 0 0 0 0 0 0 0 0 0 0 0 0 0 0 0 0 0 0 0 0 0 0 0 0 0 0 0 0 0 1 0 0 0 0 0 0 0 0 1 1 0 0 0 0 0 0 0 0 0 0 0 0 0 0 0 0 0 0 0 0 0 0 1 0 0 0 0 0 0 0 0 0 0 0 0 0 0 0 0 0 0 0 0 0 0 0 0 0 0 0 0 0 0 0 0 0 0 0 0 0 0 0 0 0 0 0 0 0 0 0 0 0 0 0 0 0 0 0 0 0 0 0 0 0 0 0 0 0 0 0 0 0 0 0 0 0 0 0 0 0 0 0 0 0 0 0 1 0 0 0 0 0 0 0 8 0 160 255 250 255 255 253 253 255 253 253 253 253 255 253 253 253 253 254 254 255 254 253 254 254 253 254 255 253 254 254 253 253 254 254 254 254 253 254 254 253 254 254 253 254 254 253 253 254 254 254 255 253 253 254 255 254 254 254 255 253 254 255 254 253 254 254 253 252 254 255 254 255 253 255 253 253 254 254 254 255 253 254 253 255 254 254 255 254 255 254 255 255 255 255 255 255 255 255 255 255 255 255 255 255 255 255 255 255 255 255 255 255 255 255 255 255 255 255 255 255 255 255 255 255 255 255 255 255 255 255 255 255 255 255 255 255 255 255 255 255 255 255 255 255 
255 255 255 255 255 255 255 255 255 255 255 255 255 255 255 255 255 255 255 255 255 255 255 255 255 255 255 255 255 255 255 255 255 255 255 255 255 255 255 255 255 255 255 255 255 255 255 255 255 255 255 255 255 255 255 255 253 254 255 254 254 255 253 254 254 255 255 255 254 255 254 253 254 255 253 254 253 253 253 253 253 255 254 253 254 253 253 254 254 255 254 253 253 253 253 255 253 253 254 253 255 254 253 253 254 253 255 254 254 255 255 253 255 253 253 255 253 255 255 253 253 254 253 254 255 253 254 253 254 253 254 254 255 255 253 254 255 254 254 254 253 254 255 251 255 140 0 5 0 0 0 0 0 0 1 0 0 0 1 0 0 0 0 0 0 0 0 0 0 0 0 0 0 0 0 0 0 0 0 0 0 0 0 0 0 0 0 0 0 0 0 1 0 0 0 0 0 0 0 0 0 0 0 0 0 0 0 0 0 0 0 0 0 0 0 0 0 0 0 1 0 0 0 0 0 0 0 0 0 0 0 0 0 0 0 0 0 0 0 0 0 0 0 0 0 0 0 0 0 0 0 0 0 0 0 0 0 0 0 0 0 0 0 0 0 0 0 0 0 0 0 0 0 0 0 0 0 0 0 0 0 0 0 0 0 0 0 0 0 0 0 0 0 0 0 0 0 0 0 0 0 0 0 0 0 0 0 0 0 0 7 0 161 255 252 254 252 253 255 253 253 254 253 254 255 253 253 254 254 254 254 253 254 254 254 254 255 255 254 254 253 253 254 252 254 253 253 254 253 255 253 253 253 255 254 255 254 253 254 253 254 253 254 253 253 255 255 253 254 254 253 254 254 253 254 254 255 253 253 253 253 253 253 253 255 253 254 254 254 254 254 253 254 254 254 253 254 254 254 255 255 255 255 255 255 255 255 255 255 255 255 255 255 255 255 255 255 255 255 255 255 255 255 255 255 255 255 255 255 255 255 255 255 255 255 255 255 255 255 255 255 255 255 255 255 255 255 255 255 255 255 255 255 255 255 
255 255 255 255 255 255 255 255 255 255 255 255 255 255 255 255 255 255 255 255 255 255 255 255 255 255 255 255 255 255 255 255 255 255 255 255 255 255 255 255 255 255 255 255 255 255 255 255 255 255 255 255 255 255 254 253 253 255 254 254 255 255 253 253 253 254 254 253 254 255 253 255 254 254 254 254 254 254 254 254 255 254 254 253 255 253 253 255 253 255 255 254 254 254 254 253 255 253 254 253 255 254 253 254 253 254 253 254 253 255 253 253 255 253 253 255 253 255 254 253 255 254 254 254 253 253 254 253 255 253 253 253 253 255 253 253 255 255 255 253 254 254 249 255 156 0 7 0 0 0 0 0 0 1 0 0 0 0 0 0 0 0 0 0 0 0 0 0 0 0 0 0 0 0 0 0 0 0 0 0 0 0 0 0 0 0 0 0 0 0 0 0 0 0 0 0 0 0 0 0 0 0 0 0 0 0 0 0 0 0 0 0 0 0 0 0 0 0 0 0 0 0 0 0 0 0 0 0 0 0 0 0 0 0 0 0 0 0 0 0 0 0 0 0 0 0 0 0 0 0 0 0 0 0 0 0 0 0 0 0 0 0 0 0 0 0 0 0 0 0 0 0 0 0 0 0 0 0 0 0 0 0 0 0 0 0 0 0 0 0 0 0 0 0 0 0 0 0 0 0 0 0 0 0 0 0 0 0 0 0 2 9 0 174 255 249 252 253 253 254 252 254 255 254 255 253 253 254 254 254 255 254 253 253 254 254 253 254 253 255 253 254 254 253 253 254 255 254 255 254 253 253 253 253 255 253 254 255 255 254 254 253 254 255 253 254 253 254 254 254 253 254 254 253 254 254 254 254 254 253 253 253 253 255 253 254 254 253 254 253 254 254 254 255 254 253 254 254 255 255 255 255 255 255 255 255 255 255 255 255 255 255 255 255 255 255 255 255 255 255 255 255 255 255 255 255 255 255 255 255 255 255 255 255 255 255 255 255 255 255 255 255 255 255 255 255 255 255 255 255 255 255 255 255 255 
255 255 255 255 255 255 255 255 255 255 255 255 255 255 255 255 255 255 255 255 255 255 255 255 255 255 255 255 255 255 255 255 255 255 255 255 255 255 255 255 255 255 255 255 255 255 255 255 255 255 255 255 255 255 254 253 255 253 254 255 254 253 254 254 254 254 255 253 254 253 253 255 255 253 253 254 254 254 254 253 254 254 255 253 254 253 253 254 253 254 254 255 254 253 253 253 255 254 253 254 253 254 254 254 253 254 255 254 253 255 253 253 253 254 253 255 253 253 254 253 253 254 253 254 253 254 254 255 254 253 255 253 253 253 253 254 253 255 254 253 252 253 254 176 0 7 0 0 0 0 0 1 0 0 0 0 1 0 0 0 0 0 0 0 0 0 0 0 0 0 0 0 0 0 0 0 0 0 0 0 0 0 0 0 0 0 0 0 0 0 0 0 0 0 0 0 0 0 0 0 0 0 0 0 0 0 0 0 0 0 0 0 1 0 0 0 0 0 0 0 0 0 0 0 0 0 0 0 0 0 0 0 0 0 0 0 0 0 0 0 0 0 0 0 1 0 0 0 0 0 0 1 0 0 0 0 0 0 0 0 0 0 0 0 0 0 1 1 0 0 0 0 0 0 0 0 0 1 0 0 0 1 0 0 0 0 0 0 0 0 0 0 0 0 0 0 0 0 0 0 0 0 0 0 0 0 0 0 0 0 1 3 8 0 177 254 249 252 253 253 254 255 255 255 253 253 253 255 253 253 253 253 253 253 254 253 255 254 253 255 253 254 254 255 253 255 254 253 255 253 254 255 254 253 253 253 255 254 253 253 254 253 253 253 253 254 253 254 254 254 253 255 254 254 253 255 253 254 254 255 253 253 253 254 254 253 254 253 254 253 253 254 254 255 254 254 253 254 255 253 254 255 255 255 255 255 255 255 255 255 255 255 255 255 255 255 255 255 255 255 255 255 255 255 255 255 255 255 255 255 255 255 255 255 255 255 255 255 255 255 255 255 255 255 255 255 255 255 255 255 255 255 255 255 255 
255 255 255 255 255 255 255 255 255 255 255 255 255 255 255 255 255 255 255 255 255 255 255 255 255 255 255 255 255 255 255 255 255 255 255 255 255 255 255 255 255 255 255 255 255 255 255 255 255 255 255 255 255 255 254 254 255 253 254 254 254 253 254 253 254 255 253 254 254 253 253 254 253 254 253 254 253 254 255 253 254 253 254 253 254 253 254 254 254 255 254 253 253 254 253 254 253 254 253 253 253 254 253 254 253 254 253 254 254 254 255 253 253 255 255 253 254 252 254 254 254 254 253 254 255 253 254 254 255 254 254 253 254 253 253 254 254 254 255 253 250 254 201 0 5 0 0 1 0 0 0 1 0 0 0 1 0 0 0 0 0 0 0 0 0 0 0 0 0 0 0 0 0 0 0 0 0 0 0 0 0 0 0 0 0 0 0 0 0 0 0 0 0 0 0 0 1 0 0 0 0 0 0 0 0 0 0 0 0 0 0 0 0 0 0 0 0 0 0 1 0 0 0 0 0 0 0 0 0 0 0 0 0 0 1 0 0 0 0 0 0 0 0 0 0 0 0 0 0 0 0 0 0 0 0 0 1 0 0 0 0 0 0 0 0 0 0 0 0 0 0 0 0 0 1 0 0 0 0 0 0 0 0 0 1 0 0 0 0 0 0 0 0 0 0 0 0 0 0 0 0 0 0 0 0 0 0 0 0 0 0 1 1 6 0 209 252 251 253 253 253 255 254 253 253 254 253 254 253 253 253 253 255 253 254 254 253 253 255 254 253 253 254 254 254 253 254 253 253 253 253 255 253 253 253 253 254 255 253 253 254 253 253 252 254 255 255 253 253 254 254 254 255 253 253 255 254 253 253 253 254 255 253 254 253 254 254 254 254 253 254 254 253 253 254 254 254 254 255 254 253 255 255 255 255 255 255 255 255 255 255 255 255 255 255 255 255 255 255 255 255 255 255 255 255 255 255 255 255 255 255 255 255 255 255 255 255 255 255 255 255 255 255 255 255 255 255 255 255 255 255 255 255 255 255 
255 255 255 255 255 255 255 255 255 255 255 255 255 255 255 255 255 255 255 255 255 255 255 255 255 255 255 255 255 255 255 255 255 255 255 255 255 255 255 255 255 255 255 255 255 255 255 255 255 255 255 255 255 255 254 253 255 254 255 253 255 253 253 253 253 254 254 253 254 254 255 253 255 254 254 253 253 254 254 254 255 253 254 253 253 253 254 254 253 254 254 253 253 255 254 254 253 254 253 253 254 253 253 254 255 254 254 255 253 253 253 254 254 255 254 253 253 253 253 253 255 254 254 253 253 254 255 253 253 255 254 255 254 254 254 254 255 254 255 255 251 204 0 5 0 0 0 0 0 0 0 0 0 0 0 0 0 0 0 0 0 0 0 0 0 0 0 0 0 0 0 0 0 0 0 0 0 0 0 0 0 0 0 0 0 0 0 0 0 0 0 0 0 0 0 0 1 0 0 0 1 0 0 0 0 0 0 0 0 0 0 0 0 1 1 0 0 0 0 0 0 0 0 0 0 0 0 0 0 0 0 0 0 0 0 0 0 0 0 0 0 0 0 0 0 0 1 0 0 0 0 0 0 0 0 0 0 0 0 0 0 0 0 0 0 0 0 0 0 0 0 0 0 0 0 0 0 0 0 0 0 0 0 0 0 0 0 0 0 0 0 0 1 0 0 0 0 0 0 0 0 0 0 1 0 0 0 0 0 1 0 0 0 0 4 0 220 252 255 254 254 255 255 253 253 253 255 253 253 254 254 254 254 255 253 254 255 254 253 255 254 254 254 253 254 254 254 254 253 254 254 254 253 255 254 252 254 254 254 254 254 255 253 253 253 253 253 254 254 254 255 253 255 252 254 254 253 253 253 254 254 253 254 253 254 254 253 253 253 254 255 253 253 253 254 255 255 254 255 254 254 255 255 255 255 255 255 255 255 255 255 255 255 255 255 255 255 255 255 255 255 255 255 255 255 255 255 255 255 255 255 255 255 255 255 255 255 255 255 255 255 255 255 255 255 255 255 255 255 255 255 255 255 255 255 
255 255 255 255 255 255 255 255 255 255 255 255 255 255 255 255 255 255 255 255 255 255 255 255 255 255 255 255 255 255 255 255 255 255 255 255 255 255 255 255 255 255 255 255 255 255 255 255 255 255 255 255 255 255 254 254 255 254 253 254 253 254 252 255 253 254 255 253 255 254 254 253 255 255 254 253 253 253 253 254 254 254 254 253 253 253 254 255 253 254 254 255 254 253 254 254 254 253 254 254 253 253 253 254 253 255 254 255 253 255 253 255 254 253 253 254 253 255 253 254 253 253 254 254 253 254 254 253 254 253 254 254 255 253 254 254 254 255 255 247 255 1 3 0 0 0 0 0 0 0 0 0 0 0 0 0 0 1 0 0 0 0 0 0 0 0 0 0 0 0 0 0 0 0 0 0 0 0 0 0 0 0 0 0 0 0 0 0 0 0 0 0 1 0 0 0 0 0 0 0 0 0 0 0 0 0 0 0 0 0 0 0 0 0 0 0 0 0 0 0 0 1 0 0 0 0 0 0 0 0 0 0 0 0 0 0 0 0 0 0 0 0 0 0 0 0 0 0 0 0 0 0 0 0 0 0 0 0 0 0 0 0 0 0 0 0 0 0 0 0 0 0 0 0 0 0 1 0 0 0 1 0 0 0 0 0 0 0 0 0 0 0 0 0 0 0 0 0 0 0 0 0 0 0 1 0 0 0 0 0 0 1 0 0 0 3 7 254 247 255 254 254 255 254 252 253 253 254 254 253 254 254 254 253 254 254 253 253 254 253 255 253 254 254 254 253 253 255 253 254 254 254 254 254 254 254 253 254 255 254 253 254 253 254 253 253 253 254 254 254 254 252 254 253 255 253 253 253 253 254 254 253 254 254 253 254 253 254 254 255 254 254 253 254 253 255 255 255 254 254 254 255 255 255 255 255 255 255 255 255 255 255 255 255 255 255 255 255 255 255 255 255 255 255 255 255 255 255 255 255 255 255 255 255 255 255 255 255 255 255 255 255 255 255 255 255 255 255 255 255 255 255 255 255 255 
255 255 255 255 255 255 255 255 255 255 255 255 255 255 255 255 255 255 255 255 255 255 255 255 255 255 255 255 255 255 255 255 255 255 255 255 255 255 255 255 255 255 255 255 255 255 255 255 255 255 255 255 255 255 255 253 253 253 254 254 253 254 253 253 253 254 254 253 253 254 254 253 253 253 253 253 255 253 253 253 253 255 253 253 254 253 253 254 254 253 253 254 254 254 253 255 253 253 253 254 253 253 253 254 254 254 253 254 254 254 254 254 254 253 253 253 254 253 253 254 253 254 254 253 254 254 253 253 253 253 254 255 254 253 254 253 253 255 249 255 31 3 1 0 0 0 0 0 0 0 0 0 0 0 0 1 1 0 0 0 0 0 0 0 0 0 0 0 0 1 0 0 0 0 0 0 0 0 0 0 0 0 0 0 0 0 0 0 0 0 0 0 0 1 0 0 0 0 0 0 0 0 0 0 0 0 0 0 0 0 0 0 0 0 0 0 0 0 0 0 0 0 0 0 0 0 0 0 0 0 0 0 0 0 0 0 0 0 0 0 0 0 0 0 0 0 0 0 0 0 0 0 0 0 1 0 1 0 0 0 0 0 0 0 0 0 0 0 0 0 0 0 0 0 1 0 0 0 1 0 0 0 0 0 0 0 0 0 0 0 0 0 0 0 0 0 0 0 0 0 0 0 0 0 0 0 0 0 1 0 0 0 0 0 0 0 2 43 255 248 255 254 253 253 253 254 254 255 253 254 253 254 254 253 254 254 255 254 253 254 253 253 254 253 254 253 254 255 253 254 254 254 255 254 254 253 253 254 254 254 253 254 255 255 253 254 254 254 254 254 255 254 254 255 253 253 253 254 253 254 254 254 254 254 254 254 255 253 253 253 255 254 254 253 254 253 254 255 255 254 254 255 255 255 255 255 255 255 255 255 255 255 255 255 255 255 255 255 255 255 255 255 255 255 255 255 255 255 255 255 255 255 255 255 255 255 255 255 255 255 255 255 255 255 255 255 255 255 255 255 255 255 255 255 255 
255 255 255 255 255 255 255 255 255 255 255 255 255 255 255 255 255 255 255 255 255 255 255 255 255 255 255 255 255 255 255 255 255 255 255 255 255 255 255 255 255 255 255 255 255 255 255 255 255 255 255 255 255 255 253 254 252 254 255 254 254 254 253 252 255 255 254 253 253 255 254 254 253 252 254 254 255 253 255 254 254 254 253 253 255 253 254 253 254 253 252 254 253 254 254 253 253 253 253 253 255 253 254 253 254 254 254 253 254 254 254 254 253 255 254 253 254 253 253 255 253 253 254 253 255 255 254 255 253 254 253 255 254 255 253 254 252 244 255 46 2 2 0 0 0 0 0 0 0 0 0 0 0 0 0 0 0 0 0 0 0 0 0 0 0 0 0 0 0 0 0 0 0 0 0 0 0 1 0 0 0 0 0 0 0 0 0 0 0 0 0 0 0 0 0 0 0 0 0 0 0 0 0 0 0 0 1 0 0 0 0 0 0 0 0 0 0 0 0 0 0 0 1 0 0 0 0 0 0 0 0 0 0 0 0 0 0 0 0 0 0 0 0 1 0 0 0 0 0 0 0 0 0 0 0 0 0 0 0 0 0 0 0 1 0 0 0 0 0 0 0 0 0 0 0 0 0 0 0 0 0 0 0 1 0 0 0 0 0 0 0 0 0 0 0 0 1 0 0 0 0 0 0 0 0 0 0 0 0 0 0 0 0 0 0 0 4 1 73 255 248 253 253 253 254 255 255 255 253 254 254 254 254 253 255 254 253 253 253 255 252 253 255 253 254 253 253 253 254 253 254 253 254 253 254 253 254 253 254 254 252 254 254 253 253 254 253 254 253 254 253 255 253 255 253 255 253 253 253 253 254 255 253 254 255 255 253 254 254 253 253 254 254 254 254 253 254 254 254 254 254 255 255 255 255 255 255 255 255 255 255 255 255 255 255 255 255 255 255 255 255 255 255 255 255 255 255 255 255 255 255 255 255 255 255 255 255 255 255 255 255 255 255 255 255 255 255 255 255 255 255 255 255 255 255 
255 255 255 255 255 255 255 255 255 255 255 255 255 255 255 255 255 255 255 255 255 255 255 255 255 255 255 255 255 255 255 255 255 255 255 255 255 255 255 255 255 255 255 255 255 255 255 255 255 255 255 255 255 255 253 254 254 254 255 253 255 254 254 254 253 254 253 253 255 253 254 255 254 254 253 255 253 254 254 254 253 253 254 254 255 254 254 254 254 254 254 255 254 255 254 254 254 254 253 255 254 253 254 252 254 253 253 253 253 254 253 254 253 254 253 254 253 253 254 253 254 252 254 254 254 253 255 255 255 254 254 254 255 255 254 252 246 255 77 0 3 1 1 1 0 0 0 0 0 0 0 0 0 0 0 0 0 0 0 0 0 0 0 0 0 0 0 0 0 0 0 0 0 0 0 0 0 0 0 0 0 0 0 0 0 0 0 0 0 0 0 0 0 0 0 0 0 0 0 0 0 0 0 0 0 0 0 0 0 0 0 0 0 0 0 0 0 0 0 0 1 0 0 0 0 0 0 0 0 0 0 0 0 0 0 0 0 0 0 0 0 1 0 0 0 0 0 0 0 0 0 0 0 0 0 0 0 0 0 0 0 0 0 0 0 0 0 0 0 0 0 0 0 0 0 0 0 0 0 0 1 0 0 0 0 0 0 0 0 0 0 0 0 0 0 0 0 0 0 0 0 0 0 0 0 0 0 0 0 0 0 0 0 0 0 1 1 4 0 96 255 248 251 252 254 255 255 255 254 253 254 253 254 254 255 254 253 253 253 254 254 254 255 254 255 253 252 253 254 253 254 254 254 254 254 254 254 254 254 253 254 255 253 253 253 254 254 254 253 254 254 253 253 253 254 253 254 254 253 254 254 254 254 254 254 254 254 254 254 254 252 253 254 255 255 254 255 254 254 254 254 255 255 255 255 255 255 255 255 255 255 255 255 255 255 255 255 255 255 255 255 255 255 255 255 255 255 255 255 255 255 255 255 255 255 255 255 255 255 255 255 255 255 255 255 255 255 255 255 255 255 255 255 255 255 
255 255 255 255 255 255 255 255 255 255 255 255 255 255 255 255 255 255 255 255 255 255 255 255 255 255 255 255 255 255 255 255 255 255 255 255 255 255 255 255 255 255 255 255 255 255 255 255 255 255 255 255 255 255 253 254 255 253 254 252 255 253 255 255 254 254 255 254 253 253 255 254 255 253 252 254 253 253 254 253 253 253 254 254 253 254 254 254 253 254 253 254 254 254 254 253 254 253 253 255 254 254 254 254 254 255 253 254 253 254 253 254 254 253 253 255 253 253 254 254 254 253 253 254 254 253 253 253 254 255 253 255 255 254 255 249 255 124 0 3 1 1 0 0 0 0 0 0 0 0 0 0 0 0 0 0 0 0 0 0 0 0 0 0 0 0 0 0 0 1 0 0 0 0 0 0 0 0 0 0 0 0 0 0 0 0 0 0 0 0 0 0 0 0 0 0 0 0 0 0 0 0 0 0 0 0 0 0 0 0 0 0 0 0 0 1 1 0 0 0 1 0 0 0 0 0 0 0 0 0 0 0 1 0 0 0 0 0 0 0 0 0 1 0 0 0 1 0 0 0 0 0 0 0 0 0 0 0 0 0 0 2 0 0 0 0 0 0 0 0 0 0 0 0 0 0 0 0 0 0 0 0 0 0 0 0 0 0 0 1 0 1 0 0 0 0 0 0 0 0 0 0 0 0 0 0 0 0 0 0 0 0 0 0 0 1 0 0 3 0 174 255 249 254 255 255 254 253 255 253 255 253 254 253 254 253 254 254 254 254 253 255 253 253 255 253 254 253 253 253 254 254 254 254 254 253 252 255 254 253 255 254 253 253 255 254 252 255 253 253 253 254 253 254 255 252 254 255 252 253 254 254 255 254 253 254 253 253 253 253 252 254 253 253 255 254 254 253 254 255 255 255 255 255 255 255 255 255 255 255 255 255 255 255 255 255 255 255 255 255 255 255 255 255 255 255 255 255 255 255 255 255 255 255 255 255 255 255 255 255 255 255 255 255 255 255 255 255 255 255 255 255 255 255 255 
255 255 255 255 255 255 255 255 255 255 255 255 255 255 255 255 255 255 255 255 255 255 255 255 255 255 255 255 255 255 255 255 255 255 255 255 255 255 255 255 255 255 255 255 255 255 255 255 255 255 255 255 255 255 253 254 254 254 253 254 254 253 255 255 253 254 255 255 253 254 254 253 255 254 254 253 254 253 253 254 254 254 254 255 253 253 254 254 254 254 253 254 253 254 254 253 255 253 254 254 255 253 255 253 254 254 253 253 254 254 253 253 253 253 254 253 254 254 253 255 254 253 252 254 255 253 253 253 254 253 254 254 254 255 252 255 175 0 5 0 0 0 0 0 0 0 0 0 0 0 0 0 0 0 0 0 0 0 0 0 0 0 0 0 0 0 0 0 0 0 0 0 0 0 0 0 0 0 0 0 0 0 0 0 0 0 0 0 0 0 0 0 0 0 0 0 0 0 0 0 0 0 0 0 0 0 0 0 0 0 0 0 0 0 0 0 0 0 0 0 0 0 0 0 0 0 0 0 0 0 1 0 0 0 0 0 0 0 0 0 0 0 0 0 0 0 0 0 0 0 1 0 0 0 0 0 0 0 0 0 0 0 1 0 0 0 0 0 0 0 0 0 0 0 0 0 0 0 0 0 0 1 0 1 1 0 0 0 0 0 0 0 0 0 0 0 0 0 0 0 0 0 0 0 0 0 0 0 0 0 0 0 0 0 0 0 0 0 0 6 0 189 254 254 255 255 254 253 253 253 253 254 255 254 253 254 254 253 255 253 253 255 253 253 254 254 254 253 254 252 254 254 254 253 254 253 254 254 254 254 253 253 254 253 255 254 253 253 254 254 253 255 254 253 254 254 253 254 254 253 254 253 254 253 254 253 253 254 254 254 254 255 254 253 254 253 254 253 254 253 254 255 255 255 255 255 255 255 255 255 255 255 255 255 255 255 255 255 255 255 255 255 255 255 255 255 255 255 255 255 255 255 255 255 255 255 255 255 255 255 255 255 255 255 255 255 255 255 255 255 255 255 255 255 255 
255 255 255 255 255 255 255 255 255 255 255 255 255 255 255 255 255 255 255 255 255 255 255 255 255 255 255 255 255 255 255 255 255 255 255 255 255 255 255 255 255 255 255 255 255 255 255 255 255 255 255 255 255 255 253 253 255 253 254 254 253 254 253 254 254 253 253 254 253 254 254 254 255 254 254 253 254 254 253 254 254 254 254 254 254 254 253 253 253 255 253 254 253 254 253 253 253 254 253 254 255 254 253 253 254 255 253 253 255 254 254 254 253 254 253 254 254 254 253 255 255 253 254 253 254 254 254 254 254 253 254 252 253 254 254 177 0 4 0 0 0 0 0 0 0 0 1 0 0 0 0 0 0 0 0 0 0 0 0 0 0 0 0 0 0 0 0 0 0 0 0 0 0 0 0 0 0 0 0 0 0 0 0 0 0 0 0 0 0 0 0 0 0 0 0 0 0 0 0 0 0 0 0 0 0 0 0 0 0 0 0 0 0 0 0 0 0 0 0 0 0 0 0 0 0 0 0 0 0 0 0 0 0 0 0 0 0 0 0 0 1 0 0 0 0 0 0 0 0 0 0 0 0 0 0 0 0 0 0 0 0 0 0 0 0 0 0 0 0 0 0 0 0 0 0 0 0 0 0 0 0 1 0 0 0 0 0 0 0 0 0 0 0 0 0 0 0 0 0 0 0 0 0 0 0 0 0 0 0 0 0 0 0 0 0 0 0 1 0 0 4 0 247 249 255 255 252 252 254 254 253 254 255 255 253 254 253 253 254 253 254 255 254 253 255 254 254 254 253 254 254 254 254 254 253 254 255 253 254 254 253 254 253 254 254 254 255 253 253 255 254 253 255 254 253 255 252 253 254 255 254 254 254 254 255 253 254 253 253 253 255 255 253 255 254 253 255 255 255 254 253 255 255 255 255 255 255 255 255 255 255 255 255 255 255 255 255 255 255 255 255 255 255 255 255 255 255 255 255 255 255 255 255 255 255 255 255 255 255 255 255 255 255 255 255 255 255 255 255 255 255 255 255 255 255 
255 255 255 255 255 255 255 255 255 255 255 255 255 255 255 255 255 255 255 255 255 255 255 255 255 255 255 255 255 255 255 255 255 255 255 255 255 255 255 255 255 255 255 255 255 255 255 255 255 255 255 255 255 255 253 254 253 253 254 254 253 254 254 253 254 254 253 254 253 253 255 253 254 254 255 254 254 253 255 253 255 253 255 254 253 255 254 253 254 254 254 254 253 253 253 253 253 254 254 254 254 255 254 254 253 255 253 254 252 253 254 255 254 254 254 255 254 254 253 255 253 254 253 253 253 255 255 254 255 254 253 252 251 252 250 1 7 0 0 0 0 0 0 0 0 0 0 0 0 0 0 0 0 0 0 0 0 0 0 0 0 0 0 0 0 0 0 0 0 0 0 0 0 0 0 0 0 0 0 0 0 0 0 0 0 0 0 0 0 0 0 0 0 0 0 0 0 0 0 0 0 0 0 0 0 0 0 0 0 0 0 1 0 0 0 0 0 0 0 0 0 0 0 0 0 0 0 0 0 0 0 0 0 0 0 0 0 0 0 1 1 1 1 0 0 0 0 0 0 0 0 0 0 0 0 0 0 0 0 0 0 0 0 0 0 0 0 0 0 0 0 0 0 0 0 0 0 0 0 0 0 0 0 0 0 0 0 0 0 0 1 0 0 0 0 0 0 0 0 0 0 0 0 0 0 0 0 0 0 0 0 0 0 1 0 0 0 0 0 2 0 2 25 255 249 253 252 253 253 255 255 255 255 253 253 254 254 253 254 254 253 253 254 253 253 253 253 255 253 254 255 253 254 253 254 254 253 254 254 253 253 255 252 254 255 254 255 253 254 253 255 253 253 253 254 253 254 254 253 254 254 254 253 254 255 253 253 254 254 253 255 255 253 255 254 254 254 253 254 253 254 255 255 255 255 255 255 255 255 255 255 255 255 255 255 255 255 255 255 255 255 255 255 255 255 255 255 255 255 255 255 255 255 255 255 255 255 255 255 255 255 255 255 255 255 255 255 255 255 255 255 255 255 255 255 
255 255 255 255 255 255 255 255 255 255 255 255 255 255 255 255 255 255 255 255 255 255 255 255 255 255 255 255 255 255 255 255 255 255 255 255 255 255 255 255 255 255 255 255 255 255 255 255 255 255 255 255 255 255 254 254 253 254 254 255 254 254 255 255 253 254 254 255 253 255 253 254 254 254 253 255 254 253 254 254 253 253 255 254 253 254 254 253 255 253 255 254 253 253 254 254 254 254 255 254 253 253 254 254 254 252 253 254 253 254 253 253 255 254 255 254 254 254 254 255 253 254 253 254 254 255 254 255 255 254 254 254 249 247 17 4 2 1 0 0 0 0 0 0 0 0 0 0 0 0 0 0 0 0 0 0 0 0 0 0 0 0 0 0 0 0 0 0 0 0 0 0 0 0 0 0 0 0 0 0 0 0 0 0 0 0 0 0 0 0 0 0 0 0 0 0 0 0 0 0 0 0 0 0 0 0 0 0 0 0 0 0 0 0 0 0 0 0 0 0 0 0 0 0 0 0 0 0 1 0 0 0 0 0 0 0 0 1 0 1 0 0 0 0 0 0 0 0 0 0 0 0 0 1 0 0 0 0 0 0 0 0 0 0 0 0 0 0 0 0 0 0 0 0 0 0 0 0 0 0 0 0 0 0 0 0 0 0 0 0 0 0 0 0 0 0 0 0 0 0 0 0 0 0 0 0 0 0 0 0 0 0 0 1 0 0 0 0 0 0 0 2 1 51 255 248 253 254 254 255 254 255 254 253 253 254 254 253 255 252 253 254 253 253 254 253 254 253 254 253 254 253 253 254 254 254 253 255 254 254 254 254 254 254 255 254 253 254 254 254 253 254 253 254 254 254 255 254 254 252 254 252 254 254 255 254 253 255 254 254 254 254 253 254 254 255 254 253 255 253 255 255 255 255 255 255 255 255 255 255 255 255 255 255 255 255 255 255 255 255 255 255 255 255 255 255 255 255 255 255 255 255 255 255 255 255 255 255 255 255 255 255 255 255 255 255 255 255 255 255 255 255 255 255 255 
255 255 255 255 255 255 255 255 255 255 255 255 255 255 255 255 255 255 255 255 255 255 255 255 255 255 255 255 255 255 255 255 255 255 255 255 255 255 255 255 255 255 255 255 255 255 255 255 255 255 255 255 255 255 255 254 253 255 255 254 253 255 253 255 253 254 255 254 254 253 253 255 254 255 253 253 254 254 253 254 252 254 254 253 254 254 255 253 253 254 253 254 254 253 255 254 254 254 255 254 255 253 255 253 254 254 254 253 253 254 252 254 255 253 255 254 254 253 255 254 253 254 255 254 254 254 254 255 255 255 255 248 254 18 2 3 1 0 0 0 1 0 0 0 0 0 0 0 0 0 0 0 0 0 0 0 0 0 0 0 0 0 0 0 0 0 0 0 0 0 0 0 0 0 0 0 0 1 0 0 0 0 0 0 0 0 0 0 0 0 0 0 0 0 0 0 0 0 0 0 0 0 0 0 0 0 1 0 1 0 0 0 0 0 0 0 0 0 0 0 0 0 0 0 0 0 0 0 0 0 0 0 0 0 0 0 0 0 1 0 0 0 0 0 0 0 0 0 0 0 0 0 0 0 0 0 0 0 0 0 0 0 0 0 0 0 0 0 0 0 0 0 0 0 0 0 0 0 0 0 0 0 0 0 0 0 0 0 0 0 0 0 0 0 0 0 0 0 0 0 0 0 0 0 0 0 0 0 0 0 0 0 0 0 0 1 0 0 0 0 0 1 4 0 95 255 247 255 255 255 255 255 253 254 253 253 253 254 255 253 255 253 254 254 254 254 254 253 254 255 252 254 253 255 254 254 253 254 254 254 255 253 255 255 254 255 254 254 253 253 253 253 253 255 253 255 253 254 253 253 255 254 254 254 253 254 255 253 253 254 254 253 253 254 255 254 255 253 255 254 254 255 255 255 255 255 255 255 255 255 255 255 255 255 255 255 255 255 255 255 255 255 255 255 255 255 255 255 255 255 255 255 255 255 255 255 255 255 255 255 255 255 255 255 255 255 255 255 255 255 255 255 255 255 255 
255 255 255 255 255 255 255 255 255 255 255 255 255 255 255 255 255 255 255 255 255 255 255 255 255 255 255 255 255 255 255 255 255 255 255 255 255 255 255 255 255 255 255 255 255 255 255 255 255 255 255 255 255 255 253 254 253 254 254 254 254 253 253 254 255 254 254 253 255 253 254 253 254 255 254 252 253 252 254 254 253 254 254 253 254 253 255 255 253 254 253 254 255 253 255 254 253 255 253 254 255 255 252 254 253 254 255 253 254 253 253 253 254 254 254 255 253 255 253 252 254 253 255 253 254 254 253 253 254 255 250 255 99 0 1 0 0 1 0 0 0 0 0 0 0 0 0 0 0 0 0 0 0 0 0 0 0 0 0 0 0 0 0 0 0 0 0 0 0 0 0 0 0 0 0 0 0 0 0 0 0 0 0 0 0 0 0 0 0 0 0 0 0 0 0 0 0 0 0 0 0 0 0 0 0 0 0 0 0 0 0 0 0 0 0 0 0 0 0 0 0 0 0 0 0 0 0 0 0 0 0 0 0 0 0 0 0 0 0 1 0 0 0 0 0 0 0 0 0 0 0 0 0 0 0 0 0 0 0 0 0 0 0 0 0 0 0 0 0 0 0 0 0 0 0 0 0 0 0 0 0 0 0 0 0 0 0 0 0 0 0 0 0 0 0 0 0 0 0 0 0 0 0 0 0 0 0 0 1 0 0 0 0 0 0 1 0 0 0 0 0 0 0 4 0 131 255 252 254 253 253 254 253 254 254 253 255 254 255 252 254 253 254 254 253 255 254 254 255 255 253 254 254 255 253 255 253 255 255 253 254 253 254 255 254 254 253 255 253 253 253 254 253 252 255 254 253 254 253 255 254 254 255 254 253 254 255 253 254 254 253 254 253 254 254 254 254 254 254 254 254 255 255 255 255 255 255 255 255 255 255 255 255 255 255 255 255 255 255 255 255 255 255 255 255 255 255 255 255 255 255 255 255 255 255 255 255 255 255 255 255 255 255 255 255 255 255 255 255 255 255 255 255 255 255 
255 255 255 255 255 255 255 255 255 255 255 255 255 255 255 255 255 255 255 255 255 255 255 255 255 255 255 255 255 255 255 255 255 255 255 255 255 255 255 255 255 255 255 255 255 255 255 255 255 255 255 255 255 255 253 254 254 254 253 254 254 253 255 254 254 253 255 253 254 253 253 254 254 253 253 253 254 253 254 255 254 253 255 253 254 254 253 253 254 254 252 255 252 254 253 254 254 254 253 254 253 254 253 254 253 253 255 254 255 253 254 254 255 253 253 255 254 255 253 254 254 254 254 255 255 254 253 253 253 248 255 101 0 3 0 0 0 0 0 0 0 0 0 0 0 0 0 0 1 0 0 0 0 0 0 0 0 0 0 0 0 0 0 0 0 0 0 0 0 0 0 0 0 0 1 0 0 0 0 1 0 0 0 0 0 0 0 0 0 0 0 0 0 0 0 0 0 0 0 0 0 0 0 0 0 0 0 0 0 0 0 0 0 0 0 0 0 0 0 1 0 0 0 0 0 0 0 0 0 0 0 0 0 0 0 0 0 0 0 0 0 0 0 0 0 0 0 0 0 0 0 0 0 0 0 0 0 0 0 0 0 0 0 0 0 0 0 0 0 0 0 1 0 0 0 0 0 0 0 1 0 0 0 0 0 0 0 0 0 0 0 0 0 0 0 0 0 0 0 0 0 0 0 0 0 0 0 0 0 0 0 0 0 0 0 0 0 0 0 0 1 0 0 0 5 0 212 254 252 252 253 253 253 253 254 254 255 253 254 253 253 255 252 252 254 253 255 253 255 255 254 255 252 253 254 254 253 253 255 253 255 253 255 254 253 253 253 253 253 253 255 255 253 253 255 255 255 253 254 254 254 254 253 253 254 254 252 254 253 253 253 253 253 255 254 254 254 255 254 253 253 255 255 255 255 255 255 255 255 255 255 255 255 255 255 255 255 255 255 255 255 255 255 255 255 255 255 255 255 255 255 255 255 255 255 255 255 255 255 255 255 255 255 255 255 255 255 255 255 255 255 255 255 255 255 
255 255 255 255 255 255 255 255 255 255 255 255 255 255 255 255 255 255 255 255 255 255 255 255 255 255 255 255 255 255 255 255 255 255 255 255 255 255 255 255 255 255 255 255 255 255 255 255 255 255 255 255 255 255 254 254 253 255 254 253 255 254 255 255 255 253 254 255 253 254 252 253 254 253 253 254 254 255 253 254 253 253 253 254 254 254 253 255 253 255 253 255 253 254 252 254 255 254 254 253 254 253 253 254 254 253 254 255 254 253 254 255 253 253 253 255 255 253 253 254 254 254 253 255 254 254 253 253 251 255 112 0 7 1 0 0 0 0 0 0 0 0 0 0 0 0 0 0 0 0 0 0 0 0 0 0 0 0 0 0 0 0 0 0 0 0 0 0 0 0 1 0 0 0 0 0 0 0 1 0 0 0 0 0 0 0 0 0 0 0 0 0 0 0 0 0 0 0 0 1 0 0 0 0 0 0 0 0 1 0 0 0 0 0 0 0 1 0 0 0 0 0 0 0 0 0 0 0 0 0 0 0 0 0 1 0 0 0 0 0 0 0 0 0 0 0 1 0 0 0 0 0 0 0 0 0 0 0 0 0 0 0 0 0 0 0 0 0 0 0 0 0 0 0 0 0 0 0 0 0 0 0 0 0 0 0 0 0 0 0 0 0 0 0 0 0 0 0 0 0 0 0 0 0 0 0 0 0 0 0 0 0 0 0 0 0 0 0 0 0 0 0 0 0 0 4 0 220 252 251 253 252 253 254 255 254 253 253 253 254 254 252 254 253 253 253 255 253 254 253 254 254 253 253 254 253 254 253 253 255 254 254 255 255 254 254 253 253 254 253 255 252 254 253 255 254 253 253 254 254 254 254 253 253 253 255 252 253 254 254 253 254 253 254 254 253 255 254 253 254 254 255 255 255 255 255 255 255 255 255 255 255 255 255 255 255 255 255 255 255 255 255 255 255 255 255 255 255 255 255 255 255 255 255 255 255 255 255 255 255 255 255 255 255 255 255 255 255 255 255 255 255 255 255 255 
255 255 255 255 255 255 255 255 255 255 255 255 255 255 255 255 255 255 255 255 255 255 255 255 255 255 255 255 255 255 255 255 255 255 255 255 255 255 255 255 255 255 255 255 255 255 255 255 255 255 255 255 255 255 253 254 253 253 254 254 254 254 253 254 253 253 254 253 253 254 253 253 254 255 254 254 254 254 253 255 254 255 254 254 252 254 254 254 253 254 254 253 254 253 253 254 254 253 255 253 255 253 253 253 254 254 253 253 253 254 253 254 254 253 253 254 254 253 254 254 254 255 253 253 254 255 254 249 255 182 0 6 1 1 0 0 0 0 0 0 0 0 0 0 0 0 0 0 0 0 0 0 0 0 0 0 0 0 0 0 0 0 0 0 0 0 0 0 0 0 0 0 0 1 0 0 0 0 0 0 0 0 0 0 0 0 0 0 0 0 0 0 0 0 0 0 0 0 0 0 0 0 0 0 0 0 0 0 0 0 0 0 0 0 0 0 0 0 0 0 0 0 0 0 0 1 0 0 0 0 0 0 0 0 0 0 1 0 0 0 0 0 0 0 0 0 0 0 0 0 0 0 0 0 0 0 0 0 0 0 0 0 0 1 0 0 0 0 0 0 0 0 0 0 0 0 0 0 0 0 0 0 0 0 0 0 0 0 0 0 0 0 0 0 1 0 0 0 0 0 0 0 0 0 0 0 0 0 0 0 0 0 0 0 0 0 0 0 0 0 0 0 0 0 0 1 4 6 242 251 254 253 253 254 254 255 254 253 253 254 253 253 254 254 253 253 254 254 254 255 254 253 254 254 253 254 254 252 254 253 255 253 253 254 254 254 253 254 253 253 255 253 254 254 253 254 254 254 253 254 255 254 253 253 253 254 253 253 254 253 255 254 254 253 255 254 253 254 253 254 254 255 255 255 255 255 255 255 255 255 255 255 255 255 255 255 255 255 255 255 255 255 255 255 255 255 255 255 255 255 255 255 255 255 255 255 255 255 255 255 255 255 255 255 255 255 255 255 255 255 255 255 255 255 255 
255 255 255 255 255 255 255 255 255 255 255 255 255 255 255 255 255 255 255 255 255 255 255 255 255 255 255 255 255 255 255 255 255 255 255 255 255 255 255 255 255 255 255 255 255 255 255 255 255 255 255 255 255 255 253 254 253 254 253 255 253 254 254 253 253 255 255 255 253 254 255 253 253 253 254 253 253 253 254 253 253 255 253 253 253 254 253 254 254 253 254 254 253 255 253 254 254 254 254 253 253 254 255 254 254 254 253 253 254 255 254 254 253 252 254 254 254 253 253 255 254 254 254 253 255 255 254 254 181 0 6 0 0 0 1 0 0 0 0 0 0 0 0 0 0 0 0 0 0 0 0 0 0 0 0 0 0 0 0 0 0 0 0 0 0 0 0 0 0 0 0 0 0 1 0 0 0 0 0 0 0 0 0 0 0 0 0 0 0 0 0 0 0 0 0 0 0 0 0 0 0 0 0 0 0 0 0 0 0 0 0 0 0 0 0 0 0 0 0 0 0 0 0 0 0 0 0 0 0 0 0 0 0 0 0 0 0 0 0 0 0 0 0 0 0 0 0 0 0 0 0 0 0 0 0 0 0 0 0 0 0 0 0 0 0 0 0 0 0 0 1 1 0 0 1 0 0 0 0 0 0 0 0 0 0 0 0 0 0 0 0 0 0 0 0 0 0 0 0 0 0 0 0 0 1 0 0 0 0 0 0 0 0 0 0 0 1 0 0 0 0 0 0 1 0 0 0 4 9 249 252 255 255 254 255 254 254 253 254 253 254 253 253 253 253 254 255 255 253 254 254 253 255 254 255 255 254 252 254 253 255 253 254 254 255 253 253 254 253 255 252 253 253 254 255 254 254 254 253 255 255 254 254 254 254 255 254 253 254 253 253 254 254 253 255 253 254 254 254 254 254 255 255 255 255 255 255 255 255 255 255 255 255 255 255 255 255 255 255 255 255 255 255 255 255 255 255 255 255 255 255 255 255 255 255 255 255 255 255 255 255 255 255 255 255 255 255 255 255 255 255 255 255 255 255 
255 255 255 255 255 255 255 255 255 255 255 255 255 255 255 255 255 255 255 255 255 255 255 255 255 255 255 255 255 255 255 255 255 255 255 255 255 255 255 255 255 255 255 255 255 255 255 255 255 255 255 255 255 255 254 253 253 254 254 254 254 254 254 254 254 253 254 253 255 253 253 253 253 253 254 255 253 253 253 255 253 254 253 254 254 253 255 254 254 253 255 253 253 254 253 254 255 254 255 253 254 253 253 254 254 254 254 254 254 254 255 254 254 253 254 253 253 255 253 255 254 254 253 253 252 255 250 252 12 2 0 0 0 0 0 0 0 0 0 0 0 0 0 0 0 0 0 0 0 0 0 0 0 0 0 0 0 0 0 0 0 0 0 0 0 0 0 0 0 0 0 1 0 0 1 0 0 0 0 0 0 0 0 0 0 0 0 0 0 0 0 1 0 0 0 0 0 0 0 0 0 0 0 0 0 0 0 0 0 0 0 0 0 0 0 0 0 0 0 0 0 0 0 0 0 0 0 0 0 0 0 0 0 0 0 0 0 0 0 0 0 0 0 0 0 0 0 0 0 0 0 0 0 0 0 0 0 0 0 0 0 0 0 0 0 0 0 0 0 0 0 0 0 0 0 0 0 0 0 0 0 0 0 0 0 0 0 0 0 0 0 0 0 0 0 0 0 0 0 0 0 1 0 0 0 0 0 0 0 0 0 0 0 0 0 0 0 0 0 0 0 0 0 0 0 0 0 0 2 68 255 249 255 255 254 253 253 253 254 253 253 253 253 253 254 254 255 255 254 254 253 255 253 254 255 253 253 253 254 255 253 254 253 254 255 254 254 254 253 255 254 254 253 254 254 253 253 254 255 253 253 254 255 253 255 254 254 253 254 254 253 253 253 254 254 253 255 254 253 254 254 255 255 255 255 255 255 255 255 255 255 255 255 255 255 255 255 255 255 255 255 255 255 255 255 255 255 255 255 255 255 255 255 255 255 255 255 255 255 255 255 255 255 255 255 255 255 255 255 255 255 255 255 255 255 
255 255 255 255 255 255 255 255 255 255 255 255 255 255 255 255 255 255 255 255 255 255 255 255 255 255 255 255 255 255 255 255 255 255 255 255 255 255 255 255 255 255 255 255 255 255 255 255 255 255 255 255 255 255 254 253 254 254 255 254 253 254 253 254 253 254 255 253 254 254 254 254 255 253 254 253 253 253 253 255 254 254 254 255 253 253 254 253 254 253 254 253 253 254 254 255 253 254 255 254 253 253 253 253 253 254 254 255 254 254 255 254 254 255 253 253 254 253 254 255 253 254 254 255 252 251 255 26 1 1 0 0 0 0 0 0 0 0 0 0 0 0 0 0 0 0 0 0 0 0 0 0 0 0 0 0 0 0 0 0 0 0 0 0 0 0 0 0 0 0 0 0 0 0 0 0 0 0 0 0 0 0 0 0 0 0 0 0 0 0 0 0 0 0 0 0 0 0 0 0 0 0 1 0 0 0 0 0 0 0 0 0 0 0 0 0 0 0 0 0 0 0 0 0 0 0 0 1 1 0 0 0 0 0 0 0 0 0 1 0 0 0 0 0 0 0 0 0 0 0 0 0 0 0 0 0 0 0 0 0 0 0 0 1 0 0 0 0 0 0 0 0 1 0 1 0 0 0 0 0 0 0 0 0 0 0 0 0 0 0 0 0 0 0 0 0 0 0 0 0 0 0 0 0 0 0 0 0 0 0 0 0 1 0 0 0 0 0 0 0 0 0 0 0 0 0 0 0 4 0 73 255 252 254 253 252 252 254 254 254 253 253 254 253 255 254 254 253 254 255 254 255 253 253 253 253 253 253 254 253 254 253 254 255 253 254 253 254 253 253 254 253 254 253 255 253 253 253 254 253 253 253 255 253 254 254 254 254 254 255 253 253 253 254 253 254 255 255 254 255 254 255 255 255 255 255 255 255 255 255 255 255 255 255 255 255 255 255 255 255 255 255 255 255 255 255 255 255 255 255 255 255 255 255 255 255 255 255 255 255 255 255 255 255 255 255 255 255 255 255 255 255 255 255 255 
255 255 255 255 255 255 255 255 255 255 255 255 255 255 255 255 255 255 255 255 255 255 255 255 255 255 255 255 255 255 255 255 255 255 255 255 255 255 255 255 255 255 255 255 255 255 255 255 255 255 255 255 255 255 253 254 254 253 253 255 252 255 253 254 254 255 253 253 254 255 255 253 254 254 254 254 254 254 254 253 253 253 253 253 253 254 254 254 254 254 253 254 254 254 254 254 253 253 254 254 254 253 253 253 253 253 253 254 254 253 254 254 254 254 254 253 253 254 253 254 253 254 254 255 250 255 37 2 2 0 0 1 0 0 0 0 0 1 0 0 0 0 0 0 0 0 0 0 0 0 0 0 0 0 1 0 0 0 0 0 0 0 0 0 0 0 0 0 0 0 0 0 0 0 0 0 0 0 0 0 0 0 0 0 0 0 0 0 0 0 0 0 0 0 0 0 0 0 0 0 0 0 1 0 0 0 0 0 0 0 0 0 0 0 0 0 0 0 0 0 0 0 0 0 0 0 0 0 0 0 0 0 0 0 0 0 0 0 0 0 0 0 0 0 0 0 0 0 0 0 0 0 0 0 0 0 0 0 0 0 0 0 0 0 0 0 0 0 0 0 0 0 0 0 0 0 0 0 0 0 0 0 0 0 0 0 0 0 0 0 0 0 0 0 0 0 0 0 0 0 0 0 0 0 0 0 0 0 0 0 0 0 0 0 1 0 0 0 0 0 0 0 0 0 0 0 1 0 1 2 0 168 254 251 252 252 253 253 255 253 255 253 254 253 253 253 254 253 254 253 254 254 253 253 253 255 254 254 253 253 255 253 253 253 255 254 253 254 254 253 254 253 254 254 253 253 253 254 254 254 253 254 253 253 254 253 253 254 255 255 254 254 253 255 254 254 253 255 254 253 254 255 255 255 255 255 255 255 255 255 255 255 255 255 255 255 255 255 255 255 255 255 255 255 255 255 255 255 255 255 255 255 255 255 255 255 255 255 255 255 255 255 255 255 255 255 255 255 255 255 255 255 255 255 255 
255 255 255 255 255 255 255 255 255 255 255 255 255 255 255 255 255 255 255 255 255 255 255 255 255 255 255 255 255 255 255 255 255 255 255 255 255 255 255 255 255 255 255 255 255 255 255 255 255 255 255 255 255 255 254 253 254 253 253 255 253 254 255 254 254 254 254 254 253 254 253 254 253 254 255 253 253 254 255 253 253 253 253 253 253 254 253 255 254 253 253 254 255 255 254 254 255 253 255 254 254 253 253 254 254 254 254 255 253 254 253 254 253 253 255 253 255 254 253 253 255 253 253 250 255 61 1 1 0 0 0 0 0 0 0 0 0 0 0 0 0 0 0 0 0 0 0 0 0 0 0 0 0 0 0 0 0 0 0 0 0 0 0 1 0 0 0 0 0 0 0 0 0 0 0 0 0 0 0 0 0 0 0 0 0 0 0 0 0 0 0 0 0 0 0 0 1 0 0 0 0 0 0 0 0 0 0 0 0 0 0 0 0 0 0 0 0 0 0 0 0 0 0 0 0 0 0 0 0 0 0 0 0 0 0 0 0 0 0 0 0 0 1 0 0 0 0 0 0 0 0 0 0 0 0 1 0 0 0 0 0 0 0 0 0 0 0 0 0 0 0 0 0 0 0 0 0 0 0 0 0 0 0 0 0 0 0 0 0 0 0 0 0 0 0 0 0 0 0 0 0 0 0 0 0 0 0 0 0 0 0 0 0 0 0 0 0 0 0 0 0 1 0 0 0 0 0 0 1 0 3 0 206 254 249 252 254 253 255 253 255 255 254 254 253 253 254 253 254 253 254 253 253 253 253 253 253 254 253 254 254 253 253 252 254 255 254 254 254 254 255 253 253 253 253 253 253 253 253 254 255 254 253 253 255 253 254 254 254 253 254 255 253 253 255 255 253 254 254 254 254 255 255 255 255 255 255 255 255 255 255 255 255 255 255 255 255 255 255 255 255 255 255 255 255 255 255 255 255 255 255 255 255 255 255 255 255 255 255 255 255 255 255 255 255 255 255 255 255 255 255 255 255 255 255 
255 255 255 255 255 255 255 255 255 255 255 255 255 255 255 255 255 255 255 255 255 255 255 255 255 255 255 255 255 255 255 255 255 255 255 255 255 255 255 255 255 255 255 255 255 255 255 255 255 255 255 255 255 255 255 253 255 253 253 254 254 254 253 254 253 253 254 255 253 253 254 253 254 254 255 253 253 253 254 255 254 254 254 253 253 255 254 253 254 253 253 253 255 255 253 254 255 253 253 253 255 254 254 254 254 255 253 254 255 254 253 254 254 253 254 254 255 255 253 253 254 254 249 255 123 0 1 0 0 0 0 0 0 0 0 0 0 0 0 0 0 0 0 0 0 0 0 0 0 0 0 0 0 0 0 0 0 0 0 0 0 0 0 0 0 0 0 0 0 0 0 0 0 0 0 0 0 0 0 0 0 0 0 0 0 0 0 0 0 0 0 0 0 0 0 0 0 0 0 0 0 0 0 0 0 0 0 0 0 0 0 0 0 0 1 0 1 0 0 0 0 0 0 0 0 0 0 0 0 0 0 0 0 0 0 0 0 0 0 0 0 0 0 0 0 0 0 0 0 0 0 0 0 0 0 0 0 0 0 0 0 0 0 0 0 0 0 0 0 0 0 0 0 0 0 0 0 0 0 0 0 0 0 0 0 0 0 0 0 0 0 0 0 0 0 0 0 0 0 0 0 0 0 0 0 0 0 0 0 0 0 0 0 0 0 0 0 0 0 0 0 0 0 0 0 0 0 0 0 1 0 5 0 212 254 255 254 254 253 253 254 255 254 254 253 253 254 255 254 254 254 252 254 253 254 254 253 254 254 253 254 253 253 253 254 255 254 253 253 253 253 253 253 253 253 255 254 253 253 254 255 255 254 253 254 253 254 255 254 254 254 255 253 253 255 254 254 254 253 254 255 255 255 255 255 255 255 255 255 255 255 255 255 255 255 255 255 255 255 255 255 255 255 255 255 255 255 255 255 255 255 255 255 255 255 255 255 255 255 255 255 255 255 255 255 255 255 255 255 255 255 255 255 255 255 
255 255 255 255 255 255 255 255 255 255 255 255 255 255 255 255 255 255 255 255 255 255 255 255 255 255 255 255 255 255 255 255 255 255 255 255 255 255 255 255 255 255 255 255 255 255 255 255 255 255 255 255 255 255 253 254 253 254 254 253 254 254 253 254 254 253 253 255 254 253 254 253 255 253 254 253 254 255 254 255 253 253 254 252 253 255 254 254 253 253 253 254 253 254 254 253 253 253 253 254 253 255 254 254 253 254 255 253 255 254 253 253 254 253 253 255 254 255 254 253 254 253 255 171 0 7 0 0 0 0 0 0 0 0 0 0 0 0 0 0 0 0 0 0 0 0 1 0 0 0 0 1 0 0 1 0 0 0 0 0 0 0 0 0 0 0 0 0 0 0 0 0 0 0 0 0 0 0 0 0 0 0 0 0 0 0 0 0 0 0 0 0 0 0 0 0 0 0 0 0 0 0 0 0 0 0 0 0 0 0 0 0 0 0 0 0 0 0 0 0 0 0 0 0 0 0 0 0 0 0 0 0 0 0 0 0 0 0 0 0 0 0 0 0 0 0 0 0 0 0 0 0 0 0 0 0 0 0 0 0 0 0 0 1 0 0 0 0 0 0 0 0 0 0 0 0 0 1 0 0 0 0 0 0 0 0 0 0 0 1 0 0 0 0 0 0 0 0 0 0 0 0 0 0 0 0 0 0 0 0 0 0 0 0 0 0 0 0 0 0 0 0 0 0 0 0 0 0 0 0 0 0 4 3 251 247 255 254 254 254 254 255 254 253 253 253 253 255 255 255 254 253 254 253 253 254 254 255 254 253 255 253 253 254 253 254 255 254 253 253 253 253 253 255 254 253 254 254 253 253 254 254 253 254 254 253 254 253 253 254 254 253 254 255 253 253 254 255 254 254 253 255 255 255 255 255 255 255 255 255 255 255 255 255 255 255 255 255 255 255 255 255 255 255 255 255 255 255 255 255 255 255 255 255 255 255 255 255 255 255 255 255 255 255 255 255 255 255 255 255 255 255 255 255 255 
255 255 255 255 255 255 255 255 255 255 255 255 255 255 255 255 255 255 255 255 255 255 255 255 255 255 255 255 255 255 255 255 255 255 255 255 255 255 255 255 255 255 255 255 255 255 255 255 255 255 255 255 255 255 253 255 253 254 253 254 254 254 254 254 255 254 253 253 254 254 254 253 255 253 254 254 255 255 254 253 253 253 254 254 255 255 253 254 253 255 252 255 253 253 254 253 253 254 253 254 254 254 253 253 254 254 254 254 253 254 254 253 254 254 255 254 255 255 254 255 253 254 194 0 3 0 1 0 0 0 0 0 0 0 0 0 0 0 0 0 0 1 0 0 0 0 0 0 0 0 0 0 0 0 0 0 0 0 0 1 0 0 0 0 0 0 0 0 0 0 0 0 0 0 0 0 0 1 0 0 0 0 0 0 0 0 0 0 1 0 0 0 0 0 0 0 0 0 0 0 0 0 0 0 0 0 0 0 0 0 0 0 0 0 0 0 0 0 0 0 0 0 0 0 0 0 0 0 0 0 0 0 0 0 0 0 0 0 0 0 0 0 0 0 0 0 0 0 0 0 0 0 0 0 0 0 0 0 0 0 0 0 0 0 0 0 0 0 0 0 0 0 0 0 0 0 0 0 0 0 0 0 0 0 0 0 0 0 0 0 0 0 0 0 0 0 0 0 0 0 0 0 0 0 0 0 0 0 0 0 0 0 0 0 0 0 0 0 0 0 0 0 1 0 0 0 0 0 1 0 0 0 0 1 44 255 249 255 255 255 254 254 255 253 254 254 254 253 254 254 253 255 253 253 254 255 254 255 254 254 255 254 254 255 253 255 254 254 253 253 254 255 253 254 254 252 254 254 253 253 254 254 253 254 254 254 254 254 254 254 254 252 253 254 253 254 254 254 253 254 254 255 255 255 255 255 255 255 255 255 255 255 255 255 255 255 255 255 255 255 255 255 255 255 255 255 255 255 255 255 255 255 255 255 255 255 255 255 255 255 255 255 255 255 255 255 255 255 255 255 255 255 255 255 255 
255 255 255 255 255 255 255 255 255 255 255 255 255 255 255 255 255 255 255 255 255 255 255 255 255 255 255 255 255 255 255 255 255 255 255 255 255 255 255 255 255 255 255 255 255 255 255 255 255 255 255 255 255 255 253 254 255 254 252 254 254 254 254 254 253 254 253 253 253 255 253 254 253 253 254 253 254 253 254 253 254 253 254 253 253 254 254 254 254 253 254 254 253 254 252 254 254 253 253 253 253 253 254 253 255 253 253 254 254 254 255 254 253 253 253 255 253 254 255 253 254 224 0 4 0 0 0 0 0 0 0 0 0 0 0 0 0 0 0 0 0 0 0 0 0 0 0 0 0 0 0 0 0 0 0 0 0 0 0 0 1 0 0 0 0 0 0 0 0 0 0 0 0 1 0 0 0 0 0 0 0 0 0 0 0 0 0 0 1 0 0 0 0 0 0 0 0 0 0 0 1 0 0 0 0 0 0 0 0 0 0 0 0 0 0 0 0 0 0 0 0 0 0 0 0 0 0 0 0 0 0 0 0 0 0 0 0 0 0 0 0 0 0 0 0 0 0 0 0 0 0 1 0 0 0 0 0 0 0 0 0 0 0 0 0 0 0 0 0 0 0 0 0 0 0 0 0 0 0 0 0 0 0 0 0 0 0 0 0 0 0 0 0 0 0 0 0 0 0 1 0 0 0 0 0 0 0 0 0 0 0 0 0 0 0 0 0 0 0 0 0 0 0 0 0 1 0 0 0 0 0 0 0 2 1 47 255 250 255 255 252 253 254 254 255 253 254 252 253 255 253 254 254 253 254 253 254 255 255 255 254 254 255 253 253 254 254 254 253 253 253 254 255 253 254 253 254 255 253 254 254 253 254 254 254 253 253 255 255 253 253 253 253 254 253 254 254 254 254 255 255 255 255 255 255 255 255 255 255 255 255 255 255 255 255 255 255 255 255 255 255 255 255 255 255 255 255 255 255 255 255 255 255 255 255 255 255 255 255 255 255 255 255 255 255 255 255 255 255 255 255 255 255 255 255 
255 255 255 255 255 255 255 255 255 255 255 255 255 255 255 255 255 255 255 255 255 255 255 255 255 255 255 255 255 255 255 255 255 255 255 255 255 255 255 255 255 255 255 255 255 255 255 255 255 255 255 255 255 255 254 253 254 253 255 254 254 253 254 254 253 253 254 253 254 254 253 255 252 255 254 253 255 253 254 254 254 253 253 254 253 255 254 253 254 254 255 254 253 254 253 254 254 253 253 254 253 255 255 254 254 254 252 253 255 253 255 254 254 254 253 253 254 252 255 252 233 1 4 0 0 0 1 1 0 0 0 1 0 0 0 0 0 0 0 0 0 0 0 0 0 0 0 0 0 0 0 0 0 0 0 0 0 0 0 0 1 0 0 0 0 0 0 0 0 0 0 0 0 0 0 0 0 0 0 0 0 0 0 0 0 0 0 0 0 0 0 0 0 0 0 0 0 0 0 0 0 0 0 0 0 0 0 0 0 0 0 0 0 0 0 0 0 0 0 0 0 0 0 0 1 0 0 0 0 0 0 0 0 0 0 0 0 0 0 0 0 0 0 0 0 0 0 0 0 0 0 0 0 0 0 0 0 0 0 0 0 0 0 0 0 0 0 0 0 0 1 0 0 0 0 0 0 0 0 0 0 0 0 0 0 0 0 0 0 0 0 0 0 1 0 0 0 0 0 0 0 0 0 1 0 0 0 0 0 0 0 0 0 0 0 0 0 0 0 0 0 0 0 0 0 0 0 0 1 0 0 0 0 0 3 0 107 255 250 251 253 253 253 254 254 254 254 254 253 253 253 254 254 253 254 253 255 254 255 255 254 253 254 254 254 253 255 253 253 254 252 254 254 254 254 253 254 254 255 254 253 252 254 254 254 253 254 253 254 254 252 254 254 255 254 254 255 253 254 254 254 255 255 255 255 255 255 255 255 255 255 255 255 255 255 255 255 255 255 255 255 255 255 255 255 255 255 255 255 255 255 255 255 255 255 255 255 255 255 255 255 255 255 255 255 255 255 255 255 255 255 255 255 255 255 
255 255 255 255 255 255 255 255 255 255 255 255 255 255 255 255 255 255 255 255 255 255 255 255 255 255 255 255 255 255 255 255 255 255 255 255 255 255 255 255 255 255 255 255 255 255 255 255 255 255 255 255 255 255 255 253 254 253 254 255 255 253 254 254 254 253 253 254 255 253 254 255 254 253 253 254 255 254 254 253 254 254 253 255 254 253 254 253 253 254 254 255 253 254 253 254 254 254 254 254 253 254 254 253 254 254 254 254 253 254 254 254 254 254 253 253 253 251 248 255 48 2 1 0 0 0 0 0 0 0 0 0 0 0 1 0 0 0 0 0 0 0 0 0 0 0 0 0 0 0 0 0 0 0 0 0 0 0 0 0 0 0 0 0 0 0 0 0 0 0 0 0 0 0 0 0 0 0 0 0 0 0 0 0 0 0 0 0 0 0 0 0 0 0 0 0 0 0 0 0 0 0 0 0 0 0 0 0 0 0 0 0 0 0 0 0 0 0 0 0 0 0 0 0 0 0 0 0 0 0 0 0 0 0 0 0 0 0 0 1 0 0 0 0 0 0 0 0 0 0 0 0 0 0 0 0 0 0 0 0 0 0 0 0 0 0 0 0 0 0 0 0 0 0 0 0 0 0 0 0 0 0 0 0 0 0 0 0 0 0 0 0 0 0 0 0 0 0 0 0 0 0 0 0 0 0 0 0 0 0 0 0 0 0 0 0 0 0 0 0 0 0 0 0 0 0 0 0 0 0 0 0 0 1 0 5 0 183 255 249 253 254 253 254 254 255 255 254 253 253 253 253 254 254 254 254 254 253 253 253 254 254 255 253 254 253 253 253 253 253 253 254 253 255 255 253 254 253 254 255 254 254 254 253 253 253 254 254 254 255 254 253 253 254 254 254 254 252 254 254 254 255 255 255 255 255 255 255 255 255 255 255 255 255 255 255 255 255 255 255 255 255 255 255 255 255 255 255 255 255 255 255 255 255 255 255 255 255 255 255 255 255 255 255 255 255 255 255 255 255 255 255 255 255 255 
255 255 255 255 255 255 255 255 255 255 255 255 255 255 255 255 255 255 255 255 255 255 255 255 255 255 255 255 255 255 255 255 255 255 255 255 255 255 255 255 255 255 255 255 255 255 255 255 255 255 255 255 255 255 255 253 255 253 253 254 254 253 254 254 253 254 254 254 254 254 254 253 254 253 254 253 253 254 254 253 255 254 254 255 254 252 254 254 253 254 254 253 253 253 254 252 253 254 255 253 254 254 253 253 254 254 253 254 253 254 254 255 255 254 253 253 254 247 255 65 0 4 0 0 0 0 0 0 0 0 0 0 0 0 0 0 0 0 0 1 1 1 1 0 0 0 0 0 0 0 0 0 0 0 0 0 0 0 0 0 0 0 0 1 0 0 0 0 0 0 0 0 0 0 0 0 0 0 0 0 0 0 0 0 0 0 0 0 0 0 0 0 0 0 0 0 0 0 0 0 0 0 0 0 0 0 0 0 0 0 0 0 0 0 0 0 0 0 0 0 0 0 0 0 0 0 0 1 0 0 0 1 0 0 0 0 0 0 0 1 0 0 0 0 0 0 0 0 0 0 0 0 0 0 0 0 0 0 0 0 0 0 0 0 0 0 0 0 0 0 0 0 0 0 0 0 0 0 0 0 0 0 0 0 0 0 0 0 0 0 0 0 0 0 0 0 0 0 0 0 0 0 0 0 0 0 0 0 0 0 0 0 0 0 0 0 0 0 1 0 0 0 0 0 0 0 0 0 0 0 0 0 0 1 0 0 4 0 193 255 251 254 254 255 255 254 254 254 253 254 254 252 254 254 254 253 254 254 253 253 254 254 254 255 254 253 252 254 254 254 254 254 254 255 253 253 254 254 254 253 255 255 254 254 255 253 253 255 253 254 255 253 252 255 254 254 255 253 255 254 254 255 255 255 255 255 255 255 255 255 255 255 255 255 255 255 255 255 255 255 255 255 255 255 255 255 255 255 255 255 255 255 255 255 255 255 255 255 255 255 255 255 255 255 255 255 255 255 255 255 255 255 255 255 255 
255 255 255 255 255 255 255 255 255 255 255 255 255 255 255 255 255 255 255 255 255 255 255 255 255 255 255 255 255 255 255 255 255 255 255 255 255 255 255 255 255 255 255 255 255 255 255 255 255 255 255 255 255 255 254 253 253 254 254 254 255 253 254 254 254 253 255 254 254 254 252 253 254 253 255 253 254 253 254 254 253 253 255 255 253 254 254 254 253 255 254 253 253 253 255 253 254 254 253 253 255 254 254 254 253 253 254 253 255 253 255 254 254 255 253 253 247 255 83 0 3 0 0 0 0 0 0 0 0 0 0 0 0 0 0 0 0 1 0 0 0 0 0 0 0 0 0 0 0 0 0 0 0 0 0 0 0 0 0 0 0 0 0 1 0 0 0 0 0 0 0 0 0 0 0 0 0 0 0 0 0 0 0 0 0 0 0 0 0 0 0 0 0 0 0 0 0 0 0 0 0 0 0 0 0 0 0 0 0 0 0 0 0 0 0 0 1 0 0 0 0 0 0 0 0 0 0 0 0 0 0 0 0 0 0 0 0 0 0 0 1 0 0 0 0 0 0 0 0 0 0 0 0 0 0 0 0 0 0 0 0 0 0 0 1 0 0 0 0 0 0 0 0 0 0 0 0 0 0 0 0 0 0 0 0 0 0 0 0 0 0 0 0 0 0 0 0 0 0 0 0 0 0 1 0 0 0 0 0 0 0 0 0 1 0 0 0 1 0 0 0 0 0 0 0 0 0 0 0 0 0 0 0 0 0 0 0 3 0 220 251 254 255 255 255 255 254 253 253 254 253 253 254 253 254 253 254 255 253 253 255 253 253 254 255 253 255 253 254 254 253 254 255 253 253 254 253 254 255 253 253 254 254 255 253 254 254 254 252 253 253 254 254 254 254 255 254 254 253 254 254 255 255 255 255 255 255 255 255 255 255 255 255 255 255 255 255 255 255 255 255 255 255 255 255 255 255 255 255 255 255 255 255 255 255 255 255 255 255 255 255 255 255 255 255 255 255 255 255 255 255 255 255 255 255 
255 255 255 255 255 255 255 255 255 255 255 255 255 255 255 255 255 255 255 255 255 255 255 255 255 255 255 255 255 255 255 255 255 255 255 255 255 255 255 255 255 255 255 255 255 255 255 255 255 255 255 255 255 255 255 253 253 254 255 254 255 254 255 255 254 254 253 254 254 255 254 254 254 254 253 254 255 254 254 253 253 254 255 254 254 253 254 253 253 254 255 254 253 254 255 253 253 253 252 254 254 254 254 254 253 253 255 253 253 253 255 255 255 254 255 249 255 148 0 3 0 0 0 0 0 0 0 0 0 0 0 0 0 0 0 0 0 0 0 0 0 0 0 0 0 0 0 0 0 0 0 0 0 0 0 0 0 0 1 0 0 0 0 0 0 0 0 0 0 0 0 0 0 0 0 0 0 0 0 0 0 0 0 0 0 0 0 0 0 0 0 0 0 0 0 0 0 0 0 0 0 0 0 0 0 0 0 0 0 0 0 0 0 0 0 0 0 0 0 0 0 0 0 0 0 0 0 0 0 0 0 0 0 0 0 0 0 0 0 0 0 0 0 0 0 0 0 0 0 0 0 0 0 0 0 0 0 0 0 0 0 0 1 0 1 0 0 0 0 0 0 0 0 0 0 0 0 0 0 0 0 0 0 0 0 0 0 0 0 0 0 0 0 0 0 0 0 0 0 0 0 0 0 0 0 0 0 0 0 0 0 0 0 0 0 1 0 0 0 0 1 0 0 0 0 0 0 0 0 0 0 0 0 0 1 0 0 0 3 25 255 251 255 255 254 254 253 253 254 252 253 254 255 254 255 254 254 253 254 254 255 253 253 253 253 253 254 253 253 255 253 254 253 252 254 254 253 254 253 254 253 253 255 253 253 253 254 254 254 253 254 255 255 253 255 253 254 253 253 254 254 255 255 255 255 255 255 255 255 255 255 255 255 255 255 255 255 255 255 255 255 255 255 255 255 255 255 255 255 255 255 255 255 255 255 255 255 255 255 255 255 255 255 255 255 255 255 255 255 255 255 255 255 255 255 
255 255 255 255 255 255 255 255 255 255 255 255 255 255 255 255 255 255 255 255 255 255 255 255 255 255 255 255 255 255 255 255 255 255 255 255 255 255 255 255 255 255 255 255 255 255 255 255 255 255 255 255 255 255 254 254 254 254 253 253 254 253 255 254 253 254 253 254 254 254 253 255 253 254 253 254 254 255 253 254 254 254 254 254 255 253 254 252 254 253 255 255 254 254 254 254 253 254 254 254 254 254 254 253 254 254 253 254 253 254 254 253 253 255 253 255 193 0 6 0 0 0 0 0 0 0 0 0 0 0 0 0 0 0 0 0 0 0 0 0 0 0 0 0 0 0 0 0 0 0 1 0 0 0 0 0 0 0 0 0 0 1 0 0 0 0 0 0 0 0 1 0 0 0 0 0 0 0 0 0 0 0 0 0 0 0 0 0 0 1 0 0 0 0 0 0 0 0 0 0 0 0 0 0 0 0 0 0 0 0 0 0 0 0 0 0 0 0 0 0 0 0 0 0 0 0 0 0 1 0 0 0 1 0 0 0 0 0 0 0 0 0 0 0 0 0 0 0 0 0 0 0 0 0 0 0 0 0 0 0 0 0 0 0 0 0 0 0 0 0 0 0 0 0 0 0 1 0 0 0 0 0 0 0 0 0 0 0 0 0 0 0 0 0 0 0 0 0 0 0 0 0 0 0 0 0 0 0 0 0 0 0 0 0 0 0 0 0 0 0 0 0 0 0 0 0 0 0 0 0 0 0 0 0 0 0 0 0 0 1 36 255 250 255 253 253 253 253 253 254 253 255 254 255 254 254 254 253 254 254 254 254 253 253 254 254 253 254 253 252 254 255 253 254 253 254 254 253 253 254 254 254 254 253 254 254 253 254 254 253 254 254 253 253 254 254 255 254 254 254 254 255 255 255 255 255 255 255 255 255 255 255 255 255 255 255 255 255 255 255 255 255 255 255 255 255 255 255 255 255 255 255 255 255 255 255 255 255 255 255 255 255 255 255 255 255 255 255 255 255 255 255 255 255 255 
255 255 255 255 255 255 255 255 255 255 255 255 255 255 255 255 255 255 255 255 255 255 255 255 255 255 255 255 255 255 255 255 255 255 255 255 255 255 255 255 255 255 255 255 255 255 255 255 255 255 255 255 255 255 254 254 254 255 254 253 255 253 254 254 253 253 253 253 254 255 253 253 253 253 253 253 254 252 253 255 254 254 254 254 254 254 254 252 253 254 254 253 253 253 253 254 253 254 255 253 254 254 255 254 255 254 254 254 253 253 252 253 253 255 252 223 0 6 0 0 0 0 0 0 0 0 0 1 0 0 0 0 0 0 0 0 0 0 0 0 0 0 0 0 0 0 0 0 0 0 0 0 0 0 0 0 0 0 0 0 0 0 0 0 0 0 0 0 0 0 0 0 0 0 0 0 0 0 0 0 0 0 0 0 0 0 0 0 0 0 1 0 0 0 0 0 0 0 0 0 0 0 0 0 0 0 0 0 0 0 0 0 0 0 0 0 0 0 0 0 0 0 0 0 0 0 0 0 0 1 0 0 0 0 0 0 0 0 0 0 0 0 0 0 0 0 0 0 0 0 0 0 0 0 0 0 0 0 0 0 0 0 0 0 0 0 0 0 0 0 0 0 0 0 0 0 0 0 0 1 0 0 0 0 0 0 0 0 0 0 0 0 0 0 0 0 0 0 0 0 0 0 0 0 0 0 0 0 0 0 0 0 0 0 0 0 0 0 0 0 0 0 0 0 0 1 0 0 0 0 0 0 0 0 0 0 0 0 0 4 0 153 255 251 252 252 253 253 253 255 253 254 254 253 254 253 254 253 254 253 254 255 254 254 254 254 253 254 254 253 254 255 254 254 253 253 255 253 254 255 254 255 254 254 253 255 254 253 254 254 255 252 253 254 253 254 254 254 254 255 255 255 255 255 255 255 255 255 255 255 255 255 255 255 255 255 255 255 255 255 255 255 255 255 255 255 255 255 255 255 255 255 255 255 255 255 255 255 255 255 255 255 255 255 255 255 255 255 255 255 255 255 255 255 255 
255 255 255 255 255 255 255 255 255 255 255 255 255 255 255 255 255 255 255 255 255 255 255 255 255 255 255 255 255 255 255 255 255 255 255 255 255 255 255 255 255 255 255 255 255 255 255 255 255 255 255 255 255 255 253 254 254 253 255 253 254 254 253 255 254 253 253 253 254 255 254 253 254 253 254 253 253 253 254 253 254 255 254 253 255 254 253 254 253 254 253 253 253 254 254 254 253 253 254 253 253 254 255 255 253 254 255 255 255 253 254 253 254 249 255 40 2 0 0 0 0 0 0 0 0 0 0 0 0 0 0 0 0 0 0 0 0 0 0 0 1 0 0 0 0 0 0 0 0 0 0 0 0 0 0 0 0 0 0 0 0 0 0 0 0 0 0 0 0 0 0 1 0 0 0 0 0 0 0 0 0 0 0 0 0 0 0 0 0 0 0 0 0 0 0 0 0 0 0 0 0 0 0 0 0 0 0 0 0 0 0 0 0 0 0 0 0 0 0 0 0 0 0 0 0 0 0 0 0 0 0 0 0 0 0 0 0 0 0 0 0 0 0 0 0 0 0 0 0 0 0 0 0 0 0 0 1 0 1 0 0 0 0 0 0 0 1 0 0 0 0 1 0 0 0 0 0 0 0 0 0 0 0 0 0 0 0 0 0 0 0 0 0 0 0 0 0 0 0 0 0 0 0 0 0 0 0 0 0 0 0 0 0 0 0 0 0 0 0 0 0 0 0 0 0 0 0 0 0 0 0 0 0 0 0 0 0 0 1 1 7 0 191 254 249 251 252 254 253 255 254 253 254 254 253 254 253 253 254 253 254 253 254 255 253 253 253 253 254 253 255 253 255 252 254 253 254 254 253 253 253 254 254 254 253 253 255 253 253 255 255 253 253 255 254 254 254 254 254 254 255 255 255 255 255 255 255 255 255 255 255 255 255 255 255 255 255 255 255 255 255 255 255 255 255 255 255 255 255 255 255 255 255 255 255 255 255 255 255 255 255 255 255 255 255 255 255 255 255 255 255 255 255 255 255 
255 255 255 255 255 255 255 255 255 255 255 255 255 255 255 255 255 255 255 255 255 255 255 255 255 255 255 255 255 255 255 255 255 255 255 255 255 255 255 255 255 255 255 255 255 255 255 255 255 255 255 255 255 255 254 253 255 254 254 253 254 253 253 252 255 253 254 254 255 255 254 255 253 255 254 254 253 253 254 253 254 253 255 254 253 255 253 253 255 254 253 253 255 253 254 255 253 254 253 255 254 254 255 255 254 255 254 253 255 253 253 251 250 255 39 1 2 0 0 0 1 0 0 0 0 0 0 0 0 0 0 0 0 0 0 0 0 0 1 0 0 0 0 0 0 0 0 0 0 0 0 0 0 0 0 0 0 0 0 0 0 0 0 0 0 0 0 0 0 0 0 0 0 0 0 0 0 0 0 0 0 0 0 0 0 0 0 0 0 0 0 0 0 0 0 0 0 0 0 0 0 0 0 0 0 0 0 0 0 0 0 0 0 0 0 0 0 0 0 0 0 0 0 0 0 1 0 1 0 0 0 0 0 0 0 0 1 0 0 0 0 0 0 0 0 1 0 0 0 0 0 0 0 0 0 0 0 0 0 0 1 0 0 0 0 0 0 0 0 1 0 0 0 0 0 0 0 0 0 0 0 0 0 0 0 0 0 0 0 0 0 0 1 0 1 0 1 0 0 0 0 0 0 0 0 0 0 0 0 0 0 0 0 0 0 0 0 0 0 0 0 0 1 0 0 0 0 0 0 0 0 0 0 0 0 0 0 0 0 1 1 7 0 198 252 250 253 254 254 254 255 255 255 255 253 253 253 255 253 254 253 253 253 254 255 253 253 254 255 253 254 253 254 254 253 255 254 254 253 253 254 254 253 254 254 253 254 254 255 253 254 253 254 254 253 253 255 254 254 254 255 255 255 255 255 255 255 255 255 255 255 255 255 255 255 255 255 255 255 255 255 255 255 255 255 255 255 255 255 255 255 255 255 255 255 255 255 255 255 255 255 255 255 255 255 255 255 255 255 255 255 255 255 255 255 
255 255 255 255 255 255 255 255 255 255 255 255 255 255 255 255 255 255 255 255 255 255 255 255 255 255 255 255 255 255 255 255 255 255 255 255 255 255 255 255 255 255 255 255 255 255 255 255 255 255 255 255 255 255 255 255 253 254 253 254 254 255 255 253 253 254 254 254 254 253 255 254 254 253 254 255 252 253 254 253 253 255 254 254 255 255 254 253 254 254 253 254 253 254 253 253 254 254 254 254 254 253 252 254 255 254 255 255 255 253 251 247 255 91 0 2 1 0 0 0 0 0 0 0 0 0 0 1 0 0 0 0 0 0 1 0 0 0 0 0 0 0 0 0 1 0 0 0 0 0 1 0 0 0 0 0 0 0 1 0 0 0 0 1 0 0 0 0 0 0 1 0 0 0 0 0 0 0 0 0 0 0 0 0 1 0 0 0 0 0 0 0 0 0 0 0 0 0 0 0 0 0 1 0 0 0 0 0 0 0 0 0 0 0 0 0 1 0 0 0 0 0 0 0 0 0 0 0 1 0 0 0 0 0 0 0 0 0 0 0 0 0 0 1 0 0 0 0 0 0 0 0 1 1 0 0 0 0 0 0 0 0 0 0 1 0 0 0 0 0 0 0 1 0 0 0 0 0 0 0 0 0 0 0 0 0 0 0 0 0 0 0 0 0 0 0 0 0 0 0 0 0 1 0 0 0 0 1 0 0 0 0 0 0 1 0 0 0 0 0 0 0 0 0 0 0 0 0 0 0 0 0 0 0 0 0 0 1 0 0 1 0 6 7 249 249 253 255 255 255 254 254 254 253 254 254 254 253 254 254 254 253 253 253 253 253 254 254 252 254 255 253 254 255 254 253 253 255 254 252 254 253 253 255 254 255 254 254 255 255 253 254 253 254 255 254 254 253 253 255 254 255 255 255 255 255 255 255 255 255 255 255 255 255 255 255 255 255 255 255 255 255 255 255 255 255 255 255 255 255 255 255 255 255 255 255 255 255 255 255 255 255 255 255 255 255 255 255 255 255 255 255 255 255 255 
255 255 255 255 255 255 255 255 255 255 255 255 255 255 255 255 255 255 255 255 255 255 255 255 255 255 255 255 255 255 255 255 255 255 255 255 255 255 255 255 255 255 255 255 255 255 255 255 255 255 255 255 255 255 253 253 253 255 254 254 254 254 253 254 253 254 254 254 254 255 254 253 253 253 254 254 253 253 254 253 254 254 253 254 254 253 254 255 253 254 253 254 254 254 255 252 253 254 255 254 254 254 254 253 254 254 255 255 255 255 251 255 112 0 4 0 1 0 0 0 0 0 0 0 1 0 0 0 0 0 0 0 0 0 1 0 0 1 0 0 0 0 0 0 0 0 0 0 0 0 0 0 0 0 0 0 0 0 1 0 0 0 0 0 0 0 0 0 0 0 0 0 0 0 0 0 0 0 0 0 0 0 0 0 0 0 0 0 0 0 0 0 0 0 0 0 0 0 0 0 0 0 0 0 0 0 0 0 0 0 0 0 0 0 0 0 0 0 0 0 0 0 0 1 0 0 0 0 0 0 0 0 0 0 0 0 0 0 0 0 0 0 0 0 0 0 0 0 0 1 0 0 0 0 0 0 0 0 1 1 0 0 0 0 0 0 0 0 0 0 0 0 0 0 0 0 0 0 0 0 0 0 0 0 0 0 0 0 0 0 0 0 0 0 0 0 0 0 0 0 0 0 0 0 0 0 0 0 0 0 0 0 1 0 0 0 0 0 0 0 0 0 0 0 0 0 0 0 0 0 0 0 0 0 0 0 0 0 0 0 0 0 0 2 18 253 251 255 254 255 255 254 254 255 254 253 254 253 254 253 253 254 253 254 253 254 254 254 253 254 253 254 253 254 254 254 253 253 254 254 253 253 255 255 255 254 253 254 254 254 255 254 254 255 255 254 254 255 253 253 254 255 255 255 255 255 255 255 255 255 255 255 255 255 255 255 255 255 255 255 255 255 255 255 255 255 255 255 255 255 255 255 255 255 255 255 255 255 255 255 255 255 255 255 255 255 255 255 255 255 255 255 255 255 255 
255 255 255 255 255 255 255 255 255 255 255 255 255 255 255 255 255 255 255 255 255 255 255 255 255 255 255 255 255 255 255 255 255 255 255 255 255 255 255 255 255 255 255 255 255 255 255 255 255 255 255 255 255 255 255 254 253 254 255 253 254 254 255 255 255 254 253 255 254 254 253 255 253 253 255 254 255 253 254 254 253 254 253 255 254 255 254 252 254 253 253 253 254 255 253 253 254 254 254 254 255 254 254 254 255 254 255 254 254 254 251 221 0 4 0 0 0 0 0 0 0 0 1 0 0 0 0 0 0 1 0 0 0 0 0 0 0 0 0 0 0 0 0 0 0 0 1 0 0 0 0 0 0 0 0 1 0 0 0 0 0 0 0 0 0 0 0 0 0 1 0 0 0 0 0 0 0 0 0 0 0 0 0 0 0 0 0 0 0 0 0 0 0 0 0 0 0 0 0 0 0 0 0 0 0 0 0 0 0 0 0 0 0 0 0 0 1 0 0 0 0 0 0 0 0 0 0 0 0 0 0 0 0 0 0 0 0 0 0 0 0 0 0 0 0 0 0 0 0 0 0 1 0 0 0 0 0 0 1 0 0 0 0 0 0 0 0 0 0 0 1 1 0 0 0 1 0 1 0 0 0 0 0 0 0 0 0 0 0 0 0 0 0 0 0 0 0 0 0 0 0 0 0 1 0 0 0 0 0 1 0 0 0 0 0 1 0 1 0 0 0 0 0 0 0 0 0 0 0 0 0 0 0 0 0 0 0 0 0 0 0 0 0 0 0 114 255 251 255 254 254 255 254 254 254 253 254 253 254 253 253 253 255 255 253 254 253 254 255 254 254 255 254 255 253 254 255 254 253 253 254 254 254 253 253 254 254 254 255 254 255 254 255 255 254 253 253 253 255 254 254 255 255 255 255 255 255 255 255 255 255 255 255 255 255 255 255 255 255 255 255 255 255 255 255 255 255 255 255 255 255 255 255 255 255 255 255 255 255 255 255 255 255 255 255 255 255 255 255 255 255 255 255 255 255 
255 255 255 255 255 255 255 255 255 255 255 255 255 255 255 255 255 255 255 255 255 255 255 255 255 255 255 255 255 255 255 255 255 255 255 255 255 255 255 255 255 255 255 255 255 255 255 255 255 255 255 255 255 255 253 254 255 254 255 254 254 253 254 253 254 253 253 253 254 255 253 255 253 253 253 254 253 255 254 253 254 255 252 254 253 253 254 255 254 253 254 253 253 253 253 254 255 254 254 253 253 254 253 254 254 254 255 254 255 251 242 1 2 0 0 1 0 0 0 0 0 0 0 0 0 0 0 0 0 0 0 0 0 0 0 0 0 0 0 0 0 0 0 0 0 0 0 0 0 0 0 0 0 0 0 1 0 0 0 0 0 0 0 0 0 0 0 0 0 0 0 0 0 1 0 0 0 0 0 0 0 0 0 0 0 0 0 0 0 1 1 0 0 0 0 0 0 0 0 0 0 0 0 0 0 0 0 0 0 0 0 0 0 0 0 0 0 1 0 0 0 0 0 0 0 0 0 0 0 0 0 0 0 0 0 0 0 0 0 0 0 0 0 1 0 0 0 0 0 0 0 0 0 0 0 0 0 0 0 0 0 0 0 0 0 0 0 0 1 0 0 0 0 0 1 0 0 0 0 1 0 0 0 0 0 0 0 0 0 0 0 0 0 0 1 0 0 0 0 0 0 0 0 0 0 0 0 0 0 0 0 0 0 0 0 0 0 0 0 0 0 0 0 0 0 0 0 0 0 0 0 0 0 0 0 0 0 0 0 0 0 0 0 0 3 0 160 253 255 254 255 253 254 252 253 254 254 253 253 253 253 252 255 254 254 254 253 253 254 253 254 254 253 254 253 254 254 255 254 255 252 255 254 255 253 253 253 253 253 253 254 253 254 254 253 255 255 254 253 254 254 255 255 255 255 255 255 255 255 255 255 255 255 255 255 255 255 255 255 255 255 255 255 255 255 255 255 255 255 255 255 255 255 255 255 255 255 255 255 255 255 255 255 255 255 255 255 255 255 255 255 255 255 255 255 
255 255 255 255 255 255 255 255 255 255 255 255 255 255 255 255 255 255 255 255 255 255 255 255 255 255 255 255 255 255 255 255 255 255 255 255 255 255 255 255 255 255 255 255 255 255 255 255 255 255 255 255 255 255 253 253 253 254 254 254 254 255 253 253 255 253 253 253 255 255 253 254 254 255 252 253 253 255 253 253 254 255 254 254 254 255 254 255 253 253 255 255 254 254 253 254 255 254 254 254 253 253 253 254 253 255 253 255 249 255 32 4 0 0 0 0 0 1 0 0 0 0 0 0 0 0 0 1 0 0 1 0 0 0 0 0 0 0 0 0 0 0 0 1 0 0 0 0 0 0 0 0 0 0 0 0 0 0 0 1 0 0 0 0 0 0 0 0 0 0 0 0 0 0 0 0 0 0 0 0 0 0 0 0 0 0 0 0 0 0 0 0 0 0 1 0 0 0 0 0 0 1 0 0 0 0 0 0 0 0 0 0 0 0 0 0 0 0 0 0 0 0 0 1 0 0 0 0 0 0 1 0 0 0 0 0 0 0 0 0 0 0 0 0 0 0 0 0 0 0 0 0 0 0 0 0 0 1 0 0 0 0 0 0 0 0 1 0 0 0 0 1 0 0 0 0 0 0 1 0 0 0 0 0 0 0 0 1 0 0 0 0 0 0 0 0 0 0 0 0 0 0 0 0 0 0 0 0 0 0 0 0 0 0 0 0 0 0 0 0 0 0 0 0 0 0 0 0 0 0 0 0 0 0 0 0 1 0 0 0 0 0 0 0 0 7 0 227 252 255 254 253 252 253 254 253 253 253 254 253 253 254 254 255 253 253 253 254 255 255 254 254 252 253 254 254 254 255 253 253 255 253 254 253 255 255 253 252 254 254 253 255 254 255 254 254 253 254 254 254 254 255 255 255 255 255 255 255 255 255 255 255 255 255 255 255 255 255 255 255 255 255 255 255 255 255 255 255 255 255 255 255 255 255 255 255 255 255 255 255 255 255 255 255 255 255 255 255 255 255 255 255 255 255 255 
255 255 255 255 255 255 255 255 255 255 255 255 255 255 255 255 255 255 255 255 255 255 255 255 255 255 255 255 255 255 255 255 255 255 255 255 255 255 255 255 255 255 255 255 255 255 255 255 255 255 255 255 255 255 253 253 253 254 253 254 254 254 254 254 254 254 254 254 253 254 253 253 254 253 254 253 254 253 254 255 254 253 253 255 255 255 254 253 254 255 254 253 253 254 254 254 255 254 254 254 254 253 254 253 253 253 253 250 255 60 1 3 0 0 0 0 0 0 0 0 0 0 0 0 0 0 0 0 0 0 0 0 0 0 0 0 0 0 0 0 0 0 0 1 0 0 0 0 0 0 0 0 0 0 0 0 0 0 0 0 0 0 0 0 0 0 0 0 0 0 0 0 0 0 0 0 0 0 0 0 0 0 0 0 0 0 0 0 0 1 0 0 0 0 0 1 0 0 0 0 0 0 0 0 0 0 0 0 0 0 0 1 0 0 0 0 0 0 1 0 0 0 0 0 0 0 0 0 0 0 0 0 0 0 0 0 0 0 1 0 0 0 0 0 0 0 0 0 0 0 0 0 0 0 0 0 0 0 0 0 0 0 0 0 0 0 0 0 0 0 0 0 0 0 0 0 1 0 0 0 0 0 0 0 0 0 0 0 0 0 0 0 0 0 0 0 0 0 0 0 0 0 0 0 0 0 0 0 0 0 0 1 0 0 0 0 0 1 0 0 0 0 0 0 0 0 0 0 0 0 0 0 0 0 0 0 0 0 0 1 0 0 0 0 1 2 6 0 249 248 253 253 254 253 254 253 254 253 254 255 254 255 254 254 254 253 253 254 253 254 254 253 254 254 253 254 254 253 254 254 253 254 254 253 253 254 253 254 253 255 254 253 254 254 254 253 254 254 255 254 255 255 255 255 255 255 255 255 255 255 255 255 255 255 255 255 255 255 255 255 255 255 255 255 255 255 255 255 255 255 255 255 255 255 255 255 255 255 255 255 255 255 255 255 255 255 255 255 255 255 255 255 255 255 255 
255 255 255 255 255 255 255 255 255 255 255 255 255 255 255 255 255 255 255 255 255 255 255 255 255 255 255 255 255 255 255 255 255 255 255 255 255 255 255 255 255 255 255 255 255 255 255 255 255 255 255 255 255 255 254 254 254 253 254 253 255 253 254 255 254 254 253 255 254 254 253 254 253 254 254 253 253 254 253 254 253 254 252 255 254 254 254 254 254 253 255 253 254 254 254 253 253 254 254 253 254 254 253 254 253 252 249 255 160 0 4 1 0 0 0 0 0 0 0 0 0 0 0 0 0 0 0 0 0 0 0 1 0 0 0 0 0 0 0 0 0 0 0 0 0 0 0 0 0 0 0 1 0 0 0 0 0 0 0 0 0 0 0 0 0 0 0 0 0 0 0 0 0 0 0 0 0 0 0 0 0 0 0 0 0 0 0 0 0 0 0 0 0 0 0 0 0 0 0 0 0 0 0 0 0 0 0 0 0 0 0 0 0 0 0 0 0 1 0 0 0 0 0 0 0 0 0 0 0 0 0 0 0 0 0 0 0 0 1 0 0 0 0 0 0 0 0 0 0 0 0 0 0 0 0 0 0 0 0 0 0 0 0 0 0 0 0 0 0 0 0 0 0 0 1 0 0 0 0 0 0 0 0 0 0 0 0 0 0 0 0 0 0 0 0 0 0 0 0 0 0 0 0 0 0 0 0 0 0 0 0 0 0 0 0 0 0 0 1 0 0 0 0 0 0 0 0 0 0 0 0 0 0 0 0 0 0 0 0 0 0 0 0 0 1 1 2 2 50 255 247 253 253 255 254 254 254 254 254 253 254 254 255 253 254 253 254 255 253 254 254 254 255 253 253 254 252 253 253 253 254 253 255 253 253 255 254 255 253 253 254 255 253 254 253 254 254 254 255 255 254 255 255 255 255 255 255 255 255 255 255 255 255 255 255 255 255 255 255 255 255 255 255 255 255 255 255 255 255 255 255 255 255 255 255 255 255 255 255 255 255 255 255 255 255 255 255 255 255 255 255 255 255 255 255 
255 255 255 255 255 255 255 255 255 255 255 255 255 255 255 255 255 255 255 255 255 255 255 255 255 255 255 255 255 255 255 255 255 255 255 255 255 255 255 255 255 255 255 255 255 255 255 255 255 255 255 255 255 255 254 254 253 253 255 254 253 254 254 254 254 254 254 254 254 254 254 254 255 253 254 253 253 255 253 253 253 254 254 253 253 254 253 254 253 254 254 254 255 254 255 254 254 253 255 253 254 254 254 253 253 252 249 204 0 6 2 0 0 0 0 0 0 0 0 0 0 0 0 0 0 0 0 0 0 0 0 0 0 0 0 0 0 0 0 0 0 0 0 0 0 0 0 0 0 0 0 0 0 0 0 0 0 0 0 0 0 0 0 0 0 0 0 0 0 0 0 0 0 0 0 0 0 0 0 0 0 0 0 0 0 0 0 0 0 0 0 0 0 0 0 0 0 0 0 0 0 0 0 0 0 0 0 0 0 0 0 0 0 0 0 0 0 0 0 0 0 0 0 0 0 0 0 0 0 0 0 0 0 0 0 0 0 0 0 0 1 0 0 1 0 0 0 0 0 0 0 0 0 0 0 0 0 0 0 0 0 0 0 0 0 0 0 0 0 0 0 0 0 0 0 1 0 0 0 0 0 0 0 0 0 0 0 0 0 0 0 0 0 0 1 0 0 0 1 0 0 0 0 0 1 0 0 0 0 0 1 0 0 1 0 0 1 0 0 0 0 0 0 0 0 0 0 0 0 0 0 0 0 0 0 0 0 0 0 0 0 0 0 0 0 1 1 3 0 97 255 251 253 254 254 255 255 254 254 253 253 253 254 253 253 253 255 254 253 254 253 255 253 254 253 254 253 254 254 253 254 253 253 254 253 254 253 255 255 253 253 254 254 254 254 255 254 255 254 253 254 255 255 255 255 255 255 255 255 255 255 255 255 255 255 255 255 255 255 255 255 255 255 255 255 255 255 255 255 255 255 255 255 255 255 255 255 255 255 255 255 255 255 255 255 255 255 255 255 255 255 255 255 255 255 
255 255 255 255 255 255 255 255 255 255 255 255 255 255 255 255 255 255 255 255 255 255 255 255 255 255 255 255 255 255 255 255 255 255 255 255 255 255 255 255 255 255 255 255 255 255 255 255 255 255 255 255 255 255 254 254 253 254 254 255 253 254 255 254 253 254 254 254 254 253 255 253 253 254 254 254 254 254 254 254 254 254 253 253 254 254 253 255 254 254 254 253 253 254 253 255 253 253 254 255 254 255 253 253 253 247 255 5 4 1 1 0 0 0 0 0 0 0 0 0 0 0 0 0 0 0 0 0 0 0 0 0 0 0 0 0 0 0 0 0 0 1 0 0 0 0 0 0 0 0 0 0 0 0 0 0 0 0 0 0 1 0 0 0 0 0 0 0 0 0 0 1 0 0 0 0 0 0 0 0 0 0 0 0 0 0 0 0 0 0 0 0 0 0 0 0 0 0 0 0 0 0 0 0 0 0 0 0 0 0 0 0 0 0 0 0 0 0 0 0 0 0 0 0 0 0 0 1 0 0 0 0 0 0 0 0 0 0 0 0 0 0 0 0 0 0 0 0 0 1 0 0 1 0 0 0 0 1 0 0 0 0 0 0 0 0 0 0 0 0 0 0 0 0 0 0 0 0 0 0 0 0 0 0 0 0 1 0 0 0 0 0 1 0 0 0 0 0 1 1 0 0 0 0 0 0 0 0 0 0 0 0 0 0 0 0 0 0 0 0 0 0 0 0 0 0 0 0 0 0 0 0 0 0 0 0 0 0 0 0 0 0 0 0 0 0 1 0 2 0 214 250 255 253 254 254 255 254 253 254 253 253 253 255 254 254 254 254 253 254 254 253 253 255 254 253 254 253 253 254 254 253 254 253 252 253 253 253 254 254 254 254 255 253 255 255 253 253 253 254 254 255 255 255 255 255 255 255 255 255 255 255 255 255 255 255 255 255 255 255 255 255 255 255 255 255 255 255 255 255 255 255 255 255 255 255 255 255 255 255 255 255 255 255 255 255 255 255 255 255 255 255 255 255 255 
255 255 255 255 255 255 255 255 255 255 255 255 255 255 255 255 255 255 255 255 255 255 255 255 255 255 255 255 255 255 255 255 255 255 255 255 255 255 255 255 255 255 255 255 255 255 255 255 255 255 255 255 255 255 255 254 254 253 255 253 254 253 254 254 253 254 253 255 255 254 255 253 253 255 254 254 254 254 254 253 254 254 253 254 254 255 253 255 254 254 254 253 253 254 254 254 254 254 253 254 255 255 253 254 248 255 43 2 0 0 0 1 0 0 0 1 0 0 0 0 0 0 0 0 0 0 0 1 0 0 0 0 0 0 0 0 0 0 0 0 0 0 0 0 0 0 0 0 0 0 0 0 0 0 0 0 0 0 0 0 0 0 0 0 0 0 0 0 0 0 0 0 0 0 0 0 0 0 0 0 0 0 0 0 0 0 0 0 0 0 0 0 0 0 0 0 0 0 0 0 0 0 0 0 0 0 0 0 0 0 0 0 0 0 0 0 0 0 0 0 0 0 0 0 1 0 0 0 0 0 0 0 0 0 0 0 0 0 0 0 0 0 0 0 0 0 0 1 0 0 0 0 0 0 0 0 0 0 0 0 0 0 0 0 0 0 0 0 0 0 0 0 0 0 0 0 0 0 0 0 0 0 0 0 0 0 0 0 0 0 0 0 0 0 0 0 0 0 0 0 0 0 0 0 0 0 0 0 0 0 0 0 0 0 0 0 0 0 0 0 0 0 0 0 0 0 0 0 0 0 0 0 0 0 0 0 0 0 0 0 0 0 0 0 0 0 0 0 0 5 5 255 248 255 255 253 255 255 253 253 254 254 254 253 254 255 254 253 254 253 254 252 254 254 253 253 254 254 254 254 255 254 255 252 254 253 253 252 254 253 254 254 253 253 254 255 252 254 254 255 254 255 255 255 255 255 255 255 255 255 255 255 255 255 255 255 255 255 255 255 255 255 255 255 255 255 255 255 255 255 255 255 255 255 255 255 255 255 255 255 255 255 255 255 255 255 255 255 255 255 255 255 255 255 255 
255 255 255 255 255 255 255 255 255 255 255 255 255 255 255 255 255 255 255 255 255 255 255 255 255 255 255 255 255 255 255 255 255 255 255 255 255 255 255 255 255 255 255 255 255 255 255 255 255 255 255 255 255 255 254 253 255 254 254 254 253 254 253 254 254 254 253 254 255 254 254 254 255 253 254 254 254 253 253 254 254 253 253 255 253 253 254 255 253 255 254 253 254 254 254 253 255 254 254 254 255 255 255 254 255 138 0 1 0 0 0 1 0 0 0 1 0 0 0 0 0 0 0 0 0 0 1 0 0 0 0 0 0 0 0 0 0 0 0 0 0 0 0 0 0 0 0 0 0 0 0 0 0 0 0 0 0 0 0 0 0 0 0 0 0 0 0 0 0 1 0 0 0 0 0 0 0 0 0 0 0 0 0 0 0 0 0 0 0 0 0 0 0 0 0 0 0 0 0 0 0 0 0 0 0 0 0 0 0 0 0 0 0 0 0 0 0 1 0 0 0 0 0 0 0 0 0 0 0 0 0 0 0 0 0 0 0 0 0 1 0 1 0 0 0 0 0 0 0 0 0 1 0 0 0 0 0 0 0 0 0 0 0 0 0 0 0 0 0 0 0 0 0 0 0 0 0 0 0 0 0 0 0 0 0 0 0 0 0 0 0 0 0 0 0 0 0 1 0 0 0 0 0 0 0 0 1 0 0 0 0 0 0 0 1 0 0 1 0 0 0 0 1 0 0 0 0 1 0 0 0 0 0 0 0 0 0 0 0 0 0 0 0 0 0 0 0 0 0 0 1 65 255 251 255 255 254 255 254 253 254 255 254 254 253 253 255 253 255 254 254 253 254 254 254 253 254 254 254 254 254 254 253 253 255 254 253 254 254 254 253 254 253 254 254 254 254 254 255 254 253 255 255 255 255 255 255 255 255 255 255 255 255 255 255 255 255 255 255 255 255 255 255 255 255 255 255 255 255 255 255 255 255 255 255 255 255 255 255 255 255 255 255 255 255 255 255 255 255 255 255 255 255 255 255 
255 255 255 255 255 255 255 255 255 255 255 255 255 255 255 255 255 255 255 255 255 255 255 255 255 255 255 255 255 255 255 255 255 255 255 255 255 255 255 255 255 255 255 255 255 255 255 255 255 255 255 255 255 255 255 253 254 255 253 255 254 255 253 254 253 254 253 255 254 253 254 254 254 253 254 254 254 254 253 254 253 253 252 255 253 253 254 254 255 254 254 254 254 255 254 253 255 254 254 255 254 254 255 251 227 0 6 0 0 0 0 0 0 0 0 1 0 0 0 0 0 1 0 0 0 0 0 0 0 0 0 0 0 0 1 0 0 0 0 0 0 0 0 0 0 0 1 0 0 0 0 0 0 0 0 0 1 0 0 0 0 0 0 0 0 1 0 0 0 0 0 0 0 0 0 0 0 0 0 0 0 0 0 0 0 0 0 0 0 0 1 0 0 0 0 1 0 0 0 0 0 0 0 0 0 0 0 0 0 0 0 0 0 0 0 0 0 0 0 0 0 0 0 0 0 0 0 0 0 0 0 0 0 0 0 0 0 1 0 0 0 0 0 0 0 0 0 0 0 0 0 0 0 1 0 0 0 0 0 0 0 0 0 0 0 0 0 0 0 0 0 0 0 0 0 1 0 0 0 0 0 0 1 0 0 0 0 0 0 0 0 0 0 0 0 0 0 0 0 0 0 0 0 0 0 1 0 0 0 0 0 0 0 0 0 0 0 0 0 0 0 0 0 0 0 0 0 0 0 0 0 0 0 0 0 0 0 1 0 0 0 0 0 0 0 0 0 0 0 0 4 0 182 252 255 255 255 254 254 253 255 254 253 253 254 253 254 254 254 254 255 253 253 254 255 253 255 253 253 253 254 253 253 255 254 254 254 254 253 253 253 254 253 254 253 255 255 253 254 254 254 255 255 255 255 255 255 255 255 255 255 255 255 255 255 255 255 255 255 255 255 255 255 255 255 255 255 255 255 255 255 255 255 255 255 255 255 255 255 255 255 255 255 255 255 255 255 255 255 255 255 255 255 255 255 
255 255 255 255 255 255 255 255 255 255 255 255 255 255 255 255 255 255 255 255 255 255 255 255 255 255 255 255 255 255 255 255 255 255 255 255 255 255 255 255 255 255 255 255 255 255 255 255 255 255 255 255 255 255 254 253 254 253 254 253 255 255 254 254 254 254 254 253 254 254 253 254 252 253 254 254 255 254 254 253 254 253 254 253 253 253 254 254 254 253 253 255 254 254 255 253 253 254 254 253 252 254 249 255 12 4 1 0 0 0 0 0 0 0 0 1 0 0 0 0 0 0 0 0 0 0 0 0 0 0 0 0 0 0 1 0 0 0 0 0 0 1 1 0 0 0 0 0 0 0 0 0 0 0 0 0 0 0 0 0 0 0 0 0 0 0 0 0 0 0 0 0 0 0 0 0 0 0 0 0 0 0 0 0 0 0 0 0 0 0 0 0 0 1 0 0 0 0 0 0 0 0 0 0 0 0 0 0 0 0 0 0 0 0 0 0 0 0 0 0 0 0 0 0 0 0 0 0 0 0 0 0 0 0 0 0 0 0 0 0 0 0 0 0 0 0 0 0 0 0 0 0 0 1 0 0 0 0 0 0 0 0 0 0 0 0 0 0 0 0 0 1 0 0 0 0 0 0 0 0 0 0 0 0 0 0 1 0 0 0 0 0 0 0 0 0 0 0 0 0 0 0 0 0 0 0 0 0 0 1 0 0 0 0 0 0 0 0 0 0 0 0 0 0 0 0 0 0 0 0 0 0 0 0 0 0 0 0 1 0 0 0 0 0 0 0 0 0 0 0 1 7 0 247 250 255 253 253 254 253 253 254 253 254 253 254 253 255 253 254 253 254 253 253 255 254 253 254 253 254 254 253 254 254 253 254 255 255 253 252 253 255 254 255 253 255 254 254 254 254 255 255 255 255 255 255 255 255 255 255 255 255 255 255 255 255 255 255 255 255 255 255 255 255 255 255 255 255 255 255 255 255 255 255 255 255 255 255 255 255 255 255 255 255 255 255 255 255 255 255 255 255 255 255 255 
255 255 255 255 255 255 255 255 255 255 255 255 255 255 255 255 255 255 255 255 255 255 255 255 255 255 255 255 255 255 255 255 255 255 255 255 255 255 255 255 255 255 255 255 255 255 255 255 255 255 255 255 255 255 254 253 255 254 255 254 254 254 254 253 253 254 254 253 254 255 253 255 253 254 255 255 254 255 253 254 254 254 254 253 253 253 254 255 254 253 252 254 255 253 254 253 254 255 255 253 253 249 255 76 1 3 1 0 0 0 0 0 0 0 0 0 0 0 0 0 0 0 0 0 0 0 0 0 0 0 0 0 0 0 0 0 0 0 0 0 0 0 0 0 0 0 0 0 0 0 0 0 0 0 0 0 0 0 0 0 0 0 0 0 0 0 0 0 0 1 0 0 0 0 0 0 0 0 0 0 0 0 0 2 0 0 0 0 0 0 0 0 0 0 0 0 0 0 0 0 0 0 0 0 0 0 0 0 0 0 0 0 0 0 0 0 0 0 0 0 0 0 0 0 0 0 0 0 0 0 0 0 0 0 0 0 0 0 0 1 1 0 0 0 0 0 0 0 0 0 0 0 0 0 0 0 0 0 0 0 0 0 0 1 0 0 0 0 0 0 0 0 0 0 0 0 0 0 0 0 0 0 0 0 0 0 0 0 0 0 0 0 0 0 0 0 0 0 1 0 0 0 0 0 0 0 0 0 0 0 0 0 0 0 0 0 0 0 0 0 0 0 0 0 0 0 0 0 0 0 0 0 0 0 0 0 0 1 0 0 0 0 0 0 0 0 0 0 0 0 0 0 4 36 255 248 250 254 253 254 254 255 253 254 254 254 255 255 254 254 254 255 253 254 254 254 253 255 253 255 253 253 254 254 253 254 253 254 254 253 254 253 254 254 254 255 253 255 253 255 254 255 255 255 255 255 255 255 255 255 255 255 255 255 255 255 255 255 255 255 255 255 255 255 255 255 255 255 255 255 255 255 255 255 255 255 255 255 255 255 255 255 255 255 255 255 255 255 255 255 255 255 255 255 255 
255 255 255 255 255 255 255 255 255 255 255 255 255 255 255 255 255 255 255 255 255 255 255 255 255 255 255 255 255 255 255 255 255 255 255 255 255 255 255 255 255 255 255 255 255 255 255 255 255 255 255 255 255 255 255 253 253 253 253 255 253 254 254 254 254 254 255 253 254 254 253 254 255 254 253 255 254 254 254 255 253 254 253 254 255 254 253 254 253 254 254 254 254 254 253 254 254 254 254 255 254 252 190 0 4 1 0 0 0 0 0 0 0 0 0 0 0 0 0 0 0 0 0 0 0 0 0 0 0 0 0 0 0 0 0 0 0 0 0 0 0 0 0 0 0 0 0 0 0 0 0 0 0 0 0 0 0 0 0 0 0 0 0 0 0 0 0 0 0 0 0 0 0 0 0 0 0 0 0 0 0 0 0 0 0 0 0 0 0 0 0 0 0 0 0 0 0 0 0 0 0 1 0 0 1 0 0 0 0 0 0 0 0 0 0 0 0 0 0 0 0 0 0 0 0 0 0 0 0 1 0 0 0 0 0 0 0 0 0 0 0 1 0 0 0 0 0 0 0 0 0 0 0 0 0 0 0 0 0 0 0 0 0 0 0 0 0 0 0 1 0 0 0 0 0 0 0 0 0 0 0 0 0 0 0 0 0 0 0 0 0 1 0 0 0 0 0 0 1 0 0 0 0 0 0 0 0 0 0 0 0 0 0 0 0 0 0 0 0 0 0 0 0 0 0 0 0 0 0 0 0 0 0 0 0 1 0 0 0 0 0 0 0 0 0 0 0 0 0 0 0 0 3 0 141 255 249 254 254 255 255 255 253 253 254 255 254 254 253 255 253 253 253 255 254 253 255 255 254 254 253 254 254 255 254 253 253 254 254 254 255 253 254 253 255 254 254 254 254 254 254 255 255 255 255 255 255 255 255 255 255 255 255 255 255 255 255 255 255 255 255 255 255 255 255 255 255 255 255 255 255 255 255 255 255 255 255 255 255 255 255 255 255 255 255 255 255 255 255 255 255 255 255 255 255 
255 255 255 255 255 255 255 255 255 255 255 255 255 255 255 255 255 255 255 255 255 255 255 255 255 255 255 255 255 255 255 255 255 255 255 255 255 255 255 255 255 255 255 255 255 255 255 255 255 255 255 255 255 255 254 253 253 254 253 253 253 254 254 255 254 253 254 253 254 255 254 254 255 254 253 254 254 254 255 253 253 253 253 255 254 254 254 253 254 253 255 254 253 253 253 254 253 253 253 255 248 251 0 5 0 0 0 0 0 0 0 0 0 0 0 0 0 0 0 0 0 1 0 0 0 0 0 0 0 0 0 0 0 0 0 0 0 0 0 0 0 0 0 0 1 0 0 0 0 0 0 0 0 0 0 0 0 0 0 0 0 0 0 0 0 0 0 0 0 0 0 0 0 0 0 0 0 0 0 0 0 0 0 0 0 0 0 0 1 0 0 0 0 0 0 0 0 0 0 0 0 0 0 0 0 0 0 0 0 0 0 0 0 0 0 0 0 0 0 0 0 0 0 0 0 0 0 0 1 0 0 0 0 0 0 0 0 0 0 0 0 0 0 0 0 0 0 0 0 0 0 0 0 0 0 0 0 0 0 0 0 0 0 0 0 0 0 0 0 0 0 0 0 0 0 0 0 0 0 0 0 0 0 0 0 1 0 0 0 0 0 0 0 0 0 0 0 0 0 0 0 0 0 0 0 0 0 0 0 0 0 0 0 0 0 0 0 0 0 1 0 0 0 0 0 0 0 0 0 0 0 0 0 0 0 0 0 0 0 1 0 0 0 0 0 0 0 0 0 1 0 0 1 5 0 226 250 255 255 255 255 254 253 253 255 253 254 253 254 254 253 253 253 255 255 253 252 254 253 254 253 253 254 254 254 254 253 253 254 254 254 253 255 254 254 255 255 253 254 254 254 255 255 255 255 255 255 255 255 255 255 255 255 255 255 255 255 255 255 255 255 255 255 255 255 255 255 255 255 255 255 255 255 255 255 255 255 255 255 255 255 255 255 255 255 255 255 255 255 255 255 255 255 255 255 
255 255 255 255 255 255 255 255 255 255 255 255 255 255 255 255 255 255 255 255 255 255 255 255 255 255 255 255 255 255 255 255 255 255 255 255 255 255 255 255 255 255 255 255 255 255 255 255 255 255 255 255 255 255 254 254 253 253 254 254 253 254 253 254 255 253 253 254 254 253 255 254 254 255 254 254 254 254 254 255 253 253 253 255 253 254 254 253 254 253 254 254 253 254 254 254 253 254 254 250 255 56 4 0 0 0 0 0 0 0 0 0 0 0 0 1 0 0 0 0 0 0 0 0 0 0 0 0 0 0 0 0 1 0 0 1 0 0 0 0 0 0 0 0 0 0 0 0 0 0 0 0 0 0 0 0 0 0 0 0 0 0 0 1 0 0 0 0 0 0 0 0 0 0 0 0 0 0 0 0 0 0 0 0 0 0 0 0 0 0 0 0 0 0 0 0 0 0 0 0 0 0 0 0 0 0 0 0 0 0 0 0 0 0 0 0 0 0 0 0 0 0 0 0 0 0 0 0 1 0 0 0 0 0 0 0 0 0 0 0 0 0 0 0 0 0 0 0 0 0 0 0 0 0 0 0 0 0 0 0 0 0 0 0 0 0 0 0 0 0 0 0 0 0 0 0 1 0 0 0 0 0 0 0 0 0 0 0 0 0 0 0 0 0 0 0 0 0 0 0 0 0 0 0 0 0 0 0 0 0 0 0 0 0 0 0 0 0 0 0 0 0 0 0 0 0 0 0 0 0 0 0 0 0 0 0 0 0 0 0 0 0 0 0 0 0 0 0 0 0 0 1 0 0 3 16 255 249 255 254 254 254 254 254 254 253 255 253 254 254 253 254 254 254 253 254 254 254 254 255 254 253 254 254 254 254 254 253 254 253 253 254 255 255 255 254 253 254 255 254 253 255 255 255 255 255 255 255 255 255 255 255 255 255 255 255 255 255 255 255 255 255 255 255 255 255 255 255 255 255 255 255 255 255 255 255 255 255 255 255 255 255 255 255 255 255 255 255 255 255 255 255 255 255 255 
255 255 255 255 255 255 255 255 255 255 255 255 255 255 255 255 255 255 255 255 255 255 255 255 255 255 255 255 255 255 255 255 255 255 255 255 255 255 255 255 255 255 255 255 255 255 255 255 255 255 255 255 255 255 254 254 254 253 255 254 254 254 252 254 255 254 253 255 254 255 253 255 254 255 254 255 254 254 254 255 253 253 253 252 254 254 254 253 254 253 254 255 253 254 254 255 254 253 252 252 180 0 2 0 0 1 0 0 1 0 0 0 0 0 0 0 0 0 0 0 0 0 0 0 0 0 0 0 0 0 0 0 0 0 0 0 0 0 0 0 0 0 0 0 0 0 0 0 0 0 0 0 0 0 0 0 0 0 0 0 0 0 0 0 0 0 0 0 0 0 0 0 0 0 0 0 0 0 0 0 0 0 0 0 0 0 0 0 0 0 0 0 0 0 0 0 0 0 0 0 0 0 0 0 0 0 0 0 0 0 0 0 0 0 0 0 0 0 0 0 0 0 0 0 0 0 0 0 0 0 0 0 0 0 0 1 0 0 0 0 0 0 0 0 0 0 0 0 0 0 1 1 0 0 0 0 0 0 0 0 0 0 0 0 0 0 0 0 0 0 0 0 0 0 0 1 0 0 0 0 0 0 0 0 0 0 0 0 0 0 0 0 0 0 0 0 0 0 0 0 0 0 0 0 0 0 0 0 0 0 0 0 0 0 0 0 0 0 0 0 0 0 0 0 0 0 0 0 0 0 0 0 0 0 1 0 0 0 0 0 0 0 0 0 0 0 0 0 0 0 0 0 0 0 0 1 116 255 252 253 254 253 254 253 254 253 255 253 252 254 254 253 255 254 254 254 254 253 254 254 253 254 254 253 254 253 254 254 254 254 253 254 255 255 255 254 254 254 253 253 254 255 255 255 255 255 255 255 255 255 255 255 255 255 255 255 255 255 255 255 255 255 255 255 255 255 255 255 255 255 255 255 255 255 255 255 255 255 255 255 255 255 255 255 255 255 255 255 255 255 255 255 255 255 255 
255 255 255 255 255 255 255 255 255 255 255 255 255 255 255 255 255 255 255 255 255 255 255 255 255 255 255 255 255 255 255 255 255 255 255 255 255 255 255 255 255 255 255 255 255 255 255 255 255 255 255 255 255 255 254 254 255 254 253 253 254 253 254 254 254 254 253 254 253 254 253 254 254 255 255 253 254 253 254 252 254 253 253 253 254 253 254 253 254 253 255 254 255 253 254 255 254 255 246 252 1 8 1 1 0 0 0 1 0 0 0 0 0 0 1 0 0 0 0 0 0 0 0 1 0 0 0 0 0 0 0 0 0 0 0 0 0 0 1 0 0 0 0 0 0 0 0 0 0 0 0 0 0 0 0 0 0 0 0 0 0 0 0 0 0 0 0 0 0 0 0 0 0 0 0 0 0 0 0 0 0 0 0 0 0 0 0 0 1 0 0 0 0 0 0 0 0 0 0 0 0 0 0 0 0 0 0 1 0 0 0 0 0 0 0 0 0 0 0 0 0 0 0 0 0 0 0 0 0 0 0 0 0 0 0 0 1 0 0 0 0 0 0 0 0 0 0 0 0 0 0 0 0 0 0 0 0 0 0 0 0 0 0 0 0 0 0 0 0 0 0 0 0 0 0 0 0 0 0 0 0 0 0 0 0 0 0 0 0 0 0 0 0 0 0 0 0 0 0 0 0 0 0 0 0 0 0 0 0 0 1 0 0 0 0 0 0 0 0 0 0 0 0 0 0 0 0 0 0 0 0 0 0 0 0 0 0 0 0 0 0 0 0 0 0 0 0 0 0 0 1 0 0 0 0 1 0 226 251 254 254 252 254 253 255 255 255 254 253 253 254 255 254 254 253 253 254 253 253 255 253 255 255 253 254 253 254 253 253 254 253 253 254 254 254 254 254 255 253 254 254 255 255 255 255 255 255 255 255 255 255 255 255 255 255 255 255 255 255 255 255 255 255 255 255 255 255 255 255 255 255 255 255 255 255 255 255 255 255 255 255 255 255 255 255 255 255 255 255 255 255 255 255 255 255 
255 255 255 255 255 255 255 255 255 255 255 255 255 255 255 255 255 255 255 255 255 255 255 255 255 255 255 255 255 255 255 255 255 255 255 255 255 255 255 255 255 255 255 255 255 255 255 255 255 255 255 255 255 255 253 253 254 254 254 254 255 254 254 253 254 255 253 253 254 255 253 255 255 253 254 254 254 253 255 253 254 253 253 253 255 253 254 254 253 253 255 254 255 253 255 254 255 252 255 63 3 0 1 0 0 1 0 0 0 0 0 0 0 0 0 1 0 0 0 0 0 0 0 0 0 0 0 0 0 0 0 0 0 0 0 0 0 0 1 0 0 0 0 0 0 0 0 0 0 0 0 0 0 0 0 0 0 0 0 0 0 0 0 0 0 0 0 0 0 0 0 0 0 0 0 0 0 0 0 0 0 0 0 0 0 0 0 0 0 0 0 0 0 0 0 0 0 0 0 0 0 0 0 0 0 0 0 0 0 0 0 0 0 0 0 0 0 0 0 0 0 0 0 0 0 0 0 0 0 0 0 0 0 0 1 0 0 0 0 0 0 0 0 1 0 0 0 0 1 0 0 0 0 0 0 0 0 0 0 0 0 0 0 0 0 0 0 0 0 0 0 0 0 0 0 0 0 0 0 0 0 0 0 0 0 0 0 0 0 0 0 0 0 0 0 0 0 0 0 0 0 0 0 0 0 0 0 0 0 0 0 1 0 0 0 0 0 0 0 1 0 0 0 0 0 0 0 0 0 0 0 0 0 0 0 0 0 1 0 0 0 0 0 0 0 0 0 0 0 0 0 0 0 0 0 1 2 37 255 251 255 253 254 255 254 255 253 253 253 254 255 253 255 253 254 253 255 254 254 254 253 254 253 254 254 255 253 254 254 254 252 255 253 254 254 254 253 255 253 254 255 255 255 255 255 255 255 255 255 255 255 255 255 255 255 255 255 255 255 255 255 255 255 255 255 255 255 255 255 255 255 255 255 255 255 255 255 255 255 255 255 255 255 255 255 255 255 255 255 255 255 255 255 255 255 
255 255 255 255 255 255 255 255 255 255 255 255 255 255 255 255 255 255 255 255 255 255 255 255 255 255 255 255 255 255 255 255 255 255 255 255 255 255 255 255 255 255 255 255 255 255 255 255 255 255 255 255 255 255 253 253 254 254 253 254 253 254 254 253 255 255 254 253 254 253 253 255 253 253 254 255 254 254 254 255 253 254 253 253 255 253 254 253 253 254 254 255 255 254 253 254 255 251 207 0 2 0 0 0 0 0 0 0 0 0 0 0 1 0 0 1 0 0 0 0 0 0 0 0 0 0 0 0 0 0 0 0 0 0 0 0 0 0 0 0 0 0 0 0 0 0 0 0 0 0 0 0 0 0 0 1 0 0 0 0 0 0 0 0 0 0 0 0 0 0 0 0 0 0 0 0 0 0 0 0 0 0 0 0 0 0 0 0 0 0 0 1 0 0 0 0 0 0 0 0 0 0 0 0 0 0 0 0 0 0 0 1 0 0 1 0 0 0 0 0 0 0 0 0 0 0 0 0 0 0 0 0 0 0 0 0 0 0 0 1 0 0 0 0 0 0 0 0 0 0 0 0 0 0 0 0 0 1 0 0 0 0 0 0 0 0 1 0 0 0 0 0 0 0 0 1 0 0 0 0 0 0 0 0 0 0 0 1 0 0 0 0 0 0 0 0 0 0 0 0 0 0 0 0 0 0 0 0 0 0 1 0 0 0 0 0 0 0 0 0 0 0 0 0 0 0 0 0 1 0 0 0 0 0 0 0 0 0 0 0 0 0 0 0 0 0 0 0 0 0 0 0 0 0 0 1 0 0 155 254 254 252 253 255 255 253 253 253 253 255 255 253 253 254 252 253 254 255 253 254 254 254 253 254 253 255 253 254 254 253 254 253 254 254 255 254 254 254 253 254 254 255 255 255 255 255 255 255 255 255 255 255 255 255 255 255 255 255 255 255 255 255 255 255 255 255 255 255 255 255 255 255 255 255 255 255 255 255 255 255 255 255 255 255 255 255 255 255 255 255 255 255 255 255 255 
255 255 255 255 255 255 255 255 255 255 255 255 255 255 255 255 255 255 255 255 255 255 255 255 255 255 255 255 255 255 255 255 255 255 255 255 255 255 255 255 255 255 255 255 255 255 255 255 255 255 255 255 255 255 254 253 254 255 253 254 254 254 254 252 253 254 254 253 253 253 253 254 254 253 253 254 253 255 254 253 253 254 254 254 255 253 253 253 253 254 255 253 254 254 252 254 249 255 19 3 0 0 0 1 0 0 0 0 0 0 0 0 0 0 0 0 0 0 0 0 0 0 0 0 0 0 0 0 0 0 0 0 0 0 0 0 0 1 0 0 0 0 0 0 0 0 0 0 0 0 0 0 0 0 0 0 0 0 0 0 0 0 0 0 0 0 0 0 0 0 0 0 0 0 0 0 0 0 0 0 0 0 0 0 0 0 0 0 0 0 0 1 0 0 0 0 0 0 0 0 0 0 0 0 0 0 0 0 0 0 0 0 0 0 0 0 0 0 0 0 0 0 0 0 0 0 0 0 0 0 0 0 0 0 0 0 0 0 0 0 0 0 0 0 0 0 0 0 0 0 0 0 0 0 0 0 0 0 0 0 0 0 0 0 0 1 0 0 0 0 0 0 0 0 0 0 0 0 0 0 0 0 0 0 0 0 0 0 0 0 0 0 1 0 0 0 0 0 0 0 0 0 0 0 1 0 0 0 0 0 1 0 0 0 0 0 0 0 0 0 0 0 0 0 0 0 0 1 0 1 0 0 0 0 0 0 0 0 0 0 0 0 0 0 0 0 0 0 0 0 0 0 0 0 0 0 0 3 0 240 249 251 255 255 255 253 253 253 254 255 254 255 254 253 253 254 253 253 254 253 252 254 254 254 253 254 254 254 254 254 254 253 255 254 255 254 255 254 254 253 254 255 255 255 255 255 255 255 255 255 255 255 255 255 255 255 255 255 255 255 255 255 255 255 255 255 255 255 255 255 255 255 255 255 255 255 255 255 255 255 255 255 255 255 255 255 255 255 255 255 255 255 255 255 255 
255 255 255 255 255 255 255 255 255 255 255 255 255 255 255 255 255 255 255 255 255 255 255 255 255 255 255 255 255 255 255 255 255 255 255 255 255 255 255 255 255 255 255 255 255 255 255 255 255 255 255 255 255 255 254 254 255 254 254 254 254 255 253 253 253 254 253 254 253 253 253 254 254 253 253 255 254 253 254 254 253 253 253 254 255 255 253 253 255 255 255 253 252 253 254 253 255 104 1 2 0 0 0 0 0 0 0 0 0 0 0 0 0 0 0 0 0 0 0 0 0 0 0 0 0 0 0 0 0 0 0 0 0 0 0 0 0 0 0 0 0 0 0 0 0 0 0 0 0 0 0 0 0 0 0 0 0 0 0 1 0 0 0 0 0 0 0 0 0 0 0 0 0 0 0 0 0 0 0 0 0 0 0 0 0 0 0 0 1 0 0 0 0 0 0 0 0 0 0 0 0 0 0 0 0 0 0 0 0 0 0 0 0 0 0 0 0 0 0 0 0 0 0 0 0 0 0 0 0 0 0 0 1 0 0 0 0 0 0 0 0 0 0 0 0 0 0 0 0 1 0 0 0 0 0 0 0 0 0 0 0 0 0 1 0 0 0 0 1 0 0 0 1 0 0 0 0 0 0 0 0 0 0 0 0 0 0 0 0 0 0 0 0 0 0 1 0 0 0 0 0 0 0 0 0 0 0 0 0 0 0 0 0 0 0 0 0 0 0 0 0 0 0 0 0 0 0 1 0 0 0 0 0 0 0 0 0 0 0 0 0 0 0 0 0 0 0 0 0 0 0 0 0 0 0 0 0 0 3 47 255 250 254 255 255 253 252 253 254 254 255 255 255 253 253 254 254 253 253 254 253 253 254 254 254 253 254 253 254 254 255 254 253 255 255 254 253 254 255 254 254 255 255 255 255 255 255 255 255 255 255 255 255 255 255 255 255 255 255 255 255 255 255 255 255 255 255 255 255 255 255 255 255 255 255 255 255 255 255 255 255 255 255 255 255 255 255 255 255 255 255 255 255 255 255 
255 255 255 255 255 255 255 255 255 255 255 255 255 255 255 255 255 255 255 255 255 255 255 255 255 255 255 255 255 255 255 255 255 255 255 255 255 255 255 255 255 255 255 255 255 255 255 255 255 255 255 255 255 255 254 254 253 254 253 254 254 255 253 254 253 254 254 253 255 253 253 255 254 253 253 253 254 255 253 255 253 253 254 253 253 255 253 253 255 254 255 252 252 252 255 251 209 0 6 3 0 0 0 0 0 0 0 0 0 0 0 0 0 0 0 0 0 0 0 0 0 0 0 0 0 0 0 0 0 0 0 0 0 0 0 0 0 0 0 0 0 0 0 0 0 0 0 0 0 0 0 0 0 1 0 0 0 0 0 0 0 0 0 0 0 0 0 0 0 0 0 0 0 0 0 0 0 0 0 0 0 0 1 0 0 0 0 0 0 0 0 0 0 0 0 0 0 0 0 0 0 0 0 0 0 0 0 0 0 0 0 0 0 0 0 0 0 0 0 0 0 0 0 0 0 0 0 0 0 0 0 0 0 0 0 0 0 0 0 0 0 0 0 0 0 1 0 0 1 0 0 0 0 1 0 0 0 0 0 0 0 0 0 0 0 0 0 0 0 1 1 0 0 0 0 0 0 0 0 1 0 0 0 0 0 0 0 0 0 0 0 0 0 0 0 0 0 0 0 0 0 0 0 0 0 0 0 0 0 0 0 0 0 0 0 0 0 0 0 0 0 0 0 0 0 0 0 0 1 0 0 0 0 0 0 0 0 0 0 0 0 0 0 0 0 0 0 0 0 0 0 0 0 0 0 0 0 1 2 0 164 254 254 255 253 251 253 254 255 255 254 254 253 253 254 253 254 253 253 254 255 253 254 253 255 253 254 253 254 254 254 255 254 255 253 254 254 253 254 253 255 255 255 255 255 255 255 255 255 255 255 255 255 255 255 255 255 255 255 255 255 255 255 255 255 255 255 255 255 255 255 255 255 255 255 255 255 255 255 255 255 255 255 255 255 255 255 255 255 255 255 255 255 255 255 
255 255 255 255 255 255 255 255 255 255 255 255 255 255 255 255 255 255 255 255 255 255 255 255 255 255 255 255 255 255 255 255 255 255 255 255 255 255 255 255 255 255 255 255 255 255 255 255 255 255 255 255 255 255 254 255 253 254 254 255 253 254 253 254 253 254 255 253 253 254 254 254 254 253 254 253 254 253 254 254 253 255 255 253 253 253 254 254 254 255 255 252 251 250 243 255 14 3 1 2 0 0 0 0 0 0 0 0 0 0 0 0 0 0 0 0 0 0 0 0 0 0 0 0 0 0 0 0 0 0 0 0 0 0 0 0 0 0 0 0 0 0 0 0 0 0 0 0 0 0 0 0 0 0 0 0 0 0 0 0 0 0 0 0 0 0 0 0 0 0 0 0 0 0 0 0 0 1 0 0 1 0 0 0 0 0 0 0 0 0 0 1 0 0 0 0 0 0 0 0 0 0 0 0 0 0 0 0 0 0 0 0 0 0 0 0 0 0 0 0 0 0 0 1 0 0 0 1 0 0 0 0 0 0 0 0 0 0 0 0 0 0 0 0 0 0 0 0 0 0 0 0 0 0 0 0 0 0 0 0 0 0 0 0 0 0 0 0 0 0 0 0 0 0 0 0 0 0 0 0 0 0 0 0 0 1 0 0 0 0 0 0 0 0 0 0 0 0 0 0 0 0 0 0 0 0 0 0 0 0 0 1 0 0 0 0 0 0 0 0 0 0 0 0 1 0 0 0 0 0 0 0 1 0 0 0 0 0 0 0 0 0 0 0 0 0 0 0 0 0 0 0 0 0 0 0 0 0 1 3 2 250 246 250 250 251 252 255 254 255 255 255 252 253 253 254 254 255 255 253 253 254 254 254 254 253 254 254 253 254 254 255 254 255 254 253 254 254 253 253 255 255 255 255 255 255 255 255 255 255 255 255 255 255 255 255 255 255 255 255 255 255 255 255 255 255 255 255 255 255 255 255 255 255 255 255 255 255 255 255 255 255 255 255 255 255 255 255 255 255 255 255 255 255 255 
255 255 255 255 255 255 255 255 255 255 255 255 255 255 255 255 255 255 255 255 255 255 255 255 255 255 255 255 255 255 255 255 255 255 255 255 255 255 255 255 255 255 255 255 255 255 255 255 255 255 255 255 255 255 253 254 253 255 253 253 255 254 254 254 255 253 254 255 253 253 253 253 254 253 254 254 254 253 253 253 254 254 255 253 252 253 255 254 248 248 255 255 250 250 255 96 1 0 0 0 1 0 0 0 0 0 0 0 0 0 0 0 0 0 0 0 0 0 0 0 0 0 0 0 0 0 0 0 0 0 0 0 0 0 0 0 0 0 1 0 0 0 0 0 0 0 0 0 0 0 0 0 0 0 1 0 0 0 0 0 0 0 0 0 0 0 0 0 0 0 0 0 0 0 0 0 0 0 1 0 0 0 0 0 0 0 0 0 1 0 0 0 0 0 0 0 1 0 0 0 0 0 0 0 0 0 0 0 0 0 0 0 0 0 0 0 0 0 0 0 1 0 0 0 0 0 0 0 0 0 0 0 0 0 0 0 0 0 0 0 0 0 0 0 0 0 0 0 1 0 0 0 0 0 0 0 0 1 0 0 1 0 0 0 0 1 0 0 0 0 0 0 0 0 0 0 0 0 0 1 0 0 0 0 0 1 0 0 0 0 1 0 0 0 0 0 0 0 0 0 0 0 0 0 0 0 0 0 0 0 0 0 1 0 0 0 0 0 0 0 0 0 0 0 0 0 0 0 0 0 0 0 0 0 0 0 0 0 0 0 0 0 0 0 0 0 0 0 0 0 0 0 0 0 0 0 1 0 0 0 0 79 251 244 242 255 255 252 247 251 255 252 252 253 254 255 254 254 254 254 253 253 254 254 254 253 255 255 254 254 253 253 254 253 255 253 254 254 253 253 254 255 255 255 255 255 255 255 255 255 255 255 255 255 255 255 255 255 255 255 255 255 255 255 255 255 255 255 255 255 255 255 255 255 255 255 255 255 255 255 255 255 255 255 255 255 255 255 255 255 255 255 255 255 255 
255 255 255 255 255 255 255 255 255 255 255 255 255 255 255 255 255 255 255 255 255 255 255 255 255 255 255 255 255 255 255 255 255 255 255 255 255 255 255 255 255 255 255 255 255 255 255 255 255 255 255 255 255 255 255 254 253 254 254 253 255 253 255 254 255 253 254 253 254 253 253 253 254 253 253 253 254 253 254 253 254 255 254 253 251 251 246 255 255 207 112 57 8 10 10 0 3 0 0 0 0 0 0 0 0 0 0 0 0 0 0 0 0 0 1 0 0 0 0 0 0 0 0 0 0 0 0 0 1 0 0 0 0 0 0 0 0 0 0 1 0 0 0 0 0 0 0 0 0 0 0 0 0 0 0 0 0 0 0 0 0 0 0 0 0 0 0 0 0 0 0 0 0 0 0 0 0 0 0 0 0 0 0 0 0 0 0 0 0 0 0 0 0 0 0 0 0 0 0 0 0 0 0 0 0 0 0 0 0 0 1 0 0 0 0 0 0 0 0 0 0 0 0 0 1 0 0 0 0 0 0 0 0 0 0 0 0 0 0 0 0 0 0 0 0 0 0 0 0 0 0 0 0 0 0 0 0 0 0 0 1 0 0 0 0 0 0 0 0 0 0 0 0 0 0 0 0 0 0 0 0 0 0 0 0 0 0 0 0 0 0 0 0 0 0 0 0 0 0 0 0 0 1 0 0 0 0 0 0 0 0 0 0 0 0 0 0 0 0 0 0 0 0 1 0 0 0 0 0 0 0 0 0 0 0 0 0 0 0 0 0 0 0 0 0 0 0 0 0 0 0 0 0 0 0 0 0 0 0 0 2 0 4 4 1 57 62 166 235 255 249 251 249 253 254 255 254 254 253 253 254 253 254 254 255 253 254 254 254 253 254 254 254 253 255 253 253 254 255 253 254 255 255 255 255 255 255 255 255 255 255 255 255 255 255 255 255 255 255 255 255 255 255 255 255 255 255 255 255 255 255 255 255 255 255 255 255 255 255 255 255 255 255 255 255 255 255 255 255 255 255 255 255 255 255 
255 255 255 255 255 255 255 255 255 255 255 255 255 255 255 255 255 255 255 255 255 255 255 255 255 255 255 255 255 255 255 255 255 255 255 255 255 255 255 255 255 255 255 255 255 255 255 255 255 255 255 255 255 255 254 254 254 254 253 254 254 253 253 254 254 253 254 253 253 254 254 254 254 253 254 254 253 253 254 254 255 255 254 252 246 254 250 123 14 0 1 2 1 2 0 0 0 0 0 0 0 0 0 0 0 0 0 0 0 0 0 0 0 0 0 0 0 0 0 0 0 0 0 0 0 0 0 0 0 0 0 0 0 0 0 0 0 0 0 0 0 0 0 0 0 0 0 0 0 0 0 0 0 0 0 0 0 0 0 0 0 0 0 0 0 0 0 0 0 0 0 0 0 0 0 0 0 0 0 0 0 0 0 0 0 0 0 0 0 0 0 0 0 0 0 0 0 1 0 0 0 0 1 0 0 0 0 0 0 0 0 0 0 0 0 0 1 0 0 0 0 0 0 0 0 0 0 0 0 0 0 0 0 0 0 0 0 0 0 0 0 0 0 0 0 0 0 0 0 0 0 0 0 0 0 0 0 0 0 0 0 0 0 0 0 0 0 0 0 0 0 0 0 0 0 0 0 0 0 0 0 0 0 0 0 0 0 0 0 0 0 0 0 0 0 0 0 0 0 0 0 0 1 0 0 0 0 0 0 0 0 0 0 0 0 1 0 0 0 0 0 0 0 0 0 0 0 0 0 0 0 0 0 0 0 0 0 1 0 0 0 0 0 0 0 0 0 0 0 0 0 0 0 0 0 0 0 0 0 0 1 2 2 0 1 1 2 0 0 58 229 255 245 253 255 254 255 253 253 253 253 253 255 253 255 254 254 254 254 253 254 253 255 254 254 254 254 253 254 254 255 255 255 255 255 255 255 255 255 255 255 255 255 255 255 255 255 255 255 255 255 255 255 255 255 255 255 255 255 255 255 255 255 255 255 255 255 255 255 255 255 255 255 255 255 255 255 255 255 255 255 255 255 255 255 
255 255 255 255 255 255 255 255 255 255 255 255 255 255 255 255 255 255 255 255 255 255 255 255 255 255 255 255 255 255 255 255 255 255 255 255 255 255 255 255 255 255 255 255 255 255 255 255 255 255 255 255 255 255 253 254 253 254 254 254 255 254 253 254 254 253 254 255 254 254 253 255 254 254 254 253 253 254 253 255 254 254 255 247 255 158 5 1 3 1 1 1 2 2 1 0 0 0 1 0 0 0 0 0 0 0 0 0 0 0 0 0 0 0 0 0 0 0 0 0 0 0 0 0 0 1 0 0 0 0 0 0 0 0 0 1 0 0 0 0 0 0 0 0 0 0 0 0 0 0 1 0 0 1 0 0 0 0 0 0 0 0 0 0 0 0 0 0 0 0 0 0 0 0 0 0 0 0 1 0 0 0 0 0 0 0 0 0 0 0 0 0 0 0 0 0 0 0 0 0 0 0 0 0 0 0 1 0 0 0 0 0 0 0 0 0 0 0 0 0 0 0 0 0 0 0 0 0 0 0 0 0 0 0 0 0 0 0 0 0 0 0 0 0 0 0 0 0 0 0 0 0 0 0 0 0 0 0 0 0 0 0 0 0 0 0 0 1 0 0 1 0 0 0 1 0 0 0 0 0 0 0 1 0 0 0 0 0 0 1 0 0 0 0 0 0 0 0 0 0 0 0 0 0 0 1 0 0 0 0 1 0 0 0 0 0 0 1 0 0 0 0 0 0 0 0 0 0 0 0 0 0 0 0 0 0 0 0 0 0 0 0 0 0 0 0 0 0 0 0 0 0 0 0 0 0 0 0 0 0 0 0 1 0 0 1 2 4 5 4 0 142 255 247 255 254 255 253 253 254 253 253 253 253 255 253 255 253 254 255 253 254 255 253 254 254 255 254 254 255 255 255 255 255 255 255 255 255 255 255 255 255 255 255 255 255 255 255 255 255 255 255 255 255 255 255 255 255 255 255 255 255 255 255 255 255 255 255 255 255 255 255 255 255 255 255 255 255 255 255 255 255 255 255 255 
255 255 255 255 255 255 255 255 255 255 255 255 255 255 255 255 255 255 255 255 255 255 255 255 255 255 255 255 255 255 255 255 255 255 255 255 255 255 255 255 255 255 255 255 255 255 255 255 255 255 255 255 255 255 254 253 254 253 254 255 253 253 254 254 253 254 253 255 254 254 253 254 254 254 254 253 253 253 253 255 254 255 248 255 60 0 3 3 2 0 0 0 0 1 0 0 0 0 0 0 0 0 0 0 0 0 0 0 0 0 0 0 0 0 0 0 0 0 0 0 0 0 0 0 0 0 0 0 0 0 0 0 1 0 0 0 0 0 0 0 0 0 0 0 0 1 0 0 0 0 0 1 0 0 0 0 0 0 0 0 0 0 0 0 0 0 0 0 0 0 0 0 0 0 0 1 0 0 0 0 0 0 0 0 0 0 0 0 0 0 0 0 0 0 0 0 0 0 0 0 0 0 0 0 0 0 0 0 0 0 0 0 0 0 0 0 0 0 0 0 0 0 0 0 0 0 0 0 0 0 1 0 0 0 0 0 0 0 0 0 0 0 0 0 0 0 0 0 0 1 0 0 0 0 0 0 0 0 0 0 1 0 0 0 0 0 0 0 0 0 0 0 0 0 1 0 0 0 0 0 1 0 0 0 0 0 0 0 0 0 0 0 0 0 0 0 0 0 0 0 0 0 0 0 0 0 1 0 0 0 0 1 0 0 0 0 0 0 0 0 0 0 0 0 0 0 0 0 0 0 0 0 0 0 0 0 0 0 0 0 0 0 0 0 0 0 0 0 0 0 0 0 0 0 0 0 0 0 0 0 0 0 0 0 0 0 0 2 2 1 5 0 78 255 249 255 253 253 255 253 253 254 253 254 253 254 253 253 254 253 255 254 255 252 253 253 254 254 254 254 255 255 255 255 255 255 255 255 255 255 255 255 255 255 255 255 255 255 255 255 255 255 255 255 255 255 255 255 255 255 255 255 255 255 255 255 255 255 255 255 255 255 255 255 255 255 255 255 255 255 255 255 255 255 255 
255 255 255 255 255 255 255 255 255 255 255 255 255 255 255 255 255 255 255 255 255 255 255 255 255 255 255 255 255 255 255 255 255 255 255 255 255 255 255 255 255 255 255 255 255 255 255 255 255 255 255 255 255 255 254 254 254 254 253 255 254 253 254 254 253 254 254 254 254 255 253 254 253 253 253 254 254 253 254 255 255 251 255 35 1 4 0 1 1 0 0 0 0 0 1 0 0 0 0 0 0 0 0 0 0 0 0 1 0 0 0 0 0 0 0 0 0 0 0 0 0 0 0 0 0 0 0 0 0 0 0 0 0 0 0 0 0 0 0 0 0 0 0 0 0 0 1 2 0 1 2 0 1 0 1 1 0 0 0 0 0 0 0 0 0 0 0 0 0 0 0 0 0 0 0 0 0 0 0 0 0 0 0 0 0 0 0 0 0 0 0 0 0 0 0 0 0 0 0 0 0 0 0 0 0 0 0 0 0 0 0 0 0 1 0 0 0 0 0 0 0 0 0 0 0 0 0 0 0 0 0 0 0 0 0 0 1 0 0 0 0 0 0 0 0 0 0 0 0 0 0 0 0 0 0 0 0 0 0 0 0 0 0 0 0 0 0 0 0 0 0 0 0 0 0 0 0 0 0 0 0 0 0 0 0 0 0 0 0 0 0 0 0 0 0 1 0 0 0 0 0 0 0 0 0 2 7 2 1 1 0 0 0 0 0 0 0 0 0 0 0 0 0 0 0 0 0 0 0 0 0 0 0 0 0 0 0 0 0 0 0 0 0 0 0 0 0 1 0 0 0 0 0 0 0 0 0 0 0 0 1 0 0 0 0 0 0 1 1 0 0 4 0 99 255 249 254 253 254 253 253 253 253 255 253 254 253 254 253 253 254 255 254 254 254 253 253 253 254 254 254 255 255 255 255 255 255 255 255 255 255 255 255 255 255 255 255 255 255 255 255 255 255 255 255 255 255 255 255 255 255 255 255 255 255 255 255 255 255 255 255 255 255 255 255 255 255 255 255 255 255 255 255 255 255 
255 255 255 255 255 255 255 255 255 255 255 255 255 255 255 255 255 255 255 255 255 255 255 255 255 255 255 255 255 255 255 255 255 255 255 255 255 255 255 255 255 255 255 255 255 255 255 255 255 255 255 255 255 255 253 254 255 254 253 253 254 255 254 254 254 254 253 254 254 255 253 255 253 254 252 254 253 254 255 254 251 255 76 0 3 0 0 0 0 0 0 0 1 0 0 0 0 0 0 0 0 0 1 0 0 0 0 0 0 0 0 0 0 0 0 0 0 0 1 0 0 0 0 0 0 0 0 0 0 0 0 0 0 0 0 0 0 0 0 0 0 0 1 0 0 0 1 3 2 1 6 1 0 1 0 0 1 0 0 0 0 0 0 0 0 0 0 0 0 0 0 0 0 0 0 0 0 0 0 0 1 0 1 0 1 0 0 0 0 0 0 0 0 0 0 0 0 0 0 0 0 0 0 0 0 0 0 0 0 0 0 0 0 0 0 0 0 0 0 0 0 0 0 0 0 0 0 0 0 0 0 0 0 0 0 0 0 0 0 0 0 1 0 0 0 0 0 0 0 0 0 0 0 0 0 0 0 0 0 0 0 0 0 0 0 0 0 0 0 0 0 0 0 0 0 0 0 0 0 0 0 0 0 0 0 0 0 0 0 0 0 0 0 0 0 0 1 0 0 0 0 0 0 0 0 0 154 13 8 1 0 0 0 0 0 0 0 0 0 0 0 1 0 0 0 0 0 0 0 0 1 0 0 1 0 0 0 0 0 0 0 0 0 0 0 0 0 0 0 0 0 0 0 0 0 0 0 0 0 0 0 0 0 0 0 0 0 1 0 0 0 0 4 0 163 255 252 253 253 254 254 254 253 254 254 255 255 255 253 253 253 255 254 255 254 254 254 254 254 254 254 255 255 255 255 255 255 255 255 255 255 255 255 255 255 255 255 255 255 255 255 255 255 255 255 255 255 255 255 255 255 255 255 255 255 255 255 255 255 255 255 255 255 255 255 255 255 255 255 255 255 255 255 255 255 
255 255 255 255 255 255 255 255 255 255 255 255 255 255 255 255 255 255 255 255 255 255 255 255 255 255 255 255 255 255 255 255 255 255 255 255 255 255 255 255 255 255 255 255 255 255 255 255 255 255 255 255 255 255 254 253 254 254 253 254 254 255 254 254 253 254 253 255 254 255 253 255 254 255 253 255 253 255 255 252 254 194 0 5 0 0 1 0 0 0 0 0 0 0 0 0 0 0 0 0 0 0 0 0 0 0 0 0 0 0 0 0 0 0 0 0 0 0 0 0 0 0 0 0 0 0 0 0 0 0 0 0 0 0 0 0 0 0 0 0 0 1 0 0 0 0 0 2 6 32 144 0 0 0 0 0 0 0 0 0 0 0 0 0 0 0 0 0 0 0 0 0 0 0 0 0 0 0 0 0 0 0 0 0 0 0 0 0 0 0 0 0 0 1 0 0 0 0 0 0 0 0 0 0 0 1 0 0 0 0 0 1 0 0 0 0 0 0 0 0 0 0 0 1 0 0 0 0 0 0 0 1 0 0 0 0 0 0 0 0 0 0 0 0 0 0 0 0 0 0 0 0 0 0 0 0 0 0 0 0 0 0 0 0 0 0 0 0 0 0 0 0 0 0 0 0 1 0 0 0 0 0 0 0 0 0 0 0 0 0 0 0 0 0 0 0 0 0 0 0 0 0 0 0 0 1 120 185 0 1 0 0 0 0 0 0 0 0 0 0 0 0 0 0 0 0 0 0 1 0 0 0 0 0 0 0 0 0 0 0 0 0 0 0 0 0 0 0 0 0 0 0 0 0 0 0 0 0 0 0 0 0 0 0 0 0 0 0 0 0 0 0 0 5 1 236 251 253 254 254 254 254 254 253 253 254 255 254 255 254 252 254 255 254 255 254 255 255 254 255 254 255 255 255 255 255 255 255 255 255 255 255 255 255 255 255 255 255 255 255 255 255 255 255 255 255 255 255 255 255 255 255 255 255 255 255 255 255 255 255 255 255 255 255 255 255 255 255 255 255 255 255 255 255 255 
255 255 255 255 255 255 255 255 255 255 255 255 255 255 255 255 255 255 255 255 255 255 255 255 255 255 255 255 255 255 255 255 255 255 255 255 255 255 255 255 255 255 255 255 255 255 255 255 255 255 255 255 255 255 254 253 252 254 254 254 254 254 254 255 254 254 253 254 254 253 254 253 253 253 254 253 253 255 254 252 255 26 3 2 1 1 0 0 0 0 0 0 0 0 1 0 0 0 0 0 0 0 0 0 0 0 0 0 0 0 0 0 0 0 0 0 0 0 0 0 0 0 0 0 0 0 0 0 1 0 0 0 0 0 0 0 0 0 0 0 0 0 0 0 0 0 0 5 0 224 75 0 0 0 0 0 0 0 0 0 0 0 0 0 0 0 0 1 0 1 0 0 1 0 0 0 0 0 0 0 0 0 0 0 0 0 0 0 1 0 0 0 0 0 0 0 0 0 0 0 0 0 0 0 0 1 0 0 0 0 0 0 1 0 0 0 0 0 0 0 0 0 0 0 0 0 0 0 0 0 0 0 0 0 0 0 0 0 1 0 0 0 0 0 0 0 0 0 0 0 0 0 0 0 0 0 0 0 0 0 1 0 1 0 0 0 0 0 0 0 0 0 0 0 0 0 0 0 0 0 0 0 0 0 0 0 0 0 0 0 0 1 0 0 0 0 0 0 0 0 0 0 0 0 0 1 89 255 53 2 0 0 0 0 0 1 0 0 0 0 0 0 0 0 0 0 0 0 0 0 0 0 0 0 0 0 0 0 0 0 0 0 0 0 0 0 0 0 0 0 0 0 0 0 0 0 0 0 0 0 0 0 0 0 0 0 0 0 0 0 0 0 1 3 1 72 255 252 254 253 254 253 254 254 254 254 252 253 254 254 253 254 253 255 255 254 255 255 253 254 254 255 255 255 255 255 255 255 255 255 255 255 255 255 255 255 255 255 255 255 255 255 255 255 255 255 255 255 255 255 255 255 255 255 255 255 255 255 255 255 255 255 255 255 255 255 255 255 255 255 255 255 255 255 255 
255 255 255 255 255 255 255 255 255 255 255 255 255 255 255 255 255 255 255 255 255 255 255 255 255 255 255 255 255 255 255 255 255 255 255 255 255 255 255 255 255 255 255 255 255 255 255 255 255 255 255 255 255 255 253 254 254 254 253 254 254 254 254 254 253 254 253 253 254 254 253 253 253 254 253 254 254 254 254 254 201 0 1 2 0 0 0 0 0 0 0 0 0 0 1 0 0 0 0 0 0 0 0 0 0 0 0 0 0 0 0 0 0 0 0 0 0 0 0 1 0 0 0 0 1 0 0 0 0 0 0 0 0 0 0 0 0 0 0 0 0 0 0 0 0 0 0 0 122 255 22 1 0 0 0 0 0 0 0 0 0 0 0 0 0 0 0 0 0 0 0 0 0 0 0 0 0 0 0 0 0 1 0 0 0 0 0 0 0 0 0 0 0 0 0 1 0 0 0 0 0 0 0 0 0 0 0 0 0 0 0 1 0 0 1 0 0 0 0 0 0 0 0 0 0 0 0 0 0 0 0 0 0 0 0 0 0 0 0 0 0 0 0 0 0 0 0 0 0 0 1 0 0 0 0 0 0 0 0 0 0 0 0 0 0 0 0 0 0 0 0 0 0 0 0 0 0 0 0 0 0 0 0 0 0 0 0 0 0 0 0 0 0 0 0 0 0 0 0 0 0 0 0 0 0 0 87 255 245 0 5 0 0 0 0 0 0 0 0 0 1 0 0 0 0 0 0 0 0 0 0 0 0 0 0 0 0 0 0 0 0 0 0 0 0 0 0 0 0 0 1 0 0 0 0 0 0 0 0 0 0 0 0 0 0 0 0 0 0 0 0 0 0 1 1 3 244 251 253 253 255 253 253 255 255 255 254 254 254 253 254 254 254 254 255 254 253 254 254 253 254 255 255 255 255 255 255 255 255 255 255 255 255 255 255 255 255 255 255 255 255 255 255 255 255 255 255 255 255 255 255 255 255 255 255 255 255 255 255 255 255 255 255 255 255 255 255 255 255 255 255 255 255 255 255 
255 255 255 255 255 255 255 255 255 255 255 255 255 255 255 255 255 255 255 255 255 255 255 255 255 255 255 255 255 255 255 255 255 255 255 255 255 255 255 255 255 255 255 255 255 255 255 255 255 255 255 255 255 255 253 253 255 255 254 254 253 253 255 254 254 254 255 254 253 253 254 254 253 254 253 255 255 253 252 255 101 0 0 1 0 0 0 0 0 0 0 0 1 0 0 0 0 0 0 0 0 0 0 0 0 0 0 0 0 0 1 0 0 0 0 0 0 0 0 0 0 0 0 1 0 0 0 0 0 1 0 0 0 0 0 0 0 0 0 0 0 0 0 0 0 0 4 23 255 255 27 1 0 0 0 0 0 0 0 0 0 0 0 0 0 0 0 0 0 0 0 0 0 0 0 0 0 0 0 0 0 0 0 0 0 0 0 0 0 0 0 0 0 0 0 0 0 0 0 0 0 1 0 0 0 0 0 0 0 0 0 0 0 1 0 0 0 0 0 1 0 0 0 0 0 0 0 0 0 0 0 0 0 0 0 0 0 0 0 0 0 1 0 0 0 0 0 0 0 0 0 0 0 0 0 0 0 0 0 0 0 0 0 0 0 0 0 0 0 0 0 0 0 0 0 0 0 0 0 0 0 0 0 0 0 0 0 0 0 0 0 0 0 0 0 0 1 0 0 0 0 0 0 0 0 4 9 253 254 163 0 1 1 0 0 0 0 0 0 0 0 0 0 0 0 0 0 0 0 0 0 0 0 0 0 1 0 0 0 0 0 0 0 0 0 0 0 0 0 0 0 0 0 0 0 0 0 0 0 0 0 0 0 0 0 1 0 0 0 0 0 0 1 0 0 0 176 254 254 254 255 254 255 253 254 254 255 254 254 253 254 253 254 253 254 255 254 253 255 255 255 255 255 255 255 255 255 255 255 255 255 255 255 255 255 255 255 255 255 255 255 255 255 255 255 255 255 255 255 255 255 255 255 255 255 255 255 255 255 255 255 255 255 255 255 255 255 255 255 255 255 255 255 255 255 
255 255 255 255 255 255 255 255 255 255 255 255 255 255 255 255 255 255 255 255 255 255 255 255 255 255 255 255 255 255 255 255 255 255 255 255 255 255 255 255 255 255 255 255 255 255 255 255 255 255 255 255 255 255 254 252 253 254 254 254 254 253 254 255 255 253 254 254 254 253 254 253 254 255 254 255 254 255 252 255 46 0 0 0 0 0 0 0 0 0 0 0 0 0 0 1 0 0 0 0 0 0 0 0 0 0 0 0 0 0 0 0 0 0 0 0 0 0 0 0 0 0 0 1 0 0 0 0 0 0 0 0 0 0 0 0 0 0 0 0 0 0 0 1 1 4 0 222 250 247 9 2 0 0 0 0 0 0 0 0 0 0 0 0 0 0 0 0 0 0 0 0 0 0 0 0 0 0 0 0 0 0 0 0 0 0 0 0 1 0 0 0 0 0 0 0 0 0 1 0 0 0 0 0 0 1 0 0 0 0 0 0 0 1 0 0 0 0 0 0 0 0 0 0 0 0 0 0 0 0 0 0 0 0 0 0 0 0 0 0 0 0 0 0 0 1 0 0 0 0 0 0 0 0 0 0 0 0 0 0 0 0 0 0 0 0 0 0 0 0 0 0 0 0 0 0 0 0 0 0 0 0 0 0 0 0 0 0 0 0 0 0 0 0 0 0 0 0 0 0 0 0 0 0 0 3 15 255 246 255 55 2 3 1 0 0 0 0 0 0 0 0 0 0 0 0 0 0 0 0 0 0 0 0 0 0 0 0 1 0 0 0 0 1 0 0 0 0 0 0 0 0 0 0 0 0 0 0 0 0 0 0 0 0 0 0 0 0 0 0 0 0 1 0 0 0 136 255 255 255 254 255 255 253 254 254 253 253 254 253 254 253 254 254 254 254 254 252 254 255 255 255 255 255 255 255 255 255 255 255 255 255 255 255 255 255 255 255 255 255 255 255 255 255 255 255 255 255 255 255 255 255 255 255 255 255 255 255 255 255 255 255 255 255 255 255 255 255 255 255 255 255 255 255 255 
255 255 255 255 255 255 255 255 255 255 255 255 255 255 255 255 255 255 255 255 255 255 255 255 255 255 255 255 255 255 255 255 255 255 255 255 255 255 255 255 255 255 255 255 255 255 255 255 255 255 255 255 255 255 254 253 254 255 252 253 254 253 254 253 254 253 254 254 253 254 253 253 254 255 254 255 255 255 252 249 7 2 0 1 0 0 0 0 0 0 1 0 0 0 0 0 0 0 0 0 0 0 0 0 0 0 0 0 0 0 0 0 0 0 0 0 0 1 0 0 0 0 0 0 0 0 0 0 0 0 0 0 0 0 0 0 0 0 0 0 0 0 0 1 4 0 146 255 252 208 0 1 0 0 0 0 0 0 0 0 0 0 0 0 0 1 0 0 0 0 0 0 0 0 0 0 0 0 0 0 0 0 0 0 0 0 0 0 0 0 0 0 0 0 0 0 0 0 0 0 0 0 0 0 0 0 0 0 0 0 0 0 0 0 0 0 0 0 0 0 0 0 0 0 0 0 0 0 0 0 0 0 0 0 0 0 0 0 0 0 0 0 0 0 0 0 0 0 0 1 0 0 0 0 0 0 0 0 0 0 0 0 0 0 0 0 0 0 0 0 0 0 0 0 0 0 0 0 0 0 0 0 0 0 0 0 0 0 0 0 0 0 0 1 0 0 0 0 0 0 0 0 0 0 0 1 10 251 248 250 253 7 5 1 0 0 0 0 0 0 0 0 0 0 1 0 1 0 0 0 1 0 1 0 0 0 0 0 0 0 0 0 0 0 0 0 1 0 0 0 0 0 0 0 0 0 0 0 0 0 0 0 0 0 0 0 0 0 0 0 0 0 1 0 0 1 60 255 254 255 254 254 253 254 254 255 253 254 253 253 255 254 255 255 254 254 253 253 254 254 255 255 255 255 255 255 255 255 255 255 255 255 255 255 255 255 255 255 255 255 255 255 255 255 255 255 255 255 255 255 255 255 255 255 255 255 255 255 255 255 255 255 255 255 255 255 255 255 255 255 255 255 255 255 255 
255 255 255 255 255 255 255 255 255 255 255 255 255 255 255 255 255 255 255 255 255 255 255 255 255 255 255 255 255 255 255 255 255 255 255 255 255 255 255 255 255 255 255 255 255 255 255 255 255 255 255 255 255 255 253 254 254 254 253 254 253 253 254 254 254 254 254 255 253 255 254 255 254 254 255 254 254 255 250 251 10 2 1 0 0 0 0 0 0 0 1 0 0 0 0 0 0 0 0 0 0 0 0 0 0 0 0 0 0 0 0 0 0 0 0 0 0 1 0 0 0 0 0 0 0 0 0 0 0 0 0 0 0 0 0 0 0 0 0 0 0 0 0 0 4 40 255 249 253 216 0 0 0 0 0 0 0 0 0 0 0 0 1 0 0 0 0 0 0 0 0 0 0 0 0 0 0 1 0 0 0 1 0 0 0 0 0 0 0 1 0 0 0 0 0 0 0 0 0 0 1 0 0 0 0 0 0 0 0 0 0 0 0 0 0 0 0 0 0 0 0 0 0 0 0 0 0 0 0 0 1 0 0 0 0 0 0 0 1 0 0 1 0 0 0 0 0 0 0 0 0 0 0 0 0 0 0 0 0 0 0 0 1 0 0 0 0 0 0 0 0 0 0 0 0 0 0 0 0 0 0 0 0 0 0 0 0 0 0 0 0 0 1 0 0 0 0 0 0 0 0 0 0 0 1 0 0 208 252 254 252 207 0 6 0 0 0 0 0 0 0 0 0 0 0 0 0 0 0 0 0 0 0 0 0 0 0 0 0 1 0 0 0 0 0 0 0 1 0 0 0 0 0 0 0 0 0 0 0 0 0 1 0 0 0 0 0 0 0 0 0 0 1 0 0 1 55 255 254 255 254 254 253 255 253 254 254 254 254 253 254 255 254 254 255 254 254 255 255 253 255 255 255 255 255 255 255 255 255 255 255 255 255 255 255 255 255 255 255 255 255 255 255 255 255 255 255 255 255 255 255 255 255 255 255 255 255 255 255 255 255 255 255 255 255 255 255 255 255 255 255 255 255 255 255 
255 255 255 255 255 255 255 255 255 255 255 255 255 255 255 255 255 255 255 255 255 255 255 255 255 255 255 255 255 255 255 255 255 255 255 255 255 255 255 255 255 255 255 255 255 255 255 255 255 255 255 255 255 255 255 253 253 253 255 254 254 254 255 253 254 254 254 252 253 253 253 254 254 255 254 254 253 254 251 254 26 0 1 0 0 0 0 0 0 0 1 0 0 0 0 0 0 0 0 0 0 0 1 1 0 0 0 0 0 0 0 1 0 0 0 1 0 0 0 0 1 0 0 0 0 0 0 0 0 0 0 0 0 0 0 0 0 0 0 0 1 0 0 5 0 248 251 255 254 218 0 0 0 0 0 0 0 0 0 0 0 0 0 0 0 0 0 0 0 0 1 0 0 0 0 0 0 0 1 0 0 0 0 0 0 0 0 0 0 0 0 0 0 0 0 0 0 0 0 0 0 0 0 0 0 0 0 0 0 0 0 0 0 0 0 0 0 0 0 0 0 0 0 0 0 0 0 0 0 0 0 0 0 0 0 0 0 0 1 0 0 0 0 0 1 0 0 0 0 0 0 0 0 0 0 0 0 0 0 0 0 0 0 0 0 1 0 0 0 0 0 0 0 0 0 0 0 0 0 0 0 0 0 0 0 0 0 0 0 0 0 0 0 0 0 0 0 0 0 0 0 0 0 0 1 0 0 203 253 255 254 255 114 0 1 0 0 0 0 0 0 0 0 0 0 0 0 0 0 0 0 0 0 0 0 0 0 0 0 0 0 0 0 0 0 0 0 0 0 0 0 0 0 0 0 0 0 0 0 0 0 0 0 0 0 0 0 0 0 0 0 0 0 0 0 0 146 255 254 255 254 255 254 254 253 254 255 253 254 253 254 254 254 254 255 254 254 254 253 253 254 255 255 255 255 255 255 255 255 255 255 255 255 255 255 255 255 255 255 255 255 255 255 255 255 255 255 255 255 255 255 255 255 255 255 255 255 255 255 255 255 255 255 255 255 255 255 255 255 255 255 255 255 255 255 
255 255 255 255 255 255 255 255 255 255 255 255 255 255 255 255 255 255 255 255 255 255 255 255 255 255 255 255 255 255 255 255 255 255 255 255 255 255 255 255 255 255 255 255 255 255 255 255 255 255 255 255 255 255 253 253 254 253 252 254 254 254 255 253 253 254 253 254 254 253 254 254 255 253 255 253 254 254 252 255 59 0 3 0 0 0 0 0 0 0 0 0 0 0 0 0 0 0 0 0 1 0 0 0 0 0 0 0 0 0 0 0 0 0 0 1 0 0 0 0 0 0 0 0 0 0 0 0 0 0 0 0 0 0 0 0 0 0 0 0 0 0 2 0 183 253 255 255 255 174 0 0 0 1 0 0 0 0 0 0 0 0 0 0 0 0 0 0 0 0 0 0 0 0 0 0 0 0 0 0 0 0 0 0 0 0 0 0 0 0 0 0 0 0 0 0 0 0 0 0 0 0 0 0 0 0 0 0 0 0 0 0 0 0 0 0 0 0 0 0 0 0 0 0 0 0 0 0 0 0 0 0 0 0 0 0 0 0 1 0 0 0 0 0 0 0 0 0 0 0 0 0 0 0 0 0 0 0 0 0 1 0 0 0 0 0 0 0 0 0 0 0 0 0 0 0 0 0 0 0 0 0 0 0 0 0 0 0 0 0 0 0 0 0 0 0 0 0 0 0 0 0 0 0 0 0 0 194 254 255 255 250 255 19 4 0 0 0 0 0 0 0 0 0 0 0 0 0 0 0 0 0 1 0 0 0 0 0 0 0 0 0 0 0 0 0 0 0 0 0 0 0 0 0 0 0 0 0 0 0 0 0 0 0 1 0 0 0 0 0 0 0 0 0 0 0 173 254 255 255 255 255 254 254 252 254 254 253 254 255 254 254 254 254 254 253 254 254 253 254 255 255 255 255 255 255 255 255 255 255 255 255 255 255 255 255 255 255 255 255 255 255 255 255 255 255 255 255 255 255 255 255 255 255 255 255 255 255 255 255 255 255 255 255 255 255 255 255 255 255 255 255 255 255 255 
255 255 255 255 255 255 255 255 255 255 255 255 255 255 255 255 255 255 255 255 255 255 255 255 255 255 255 255 255 255 255 255 255 255 255 255 255 255 255 255 255 255 255 255 255 255 255 255 255 255 255 255 255 255 253 254 255 253 253 254 253 255 254 254 254 254 253 255 254 252 254 254 254 254 255 254 253 254 252 254 146 0 3 0 0 0 0 0 0 0 0 0 0 0 0 0 0 1 0 0 0 0 0 0 0 0 0 0 0 0 0 0 0 0 0 0 0 0 0 0 0 0 0 0 0 0 0 0 0 0 0 0 0 0 1 0 0 0 0 0 0 0 1 69 255 253 255 254 255 120 0 0 0 0 0 0 0 0 0 0 0 0 0 0 0 0 0 0 0 0 0 0 0 0 0 0 0 0 0 0 0 0 0 0 0 0 0 0 0 0 0 0 0 0 0 0 0 0 0 0 0 0 0 1 0 0 0 0 0 0 0 0 0 0 0 0 0 0 0 0 0 0 0 0 0 0 1 0 0 0 0 0 0 0 0 0 0 1 0 0 0 0 0 0 0 0 0 0 0 0 0 0 0 0 0 0 0 0 0 0 0 0 0 0 0 0 0 0 0 0 0 0 0 0 0 0 0 0 0 0 0 0 0 0 0 1 0 0 0 0 0 0 0 0 0 0 0 0 0 0 0 0 0 0 0 0 0 192 254 255 255 255 251 225 0 5 0 0 0 0 0 0 0 0 0 0 0 0 0 0 0 0 0 0 0 0 0 0 0 0 0 0 0 0 0 0 0 0 0 0 0 0 0 0 0 0 0 0 0 0 0 0 0 0 0 0 0 0 0 0 0 0 0 0 0 2 244 253 255 254 255 254 253 253 253 253 254 255 253 254 254 254 254 253 254 255 254 254 255 255 253 255 255 255 255 255 255 255 255 255 255 255 255 255 255 255 255 255 255 255 255 255 255 255 255 255 255 255 255 255 255 255 255 255 255 255 255 255 255 255 255 255 255 255 255 255 255 255 255 255 255 255 255 255 255 
255 255 255 255 255 255 255 255 255 255 255 255 255 255 255 255 255 255 255 255 255 255 255 255 255 255 255 255 255 255 255 255 255 255 255 255 255 255 255 255 255 255 255 255 255 255 255 255 255 255 255 255 255 255 254 253 255 255 254 255 253 254 254 253 254 254 254 254 253 253 253 254 254 254 253 254 253 255 253 251 239 0 4 0 1 0 0 0 0 0 0 0 0 0 0 0 0 0 0 0 0 0 0 0 0 0 0 0 0 0 1 0 0 0 0 0 0 0 0 0 0 0 0 0 0 0 0 0 0 0 0 0 0 0 0 0 0 0 0 0 1 5 7 254 249 255 255 254 255 124 0 0 0 0 0 0 0 0 0 0 0 0 0 0 0 0 0 0 0 0 0 0 0 0 0 0 0 0 0 0 0 0 0 0 0 0 0 0 0 0 0 0 0 0 0 0 0 0 0 1 0 0 0 0 0 0 0 0 0 0 0 0 0 0 0 0 0 0 0 0 0 0 0 0 0 0 0 0 0 0 0 0 0 0 0 0 0 0 0 0 0 0 0 0 0 0 0 0 0 0 0 0 0 0 0 0 0 0 0 0 0 0 0 0 0 0 0 1 0 0 0 0 0 0 0 0 0 0 0 0 0 0 0 0 0 0 0 0 0 0 0 0 0 0 0 0 1 0 0 0 0 0 0 0 0 0 0 181 255 255 254 255 252 254 153 0 4 1 0 0 0 0 0 0 0 0 0 0 0 0 0 0 0 0 0 1 0 0 0 0 0 0 0 0 0 0 0 0 0 0 0 0 0 0 0 0 0 0 0 0 0 0 0 0 0 0 0 0 0 0 0 0 0 0 0 61 255 255 255 254 253 253 253 254 253 254 254 255 254 254 254 255 253 255 254 254 253 255 254 253 254 255 255 255 255 255 255 255 255 255 255 255 255 255 255 255 255 255 255 255 255 255 255 255 255 255 255 255 255 255 255 255 255 255 255 255 255 255 255 255 255 255 255 255 255 255 255 255 255 255 255 255 255 255 255 
255 255 255 255 255 255 255 255 255 255 255 255 255 255 255 255 255 255 255 255 255 255 255 255 255 255 255 255 255 255 255 255 255 255 255 255 255 255 255 255 255 255 255 255 255 255 255 255 255 255 255 255 255 255 254 254 255 255 254 254 253 253 255 254 254 254 255 254 254 254 254 253 254 253 253 253 254 255 255 250 255 76 0 0 0 1 0 0 0 0 0 0 0 0 0 0 0 0 0 0 0 0 0 0 0 0 0 0 0 0 1 0 0 0 0 0 0 0 0 0 0 0 0 0 0 0 0 0 0 1 0 0 0 0 0 0 0 0 0 0 5 0 214 249 252 253 255 254 255 126 0 0 0 0 0 0 0 0 0 0 0 0 0 0 0 0 1 0 0 0 0 0 0 0 0 1 0 0 0 0 0 0 0 0 0 0 0 0 0 0 0 0 0 0 0 0 0 0 0 0 0 0 0 0 0 0 0 0 0 0 0 0 0 0 0 0 0 0 0 0 0 0 0 0 0 0 0 0 0 0 0 0 0 0 0 0 0 0 0 0 0 1 0 0 0 0 0 0 0 0 0 0 0 0 0 0 0 0 0 0 0 0 0 0 0 0 0 0 0 0 0 0 0 0 0 1 0 0 0 0 0 0 0 0 0 0 0 0 0 0 0 0 0 0 0 0 0 0 0 0 0 0 0 0 0 0 0 178 255 255 254 254 253 246 255 77 1 0 0 0 0 0 0 0 0 0 0 0 0 0 0 0 0 0 0 0 0 0 0 0 0 0 0 0 0 0 0 0 0 0 0 0 0 0 0 0 0 0 0 0 0 0 0 0 0 0 0 0 0 0 0 0 0 0 0 163 254 254 255 253 252 252 253 253 254 253 253 254 254 254 255 254 254 254 254 254 254 254 254 254 254 255 255 255 255 255 255 255 255 255 255 255 255 255 255 255 255 255 255 255 255 255 255 255 255 255 255 255 255 255 255 255 255 255 255 255 255 255 255 255 255 255 255 255 255 255 255 255 255 255 255 255 255 255 255 
255 255 255 255 255 255 255 255 255 255 255 255 255 255 255 255 255 255 255 255 255 255 255 255 255 255 255 255 255 255 255 255 255 255 255 255 255 255 255 255 255 255 255 255 255 255 255 255 255 255 255 255 255 255 254 254 254 253 253 254 255 253 254 254 254 253 254 254 254 255 254 253 253 253 253 253 253 254 254 254 206 0 1 0 0 1 0 0 0 0 0 0 0 0 0 0 0 0 0 0 0 0 0 0 1 0 0 0 1 0 0 0 0 0 0 0 0 0 1 1 0 0 0 0 0 0 0 0 0 0 0 1 0 0 0 0 0 0 0 1 0 132 255 254 253 255 255 255 255 127 0 2 0 0 0 0 0 0 0 0 0 0 0 0 0 0 0 0 0 0 0 0 0 0 0 0 0 1 0 0 0 0 0 0 0 0 0 0 0 0 0 0 0 0 0 0 0 0 0 0 0 0 0 0 0 0 0 0 0 0 0 0 0 0 0 0 0 0 0 0 0 0 0 0 0 0 0 0 0 0 0 0 0 0 0 0 0 0 0 0 0 0 0 0 0 0 0 0 0 0 1 0 0 0 0 0 0 0 0 0 0 0 0 0 0 0 0 0 0 0 0 0 0 0 0 0 0 0 0 0 0 0 0 0 0 0 0 0 0 0 0 0 0 0 0 0 0 0 0 0 0 0 0 0 0 0 0 178 255 255 254 255 253 252 247 255 14 2 0 0 0 0 1 0 0 0 0 0 0 0 0 0 0 0 0 0 0 0 1 0 0 0 0 0 0 0 0 0 0 0 0 0 1 0 0 0 0 0 0 0 0 0 0 0 0 0 0 0 0 0 0 0 0 0 2 0 195 254 251 252 253 252 254 253 254 253 253 254 255 254 254 254 253 255 255 254 255 254 255 254 255 255 255 255 255 255 255 255 255 255 255 255 255 255 255 255 255 255 255 255 255 255 255 255 255 255 255 255 255 255 255 255 255 255 255 255 255 255 255 255 255 255 255 255 255 255 255 255 255 255 255 255 255 255 255 
255 255 255 255 255 255 255 255 255 255 255 255 255 255 255 255 255 255 255 255 255 255 255 255 255 255 255 255 255 255 255 255 255 255 255 255 255 255 255 255 255 255 255 255 255 255 255 255 255 255 255 255 255 255 255 253 253 253 253 255 255 254 254 254 254 254 254 254 255 255 253 254 253 253 252 252 253 255 251 232 0 2 0 0 0 0 0 0 0 0 0 0 0 0 0 0 0 0 0 0 0 0 0 0 1 0 0 0 0 0 0 0 0 0 0 0 0 0 0 0 0 0 0 0 0 0 0 0 0 0 0 0 0 0 0 0 0 0 0 3 47 255 250 255 254 255 254 255 255 128 0 1 0 0 0 0 0 0 0 0 0 0 0 0 0 0 0 0 0 0 0 0 0 1 0 0 0 0 0 0 0 0 0 0 0 0 0 0 0 0 0 0 0 0 0 0 0 0 0 0 0 0 0 0 0 0 0 0 0 0 0 0 0 0 0 0 0 0 0 0 0 0 0 0 0 0 0 0 0 0 0 0 0 0 0 0 0 0 0 0 0 0 0 0 0 0 0 0 0 0 0 0 0 0 0 0 0 0 0 0 0 0 0 0 0 0 0 1 0 0 0 0 0 0 0 0 0 0 0 0 0 0 0 0 1 0 0 0 0 0 0 0 0 0 0 0 0 0 0 0 0 0 0 0 0 0 0 177 255 255 255 254 254 254 255 252 223 0 2 0 0 0 0 0 0 0 0 0 0 0 0 0 0 0 0 0 0 0 0 0 0 0 0 0 0 0 0 0 0 0 0 0 1 0 0 0 0 0 0 0 0 0 0 1 0 0 0 0 0 0 0 0 0 0 0 5 0 210 254 250 253 253 253 255 254 255 254 254 254 254 253 254 254 253 255 254 253 254 255 255 255 255 255 255 255 255 255 255 255 255 255 255 255 255 255 255 255 255 255 255 255 255 255 255 255 255 255 255 255 255 255 255 255 255 255 255 255 255 255 255 255 255 255 255 255 255 255 255 255 255 255 255 255 255 255 
255 255 255 255 255 255 255 255 255 255 255 255 255 255 255 255 255 255 255 255 255 255 255 255 255 255 255 255 255 255 255 255 255 255 255 255 255 255 255 255 255 255 255 255 255 255 255 255 255 255 255 255 255 255 254 254 253 254 253 254 254 255 253 253 254 254 254 253 254 254 254 254 254 254 253 253 252 250 255 29 3 0 0 0 0 0 0 0 0 0 0 0 0 0 0 0 0 0 0 0 0 0 0 0 0 0 0 0 0 0 0 0 0 0 0 0 0 0 0 0 0 1 0 0 0 1 0 0 0 1 0 0 0 0 0 0 0 0 0 8 240 251 255 254 255 255 254 255 255 132 0 1 0 0 0 0 0 0 0 0 0 0 0 0 0 0 0 0 0 0 1 0 0 0 0 0 0 0 0 0 0 0 0 0 0 0 0 0 0 0 0 0 0 0 0 0 0 0 0 0 0 0 0 0 0 0 0 0 0 0 0 0 0 0 0 0 0 0 0 0 0 0 0 0 0 0 0 0 0 0 0 0 0 0 0 0 0 0 0 0 0 0 0 0 0 1 0 0 0 0 0 1 0 0 0 0 0 0 0 0 1 0 0 1 0 0 0 0 0 0 0 0 0 0 0 0 0 0 1 0 0 0 0 0 0 0 0 0 0 0 0 0 0 0 0 0 0 0 0 0 0 0 0 0 0 1 0 178 255 255 255 255 255 254 255 254 255 132 0 0 0 0 0 0 0 0 0 0 0 0 0 0 0 0 0 0 0 0 0 0 0 0 0 0 0 0 0 0 0 0 0 0 1 0 0 0 0 0 0 0 0 0 0 0 0 0 0 0 0 0 0 0 0 0 0 0 3 0 240 251 255 254 254 254 255 255 254 254 253 253 255 253 255 254 253 255 254 253 255 253 254 255 255 255 255 255 255 255 255 255 255 255 255 255 255 255 255 255 255 255 255 255 255 255 255 255 255 255 255 255 255 255 255 255 255 255 255 255 255 255 255 255 255 255 255 255 255 255 255 255 255 255 255 255 255 
255 255 255 255 255 255 255 255 255 255 255 255 255 255 255 255 255 255 255 255 255 255 255 255 255 255 255 255 255 255 255 255 255 255 255 255 255 255 255 255 255 255 255 255 255 255 255 255 255 255 255 255 255 255 253 255 254 255 252 254 254 255 253 254 254 253 253 253 253 255 254 254 255 255 254 255 249 255 64 0 1 0 0 0 0 0 0 0 0 0 0 0 0 0 0 0 0 0 0 0 0 0 1 0 0 0 0 0 0 0 0 0 0 0 0 0 0 0 0 0 0 0 0 0 0 0 0 1 1 0 0 0 0 0 0 0 0 0 1 22 255 248 255 255 254 254 255 255 255 134 0 0 0 0 0 0 0 0 1 0 0 0 0 0 0 0 1 0 0 0 0 0 0 0 0 0 0 0 0 0 0 0 0 0 0 0 0 0 0 0 0 0 0 0 0 0 0 0 0 0 0 1 0 0 0 0 0 0 0 0 0 0 0 0 0 0 0 0 0 0 1 0 1 0 0 0 0 0 0 0 0 0 0 0 0 0 0 0 0 0 0 0 1 0 0 0 0 0 1 0 0 0 0 0 0 0 0 1 0 0 0 0 0 0 0 0 0 0 0 0 1 0 0 0 0 0 0 0 0 0 0 0 0 0 0 0 0 0 0 0 0 0 0 0 0 0 0 0 0 0 0 0 0 0 0 1 0 177 254 253 253 252 254 255 254 252 255 45 1 0 0 0 0 0 0 0 0 0 0 0 0 0 0 0 0 0 0 0 0 0 0 0 0 0 0 0 0 0 0 0 0 0 0 0 0 0 0 0 0 0 0 0 0 0 0 0 0 1 0 0 0 0 0 0 0 0 0 3 18 255 249 255 255 254 254 255 254 254 254 253 254 254 255 254 254 254 254 253 253 253 254 255 255 255 255 255 255 255 255 255 255 255 255 255 255 255 255 255 255 255 255 255 255 255 255 255 255 255 255 255 255 255 255 255 255 255 255 255 255 255 255 255 255 255 255 255 255 255 255 255 255 255 255 255 255 
255 255 255 255 255 255 255 255 255 255 255 255 255 255 255 255 255 255 255 255 255 255 255 255 255 255 255 255 255 255 255 255 255 255 255 255 255 255 255 255 255 255 255 255 255 255 255 255 255 255 255 255 255 255 253 254 255 253 254 253 255 253 254 254 255 254 253 255 253 254 254 255 254 254 255 253 255 130 0 2 0 0 0 0 0 0 0 0 0 0 0 0 0 0 0 0 0 0 0 0 0 0 0 0 0 0 0 0 0 0 0 0 0 0 0 0 0 0 0 0 0 0 0 0 0 0 0 0 0 0 1 0 0 0 0 0 0 1 2 0 160 253 254 254 255 255 253 255 255 129 0 0 0 0 0 0 0 0 0 0 0 0 0 0 1 0 0 0 0 0 0 0 0 0 0 0 0 0 0 0 0 0 0 0 0 0 0 0 0 0 0 0 0 0 0 0 0 0 0 0 0 0 0 0 0 0 0 0 0 0 0 0 0 0 0 0 0 0 0 0 0 0 0 0 0 0 0 0 0 0 0 0 0 0 0 0 0 0 0 0 0 0 0 0 0 0 0 0 0 0 0 0 0 0 0 0 0 0 0 0 0 0 0 1 0 0 0 0 0 0 0 0 0 0 0 0 0 0 0 0 0 0 0 0 0 0 0 0 0 0 0 0 0 0 0 0 0 0 0 0 0 0 0 0 0 0 0 176 254 252 253 252 254 254 255 253 167 0 0 0 0 1 0 0 0 0 0 0 0 0 0 0 0 0 0 0 0 0 0 0 0 0 0 0 0 0 0 0 0 0 0 0 0 0 0 0 0 0 0 0 0 0 0 0 0 0 0 0 0 0 0 0 0 0 0 0 0 0 1 62 255 250 255 255 254 254 255 255 254 253 254 254 254 253 255 254 254 254 254 254 253 255 255 255 255 255 255 255 255 255 255 255 255 255 255 255 255 255 255 255 255 255 255 255 255 255 255 255 255 255 255 255 255 255 255 255 255 255 255 255 255 255 255 255 255 255 255 255 255 255 255 255 255 255 255 
255 255 255 255 255 255 255 255 255 255 255 255 255 255 255 255 255 255 255 255 255 255 255 255 255 255 255 255 255 255 255 255 255 255 255 255 255 255 255 255 255 255 255 255 255 255 255 255 255 255 255 255 255 255 254 254 255 254 254 254 254 254 253 255 254 255 253 254 253 253 255 255 254 255 255 251 223 0 4 0 0 0 0 0 1 0 0 0 0 0 0 0 0 1 0 0 0 0 0 0 0 0 1 0 0 0 0 0 0 0 0 0 0 0 0 0 0 0 0 0 0 0 0 0 0 0 0 0 0 0 0 0 0 0 0 0 0 0 1 4 29 255 251 253 253 253 252 254 255 125 0 0 0 0 0 0 0 0 0 0 0 0 0 0 0 0 0 0 0 0 0 1 0 0 0 0 0 0 0 0 0 0 1 0 0 0 0 0 0 0 0 0 0 0 0 0 0 0 0 0 0 0 0 0 0 0 0 0 0 0 0 0 0 0 0 0 0 0 0 0 0 0 0 0 1 0 0 0 0 0 0 0 0 0 0 0 0 0 0 0 0 0 0 0 0 1 0 0 0 0 0 0 0 0 0 0 0 0 0 0 0 0 0 0 0 0 0 0 0 0 0 0 0 0 0 0 0 0 0 0 0 0 0 0 0 0 0 0 0 0 0 0 0 0 0 0 0 0 0 0 0 0 0 0 0 0 0 176 254 254 253 253 253 254 252 255 22 2 0 0 0 0 1 0 0 0 0 0 0 0 0 0 0 0 0 0 0 0 0 0 0 0 0 0 0 0 0 0 0 0 0 0 0 0 0 0 0 0 0 0 0 0 0 0 0 0 0 0 0 0 0 0 0 0 0 0 0 0 3 0 146 255 253 254 255 253 253 254 254 253 254 254 254 254 255 254 255 255 253 255 254 255 255 255 255 255 255 255 255 255 255 255 255 255 255 255 255 255 255 255 255 255 255 255 255 255 255 255 255 255 255 255 255 255 255 255 255 255 255 255 255 255 255 255 255 255 255 255 255 255 255 255 255 255 255 
255 255 255 255 255 255 255 255 255 255 255 255 255 255 255 255 255 255 255 255 255 255 255 255 255 255 255 255 255 255 255 255 255 255 255 255 255 255 255 255 255 255 255 255 255 255 255 255 255 255 255 255 255 255 254 254 254 255 253 255 253 254 254 253 254 255 255 253 254 254 253 254 252 254 248 255 10 4 2 0 0 0 0 0 0 0 0 0 0 0 0 0 0 0 0 0 0 0 0 0 0 0 0 0 0 0 0 0 1 0 0 0 0 0 0 0 0 0 0 0 0 0 0 0 0 0 0 0 0 0 0 0 0 0 0 0 0 0 0 1 0 233 249 253 252 253 253 254 255 142 0 0 0 0 0 0 0 0 0 0 0 0 0 0 0 0 0 0 0 0 0 0 0 0 0 0 0 0 0 0 0 0 1 0 0 1 0 0 0 0 0 0 0 0 0 0 0 0 0 0 0 0 0 0 0 0 0 0 0 0 0 0 0 0 0 0 0 0 0 0 0 0 0 0 0 0 0 0 0 0 0 0 0 0 0 0 0 0 0 0 1 0 0 0 0 0 0 0 0 0 0 0 0 0 0 0 0 0 0 0 0 0 0 0 0 0 0 0 0 0 0 0 0 0 0 0 0 0 0 0 0 0 0 0 0 0 0 0 0 0 0 0 0 0 0 0 0 0 1 0 0 0 0 0 0 0 0 193 254 255 253 253 254 253 253 218 0 1 0 0 0 0 0 0 0 0 1 0 0 0 0 0 0 0 0 0 0 0 0 0 0 0 0 1 0 0 0 0 0 0 0 0 0 0 0 0 0 0 0 0 0 0 0 0 0 0 0 0 0 0 0 0 0 0 0 0 0 1 2 6 0 218 252 253 253 253 253 254 254 254 255 254 254 253 254 254 253 254 254 254 254 255 255 255 255 255 255 255 255 255 255 255 255 255 255 255 255 255 255 255 255 255 255 255 255 255 255 255 255 255 255 255 255 255 255 255 255 255 255 255 255 255 255 255 255 255 255 255 255 255 255 255 255 255 255 
255 255 255 255 255 255 255 255 255 255 255 255 255 255 255 255 255 255 255 255 255 255 255 255 255 255 255 255 255 255 255 255 255 255 255 255 255 255 255 255 255 255 255 255 255 255 255 255 255 255 255 255 255 255 254 254 253 254 253 254 254 254 255 254 255 254 254 255 255 252 253 254 251 248 255 62 1 3 1 0 0 1 0 0 0 0 0 0 0 0 0 0 0 0 0 0 0 0 0 0 0 0 0 0 0 0 0 0 0 0 0 0 0 0 1 0 0 0 0 0 0 0 0 1 0 0 0 0 0 0 0 0 0 1 0 0 0 0 0 0 0 141 254 252 253 252 253 254 254 200 0 0 0 0 0 0 0 0 0 0 0 0 0 0 0 0 0 0 0 0 0 1 0 0 0 1 0 0 0 0 0 0 0 0 0 0 0 0 0 0 0 1 0 0 0 0 0 0 0 0 0 0 0 0 0 1 0 0 0 0 0 0 0 0 0 0 0 0 0 0 0 0 0 0 0 0 0 0 0 0 0 0 0 0 0 0 0 1 0 0 0 0 0 0 0 0 0 0 1 0 0 0 0 0 0 0 0 0 0 0 0 0 1 0 0 0 1 0 0 0 0 0 0 0 0 0 0 0 0 0 0 0 0 0 0 0 0 0 0 0 0 0 0 0 0 0 0 0 0 0 0 0 0 0 0 0 0 203 254 255 254 254 253 254 255 164 0 0 0 0 0 0 0 0 0 0 1 0 0 0 0 0 0 0 0 0 0 0 0 0 0 0 0 0 0 0 0 0 0 0 0 0 0 0 0 0 0 0 0 1 0 0 0 0 0 0 1 0 0 0 0 0 0 0 0 0 0 1 1 2 5 11 251 248 251 253 253 253 254 254 253 253 255 253 254 254 253 254 255 254 254 255 255 255 255 255 255 255 255 255 255 255 255 255 255 255 255 255 255 255 255 255 255 255 255 255 255 255 255 255 255 255 255 255 255 255 255 255 255 255 255 255 255 255 255 255 255 255 255 255 255 255 255 255 255 
255 255 255 255 255 255 255 255 255 255 255 255 255 255 255 255 255 255 255 255 255 255 255 255 255 255 255 255 255 255 255 255 255 255 255 255 255 255 255 255 255 255 255 255 255 255 255 255 255 255 255 255 255 255 255 254 255 255 254 253 254 253 253 255 255 254 254 255 255 253 253 253 249 255 136 0 2 1 0 0 0 1 0 0 0 0 0 0 0 0 0 0 0 0 0 0 0 0 0 0 0 0 0 0 0 0 0 0 0 0 0 0 0 0 0 0 0 0 0 0 0 0 0 0 2 0 0 0 0 0 0 0 0 0 0 0 0 0 0 0 0 138 255 253 253 254 253 255 254 209 0 1 0 0 0 0 0 0 0 0 0 0 0 0 0 0 0 0 0 0 0 0 0 0 0 0 0 0 0 0 0 0 0 0 0 0 0 0 0 0 0 0 0 0 0 0 0 0 0 0 0 0 0 0 0 0 0 0 0 0 0 0 0 0 0 0 0 0 0 0 0 0 0 0 1 0 0 0 0 1 0 0 0 0 0 0 0 0 0 0 0 0 0 0 0 0 0 0 1 0 0 0 0 0 0 0 0 0 1 0 0 0 0 0 0 0 0 0 0 0 0 0 0 0 0 0 0 0 0 0 0 0 0 0 0 0 0 0 0 0 0 0 0 0 0 0 0 0 0 0 0 0 0 0 0 0 0 230 253 255 254 255 254 255 255 143 0 0 0 0 0 0 0 0 0 0 1 0 0 0 0 0 0 0 0 0 0 0 0 1 0 0 0 0 0 0 0 0 0 0 0 0 0 0 0 0 0 0 0 0 0 0 0 0 0 0 0 0 0 0 0 0 0 0 0 0 0 1 1 1 0 1 40 255 248 252 254 254 255 255 254 254 255 253 254 253 254 254 254 254 254 255 255 255 255 255 255 255 255 255 255 255 255 255 255 255 255 255 255 255 255 255 255 255 255 255 255 255 255 255 255 255 255 255 255 255 255 255 255 255 255 255 255 255 255 255 255 255 255 255 255 255 255 255 255 
255 255 255 255 255 255 255 255 255 255 255 255 255 255 255 255 255 255 255 255 255 255 255 255 255 255 255 255 255 255 255 255 255 255 255 255 255 255 255 255 255 255 255 255 255 255 255 255 255 255 255 255 255 255 253 253 254 254 253 254 254 254 254 255 254 255 254 255 255 255 253 253 252 218 0 4 0 0 0 0 0 0 0 0 0 0 0 0 1 0 0 0 0 0 0 0 0 0 0 0 0 0 0 0 0 0 0 0 0 0 0 0 0 0 0 0 0 0 0 0 0 0 0 0 0 1 0 0 0 0 0 0 0 0 0 0 0 0 0 0 0 142 255 255 254 253 255 255 255 218 0 1 1 0 0 0 0 0 0 0 0 0 0 0 0 0 0 0 0 0 0 0 0 0 0 0 0 0 0 0 0 0 1 0 0 0 1 0 0 0 0 0 0 0 0 1 0 0 0 0 0 0 0 0 0 0 0 0 0 0 0 0 0 0 0 0 0 0 0 0 0 0 0 0 0 0 0 0 0 0 0 0 0 0 0 0 0 0 0 0 0 0 0 0 0 0 0 0 0 0 0 0 1 0 0 0 0 0 0 0 0 0 0 0 0 0 0 0 0 0 0 0 0 0 0 0 0 0 0 0 0 0 0 0 0 0 0 0 0 0 0 0 0 0 0 0 0 0 0 0 0 0 0 0 0 1 3 242 254 255 255 254 254 255 255 151 0 0 0 0 0 0 0 0 0 0 0 0 0 0 0 0 0 0 0 0 0 0 0 0 0 0 0 0 0 0 0 0 0 0 0 0 0 0 0 0 0 0 0 0 0 0 0 0 0 0 0 0 0 0 0 0 1 0 0 0 0 0 0 0 0 2 0 126 255 252 254 255 253 255 254 254 255 254 254 253 253 254 254 254 253 255 255 255 255 255 255 255 255 255 255 255 255 255 255 255 255 255 255 255 255 255 255 255 255 255 255 255 255 255 255 255 255 255 255 255 255 255 255 255 255 255 255 255 255 255 255 255 255 255 255 255 255 255 255 
255 255 255 255 255 255 255 255 255 255 255 255 255 255 255 255 255 255 255 255 255 255 255 255 255 255 255 255 255 255 255 255 255 255 255 255 255 255 255 255 255 255 255 255 255 255 255 255 255 255 255 255 255 255 254 253 252 254 254 254 255 254 254 254 253 255 255 255 255 254 255 251 254 22 2 0 0 0 0 0 0 0 0 0 0 0 0 0 0 0 0 0 0 0 0 0 0 0 0 0 0 0 0 0 0 0 0 0 0 0 0 0 0 0 0 0 0 0 0 0 0 0 0 0 0 1 0 0 0 0 0 0 0 0 0 0 0 0 0 0 0 137 255 255 255 255 255 255 255 234 1 0 0 0 0 0 0 0 0 0 0 0 0 0 0 0 0 0 1 0 0 0 1 0 0 0 0 0 0 0 1 0 1 0 0 0 0 0 0 0 0 0 0 0 0 0 0 0 0 0 0 0 0 0 0 0 0 1 0 0 0 0 0 0 0 0 0 0 0 0 0 0 0 0 0 0 0 0 0 0 0 0 0 0 0 0 0 1 0 0 0 0 0 0 0 0 0 0 0 0 0 0 0 0 0 0 0 0 0 0 0 0 0 0 0 0 0 0 0 0 0 0 0 0 0 0 0 0 0 0 0 0 0 0 0 0 1 0 0 0 0 0 0 0 0 0 0 0 0 0 0 0 0 0 2 3 14 254 253 255 255 253 255 255 255 150 0 0 0 1 0 0 0 0 0 0 0 0 0 0 0 0 0 0 1 0 0 0 0 0 0 0 0 0 0 0 0 0 0 0 0 0 0 0 0 0 0 0 0 1 0 0 1 0 0 0 0 0 0 0 0 0 0 0 0 0 0 0 0 0 0 0 4 0 230 252 255 254 255 254 255 255 253 254 255 254 254 255 253 255 255 255 255 255 255 255 255 255 255 255 255 255 255 255 255 255 255 255 255 255 255 255 255 255 255 255 255 255 255 255 255 255 255 255 255 255 255 255 255 255 255 255 255 255 255 255 255 255 255 255 255 255 255 255 255 
255 255 255 255 255 255 255 255 255 255 255 255 255 255 255 255 255 255 255 255 255 255 255 255 255 255 255 255 255 255 255 255 255 255 255 255 255 255 255 255 255 255 255 255 255 255 255 255 255 255 255 255 255 255 253 254 254 254 253 255 254 253 253 254 253 254 255 255 254 255 251 255 96 0 2 0 0 0 0 0 0 0 0 0 0 0 0 0 0 0 0 0 0 0 0 0 0 0 0 0 0 0 0 0 0 0 0 0 0 0 0 0 0 0 0 0 0 0 0 0 0 0 0 0 0 1 0 0 0 0 0 0 0 0 0 0 0 1 0 0 0 229 253 255 254 255 254 255 252 255 25 0 0 0 0 0 0 0 0 0 0 0 0 0 0 0 0 0 0 0 0 0 0 0 0 0 0 0 0 0 0 1 0 0 0 0 0 0 0 0 0 0 0 0 0 0 0 0 0 0 0 0 0 0 0 0 0 0 0 0 0 0 0 0 0 0 0 0 1 0 0 1 0 0 0 0 1 0 0 0 0 0 0 0 0 0 0 0 0 0 0 0 0 0 0 0 0 0 0 0 0 0 0 0 0 0 0 0 0 0 0 0 0 0 0 0 0 0 0 0 0 0 0 0 0 0 0 0 0 0 0 0 0 0 0 0 0 0 0 0 0 0 0 0 0 0 0 0 0 0 0 0 0 0 1 4 17 255 251 253 253 252 253 253 253 202 0 1 0 1 0 0 0 0 0 0 0 0 0 0 0 0 0 1 0 0 0 0 0 0 0 0 0 0 0 0 0 0 0 0 0 0 0 0 0 0 0 0 0 0 0 0 1 0 0 0 0 0 0 0 0 0 0 0 0 0 0 0 0 0 0 0 0 2 31 255 252 255 255 254 255 253 254 254 254 255 254 252 254 254 253 255 255 255 255 255 255 255 255 255 255 255 255 255 255 255 255 255 255 255 255 255 255 255 255 255 255 255 255 255 255 255 255 255 255 255 255 255 255 255 255 255 255 255 255 255 255 255 255 255 255 255 255 255 255 
255 255 255 255 255 255 255 255 255 255 255 255 255 255 255 255 255 255 255 255 255 255 255 255 255 255 255 255 255 255 255 255 255 255 255 255 255 255 255 255 255 255 255 255 255 255 255 255 255 255 255 255 255 255 254 254 254 255 253 254 253 253 254 254 253 255 254 253 254 254 253 200 0 4 0 0 0 0 0 0 0 0 0 0 0 0 0 0 0 0 0 0 0 0 0 0 0 0 0 0 0 0 0 0 0 0 0 0 0 0 0 0 0 0 0 0 0 0 0 0 0 0 0 0 0 0 0 0 0 0 0 0 0 0 0 0 2 2 0 2 27 255 254 255 254 255 254 253 252 255 17 0 0 0 0 0 0 0 0 0 0 0 0 1 0 0 0 0 0 0 0 0 0 0 0 0 0 0 0 0 0 0 0 0 0 0 0 0 0 0 0 0 0 0 0 0 0 0 0 0 0 0 0 0 0 0 0 0 0 0 0 0 0 0 0 0 0 0 0 0 0 0 1 0 0 0 1 0 0 0 0 0 0 0 0 0 0 0 0 0 0 0 0 0 0 0 0 0 0 0 0 0 0 1 0 0 0 0 0 0 0 0 0 0 0 0 0 0 0 0 0 0 0 0 0 0 0 0 0 0 0 0 0 0 1 0 0 0 0 0 1 0 0 0 0 0 0 0 0 0 0 0 1 0 0 3 12 254 250 253 253 254 252 254 251 248 7 2 1 1 0 0 1 0 0 0 0 0 0 0 0 1 0 0 0 0 0 0 0 0 0 0 0 0 0 0 0 0 0 0 0 0 0 0 0 0 0 0 0 0 0 0 0 1 0 0 0 0 0 0 0 0 0 0 0 0 0 0 0 0 0 0 0 1 0 127 255 254 255 253 255 254 253 255 254 253 254 254 254 253 254 255 255 255 255 255 255 255 255 255 255 255 255 255 255 255 255 255 255 255 255 255 255 255 255 255 255 255 255 255 255 255 255 255 255 255 255 255 255 255 255 255 255 255 255 255 255 255 255 255 255 255 255 255 255 
255 255 255 255 255 255 255 255 255 255 255 255 255 255 255 255 255 255 255 255 255 255 255 255 255 255 255 255 255 255 255 255 255 255 255 255 255 255 255 255 255 255 255 255 255 255 255 255 255 255 255 255 255 255 254 253 254 254 255 255 253 253 255 255 254 254 255 253 252 250 254 6 6 0 0 0 0 0 0 0 0 0 0 0 0 0 0 0 0 0 0 0 0 0 0 0 0 0 0 0 0 0 0 0 0 0 0 0 0 0 0 1 0 0 1 0 1 0 0 0 0 0 0 0 0 0 0 0 0 0 0 0 0 0 0 0 2 1 0 0 120 255 255 255 255 253 253 252 251 255 33 0 0 0 0 0 0 0 0 0 0 0 0 0 0 0 0 0 0 0 0 0 0 0 0 0 0 0 0 1 0 0 0 0 0 0 0 0 0 0 0 0 0 0 0 0 0 0 0 0 0 1 0 0 0 0 0 0 0 0 1 0 0 0 0 0 0 0 0 0 0 0 0 0 0 0 1 0 0 0 0 0 0 0 0 0 0 0 0 0 1 0 0 0 0 0 0 0 0 0 0 0 0 0 0 0 0 0 0 0 0 0 0 0 0 0 0 0 0 0 0 0 0 0 0 0 0 0 0 0 0 0 0 0 1 0 0 0 0 0 0 0 0 0 0 0 0 0 0 0 0 0 0 0 0 1 36 255 252 253 253 252 254 253 253 254 110 0 1 0 0 0 0 0 0 0 0 0 0 0 0 0 0 0 0 0 0 0 0 0 0 0 0 0 0 0 0 0 0 0 0 0 0 0 0 0 0 0 0 0 0 0 0 1 0 0 0 0 0 0 0 0 0 0 0 0 0 0 0 0 0 0 0 1 5 0 223 253 253 253 252 254 253 254 254 254 254 254 255 254 254 255 255 255 255 255 255 255 255 255 255 255 255 255 255 255 255 255 255 255 255 255 255 255 255 255 255 255 255 255 255 255 255 255 255 255 255 255 255 255 255 255 255 255 255 255 255 255 255 255 255 255 255 255 255 
255 255 255 255 255 255 255 255 255 255 255 255 255 255 255 255 255 255 255 255 255 255 255 255 255 255 255 255 255 255 255 255 255 255 255 255 255 255 255 255 255 255 255 255 255 255 255 255 255 255 255 255 255 255 254 254 254 253 253 255 254 253 255 253 253 253 254 253 248 255 53 3 3 1 0 0 0 0 0 0 0 0 0 0 0 0 0 0 0 0 0 0 0 0 0 0 0 0 0 0 0 0 0 0 0 0 0 0 0 0 0 0 0 0 0 0 0 0 0 0 0 0 0 0 0 0 0 0 0 0 0 0 0 0 0 1 3 2 4 9 255 250 253 253 255 254 254 252 253 255 106 0 0 0 0 0 0 0 1 0 0 0 0 0 0 0 0 0 0 0 0 0 0 0 0 0 0 0 0 0 0 0 1 0 0 0 0 0 0 0 0 0 0 0 0 0 0 0 0 0 0 0 0 0 0 0 1 0 0 0 0 0 0 0 1 0 0 0 0 0 0 0 0 0 0 0 0 0 0 0 0 0 0 0 0 0 0 0 0 0 0 0 0 0 0 0 0 0 0 0 0 0 0 0 0 0 0 1 0 0 0 0 1 0 0 0 0 0 0 0 0 0 0 0 0 0 0 0 0 0 0 0 0 0 0 0 0 0 0 0 0 0 0 0 0 0 0 0 0 0 0 0 0 0 0 1 100 255 254 253 254 253 254 255 254 251 246 6 3 1 0 0 0 0 0 1 0 0 0 0 0 0 0 0 0 1 0 0 0 0 0 0 0 0 0 0 0 0 0 0 0 0 0 0 0 0 0 0 1 0 0 0 1 0 0 1 0 0 0 0 0 0 0 0 0 0 0 0 0 0 0 0 0 0 2 4 21 255 248 252 252 253 254 253 255 254 255 254 255 253 254 255 255 255 255 255 255 255 255 255 255 255 255 255 255 255 255 255 255 255 255 255 255 255 255 255 255 255 255 255 255 255 255 255 255 255 255 255 255 255 255 255 255 255 255 255 255 255 255 255 255 255 255 255 255 
255 255 255 255 255 255 255 255 255 255 255 255 255 255 255 255 255 255 255 255 255 255 255 255 255 255 255 255 255 255 255 255 255 255 255 255 255 255 255 255 255 255 255 255 255 255 255 255 255 255 255 255 255 255 254 255 254 254 255 254 254 255 255 253 253 253 252 252 255 147 0 3 1 0 0 0 0 0 0 0 0 0 0 0 0 0 0 0 0 0 0 0 0 1 0 0 0 0 0 0 0 0 0 0 0 0 0 0 0 0 0 0 0 0 0 0 0 0 0 0 0 0 0 0 0 0 0 0 0 0 0 0 0 0 0 1 6 6 0 218 252 253 254 253 255 254 253 253 254 255 112 2 0 0 0 0 0 0 0 0 0 0 0 0 0 0 0 0 0 0 0 0 0 0 0 0 0 1 0 0 0 0 0 0 0 0 0 0 0 0 0 0 1 0 0 0 0 0 1 0 0 0 0 0 0 0 0 0 0 0 0 0 0 0 0 0 0 0 0 0 0 0 0 0 0 0 0 0 0 0 0 0 0 1 0 0 0 0 0 0 0 0 0 0 0 0 0 0 0 0 0 0 0 0 0 0 1 0 0 0 0 0 0 0 0 0 0 0 0 0 0 0 0 0 0 0 0 0 0 0 0 0 0 0 0 0 0 0 0 0 0 0 0 0 0 0 0 0 0 0 0 0 0 0 0 1 109 255 255 254 253 255 255 254 255 253 254 209 0 4 1 0 0 0 1 0 0 0 0 0 0 0 0 0 0 0 0 0 0 1 0 0 0 0 0 0 0 0 0 0 0 0 0 0 0 0 0 0 0 0 0 0 1 0 0 0 0 0 0 0 0 0 0 0 0 0 0 0 0 0 1 0 0 0 1 2 0 109 255 251 253 252 253 254 255 254 254 253 253 253 254 255 255 255 255 255 255 255 255 255 255 255 255 255 255 255 255 255 255 255 255 255 255 255 255 255 255 255 255 255 255 255 255 255 255 255 255 255 255 255 255 255 255 255 255 255 255 255 255 255 255 255 255 255 255 
255 255 255 255 255 255 255 255 255 255 255 255 255 255 255 255 255 255 255 255 255 255 255 255 255 255 255 255 255 255 255 255 255 255 255 255 255 255 255 255 255 255 255 255 255 255 255 255 255 255 255 255 255 255 254 253 255 253 255 254 253 253 255 255 255 253 252 250 233 0 4 0 0 0 0 0 0 0 0 0 0 0 0 0 0 0 0 0 0 0 0 0 0 0 0 0 0 0 0 0 0 0 0 0 0 0 0 0 0 0 0 0 0 0 0 0 0 0 0 0 0 0 0 0 0 0 0 0 0 0 0 0 0 0 0 4 0 14 230 254 253 254 253 254 254 253 253 255 255 254 218 0 1 0 0 0 0 0 0 0 0 0 0 0 0 0 0 0 0 0 0 0 0 0 0 0 0 0 0 0 0 0 0 0 0 0 0 0 0 0 0 1 0 0 0 0 0 0 0 0 0 0 0 0 0 0 0 0 0 0 0 0 0 0 0 0 0 0 0 0 0 0 1 1 0 0 0 0 0 0 0 0 0 0 0 0 0 0 0 0 0 0 0 0 0 0 0 0 0 0 0 1 0 0 0 0 0 0 0 0 0 0 0 0 0 0 0 0 0 0 0 0 0 0 0 0 0 0 0 0 0 0 0 0 0 0 0 0 0 0 0 0 0 0 0 0 0 0 0 0 0 0 0 0 0 0 193 254 255 255 254 255 255 254 255 255 253 254 215 11 0 5 0 0 0 0 0 0 0 0 0 0 0 0 0 0 0 0 0 0 0 0 0 0 0 0 0 0 0 0 0 0 0 0 0 0 0 0 0 0 0 0 1 0 0 0 0 1 0 0 0 0 0 1 0 0 0 0 0 0 0 0 0 0 0 0 1 0 211 252 251 253 253 255 255 255 253 253 255 254 254 255 255 255 255 255 255 255 255 255 255 255 255 255 255 255 255 255 255 255 255 255 255 255 255 255 255 255 255 255 255 255 255 255 255 255 255 255 255 255 255 255 255 255 255 255 255 255 255 255 255 255 255 255 255 
255 255 255 255 255 255 255 255 255 255 255 255 255 255 255 255 255 255 255 255 255 255 255 255 255 255 255 255 255 255 255 255 255 255 255 255 255 255 255 255 255 255 255 255 255 255 255 255 255 255 255 255 255 255 254 253 253 253 255 254 254 254 255 255 254 253 247 255 38 4 0 0 0 0 0 0 0 0 0 0 0 0 0 0 0 0 0 0 0 0 0 0 0 0 1 0 0 0 0 0 0 0 0 0 0 0 0 0 1 0 0 0 0 0 0 0 0 0 0 0 0 1 0 0 0 0 0 0 0 0 0 0 0 3 0 13 152 255 249 254 254 255 254 254 255 253 253 255 255 252 231 0 2 0 0 0 0 0 0 0 0 0 0 0 0 0 0 0 0 1 0 0 0 0 0 0 0 0 0 0 0 0 0 0 0 1 0 0 0 0 0 1 0 0 0 0 0 0 0 0 0 0 0 0 0 0 0 0 0 0 0 0 0 1 0 0 0 0 0 0 0 0 0 0 0 0 0 0 0 0 0 0 0 0 0 1 0 0 0 0 0 0 0 0 0 0 0 0 1 0 0 0 0 0 0 0 0 0 0 0 0 0 0 0 0 0 0 0 0 0 0 0 0 0 0 0 0 0 0 0 0 0 0 0 0 0 0 0 0 0 0 0 0 0 0 0 0 0 0 0 0 0 0 1 0 0 208 255 254 254 255 253 255 255 254 254 254 251 251 255 138 14 0 4 0 0 0 0 0 0 0 0 0 0 0 0 0 0 0 0 0 0 0 0 0 0 0 0 0 0 0 0 0 0 0 0 0 0 0 0 0 0 1 0 0 0 0 0 0 0 0 0 0 0 0 0 0 0 0 0 0 0 0 0 0 0 0 1 25 255 249 252 255 255 254 255 255 254 255 253 254 255 255 255 255 255 255 255 255 255 255 255 255 255 255 255 255 255 255 255 255 255 255 255 255 255 255 255 255 255 255 255 255 255 255 255 255 255 255 255 255 255 255 255 255 255 255 255 255 255 255 255 255 255 255 
255 255 255 255 255 255 255 255 255 255 255 255 255 255 255 255 255 255 255 255 255 255 255 255 255 255 255 255 255 255 255 255 255 255 255 255 255 255 255 255 255 255 255 255 255 255 255 255 255 255 255 255 255 255 255 254 254 254 255 254 254 255 253 254 255 254 255 154 0 0 0 0 0 1 0 0 0 0 0 0 0 0 0 0 0 0 0 1 0 0 0 0 0 0 0 0 0 0 0 0 0 0 0 0 0 0 0 0 0 0 0 0 0 0 0 0 0 0 0 0 0 0 0 0 0 0 0 0 0 0 0 0 0 0 107 255 254 249 254 255 255 255 254 254 253 253 253 255 255 252 252 15 1 0 0 0 0 1 0 0 0 0 0 0 0 0 0 0 0 0 0 0 0 0 0 0 0 0 0 0 0 0 0 0 0 0 0 0 0 0 0 0 0 0 0 0 0 0 0 0 0 0 0 0 0 0 0 0 0 0 0 0 0 0 0 1 0 1 0 0 0 0 0 0 0 0 0 0 0 0 0 0 0 0 0 0 1 0 0 0 0 0 0 0 0 0 0 0 1 0 0 0 0 0 0 0 0 0 0 0 0 0 0 0 0 0 0 0 0 0 0 0 0 0 0 0 0 0 0 0 0 0 0 0 0 0 0 0 0 0 0 0 0 0 0 0 0 0 0 0 0 0 0 0 1 10 249 255 255 255 254 254 254 254 255 255 255 253 254 248 254 255 135 0 0 0 0 0 0 0 0 0 0 0 0 0 0 0 0 0 0 0 0 0 0 0 0 0 0 1 0 0 0 0 0 0 0 0 1 0 1 0 0 1 0 0 0 0 0 0 0 0 0 0 0 0 0 0 0 0 0 0 0 0 0 0 0 0 0 159 254 255 255 254 255 255 253 255 253 254 255 255 255 255 255 255 255 255 255 255 255 255 255 255 255 255 255 255 255 255 255 255 255 255 255 255 255 255 255 255 255 255 255 255 255 255 255 255 255 255 255 255 255 255 255 255 255 255 255 255 255 255 255 255 255 
255 255 255 255 255 255 255 255 255 255 255 255 255 255 255 255 255 255 255 255 255 255 255 255 255 255 255 255 255 255 255 255 255 255 255 255 255 255 255 255 255 255 255 255 255 255 255 255 255 255 255 255 255 255 255 253 254 254 255 253 254 255 254 255 253 247 246 0 4 0 0 0 0 1 1 0 0 0 0 0 0 0 0 0 0 0 0 0 1 0 0 0 0 0 0 0 0 0 0 0 0 0 0 0 0 0 0 0 0 0 0 0 0 0 0 0 0 0 0 0 0 0 0 1 0 0 0 0 0 0 0 0 0 1 55 255 254 254 255 254 255 253 253 254 255 254 253 254 254 253 255 31 3 0 0 0 0 0 0 0 0 0 0 0 0 0 0 0 0 0 0 0 0 0 0 0 0 0 0 0 0 0 0 0 0 0 0 0 1 0 0 0 0 0 0 0 0 0 0 0 0 0 0 0 0 0 0 0 0 0 0 0 1 0 0 0 1 0 0 0 0 0 0 0 0 0 0 0 0 0 0 0 0 0 0 0 0 0 0 0 0 0 0 0 0 0 0 1 0 0 0 0 0 0 0 0 0 0 0 0 0 0 0 0 0 0 0 0 0 0 0 0 0 0 0 0 0 0 0 0 0 0 0 0 0 0 0 0 0 0 0 0 0 0 0 0 0 0 0 0 0 0 0 1 4 14 255 253 254 254 254 254 253 252 253 254 254 254 255 254 255 255 74 3 1 0 0 0 0 0 0 0 0 0 0 0 0 0 0 0 0 0 0 0 0 0 0 0 0 1 0 0 0 0 0 0 0 0 0 0 0 1 0 0 0 0 0 0 0 0 0 0 0 0 0 0 0 0 0 0 0 0 0 0 0 0 0 0 3 9 253 247 253 255 255 253 254 254 254 253 254 255 255 255 255 255 255 255 255 255 255 255 255 255 255 255 255 255 255 255 255 255 255 255 255 255 255 255 255 255 255 255 255 255 255 255 255 255 255 255 255 255 255 255 255 255 255 255 255 255 255 255 255 255 255 
255 255 255 255 255 255 255 255 255 255 255 255 255 255 255 255 255 255 255 255 255 255 255 255 255 255 255 255 255 255 255 255 255 255 255 255 255 255 255 255 255 255 255 255 255 255 255 255 255 255 255 255 255 255 254 254 254 255 254 253 255 253 255 246 255 227 71 0 0 0 0 0 0 1 0 1 0 0 0 0 0 0 0 0 0 0 0 0 0 0 0 1 0 0 0 0 0 0 0 0 0 0 0 0 0 0 0 0 0 0 0 0 0 0 0 0 0 0 0 0 0 0 0 0 0 0 0 0 0 0 0 0 1 1 18 255 254 254 254 255 254 253 253 253 253 254 254 255 253 254 255 127 0 0 0 0 0 0 0 0 0 0 0 0 0 0 0 0 0 0 0 0 0 0 0 0 0 0 0 0 0 0 0 0 0 0 0 0 0 0 0 0 0 0 0 0 0 0 0 0 0 0 0 0 0 0 0 0 0 0 0 0 0 0 0 0 0 0 1 0 0 0 0 0 0 0 0 0 0 1 0 0 0 0 0 0 0 0 0 0 0 0 0 0 0 0 0 0 0 1 0 1 0 0 0 0 0 0 1 0 0 0 0 0 0 0 0 0 0 0 0 0 0 0 0 0 0 0 0 0 0 0 0 0 0 0 0 0 0 0 0 0 0 0 0 0 0 0 0 0 0 0 0 0 1 84 255 253 252 253 253 253 253 253 252 255 255 254 255 255 255 255 44 1 0 0 0 1 0 0 0 0 0 0 0 0 0 0 0 0 0 0 0 0 0 0 1 0 0 0 0 0 0 0 0 0 0 0 0 0 0 0 1 0 0 0 1 1 0 0 0 0 0 0 0 0 0 0 0 0 0 0 0 0 0 0 0 0 0 0 122 232 255 245 255 252 253 253 255 254 254 255 255 255 255 255 255 255 255 255 255 255 255 255 255 255 255 255 255 255 255 255 255 255 255 255 255 255 255 255 255 255 255 255 255 255 255 255 255 255 255 255 255 255 255 255 255 255 255 255 255 255 255 255 255 
255 255 255 255 255 255 255 255 255 255 255 255 255 255 255 255 255 255 255 255 255 255 255 255 255 255 255 255 255 255 255 255 255 255 255 255 255 255 255 255 255 255 255 255 255 255 255 255 255 255 255 255 255 255 254 253 255 253 254 254 254 253 250 251 54 0 0 4 0 0 0 0 0 0 0 0 0 0 1 0 0 0 0 0 1 0 0 0 0 0 0 0 1 0 0 1 0 0 0 0 0 0 0 0 0 0 0 0 0 0 0 0 0 0 0 0 0 0 0 0 0 1 0 0 0 0 0 0 0 0 1 0 0 0 0 223 253 252 253 254 255 253 254 253 253 255 254 253 254 255 254 181 0 0 0 0 0 0 1 0 0 0 0 0 0 0 0 0 0 0 0 0 0 0 0 0 0 0 0 0 0 0 0 0 0 0 0 0 0 0 0 0 0 0 0 0 0 0 0 0 0 0 0 0 0 0 0 0 0 0 0 0 0 0 0 0 0 0 0 0 0 0 0 0 0 0 0 0 0 0 0 0 0 0 0 0 0 0 0 0 0 0 0 0 0 0 0 0 1 0 0 0 0 0 0 0 0 0 0 0 0 0 0 0 0 0 0 0 0 0 0 0 0 0 0 0 0 0 0 0 0 0 0 0 1 0 0 0 0 0 0 0 0 0 0 0 0 0 0 0 0 0 0 0 1 114 255 253 253 252 254 254 253 253 253 253 255 255 253 254 252 234 0 1 0 0 0 0 0 0 0 0 0 0 0 0 0 0 0 0 0 0 0 0 0 0 0 0 0 0 0 0 0 0 0 0 0 0 0 0 0 0 0 0 0 0 0 0 0 0 0 0 0 0 0 0 0 0 0 0 0 0 0 0 0 0 0 0 0 5 0 0 104 255 245 252 253 253 254 255 255 255 255 255 255 255 255 255 255 255 255 255 255 255 255 255 255 255 255 255 255 255 255 255 255 255 255 255 255 255 255 255 255 255 255 255 255 255 255 255 255 255 255 255 255 255 255 255 255 255 255 255 255 255 255 
255 255 255 255 255 255 255 255 255 255 255 255 255 255 255 255 255 255 255 255 255 255 255 255 255 255 255 255 255 255 255 255 255 255 255 255 255 255 255 255 255 255 255 255 255 255 255 255 255 255 255 255 255 255 255 254 254 253 255 255 253 247 255 22 4 5 3 1 0 0 0 0 0 0 0 0 0 0 0 0 0 0 1 0 0 0 0 0 0 0 0 0 0 0 0 0 0 0 0 0 0 0 0 1 0 0 1 0 0 0 0 0 0 0 0 0 0 0 0 0 0 0 0 0 0 0 0 0 0 0 0 0 0 0 0 148 255 252 253 253 253 255 255 254 253 254 253 254 253 253 253 245 0 2 0 0 0 0 0 0 0 0 0 0 0 0 0 0 0 0 0 0 0 0 0 0 0 0 0 0 0 0 0 0 0 1 0 0 0 0 0 0 0 0 0 0 0 0 0 0 0 0 0 0 0 0 0 0 1 0 0 0 0 0 0 0 0 0 0 0 0 0 0 0 0 0 1 0 0 0 0 0 0 0 0 0 0 0 0 0 0 0 0 0 0 0 0 0 0 0 0 0 0 0 0 0 0 0 0 0 0 0 0 0 0 0 0 0 0 0 0 0 0 0 0 0 0 0 0 0 0 0 0 0 0 0 0 0 0 0 0 0 0 0 0 0 0 0 1 0 0 0 0 0 0 211 253 253 252 253 254 253 254 254 254 254 255 254 253 252 254 167 0 0 0 0 0 0 0 0 0 0 0 0 0 0 0 0 0 0 0 0 0 0 0 0 0 0 0 0 0 0 0 0 0 0 0 0 0 0 0 1 0 0 0 0 0 0 0 0 0 0 0 0 0 0 0 0 0 0 0 0 0 0 0 0 0 0 1 1 5 7 0 78 255 246 252 253 253 255 255 255 255 255 255 255 255 255 255 255 255 255 255 255 255 255 255 255 255 255 255 255 255 255 255 255 255 255 255 255 255 255 255 255 255 255 255 255 255 255 255 255 255 255 255 255 255 255 255 255 255 255 255 255 255 
255 255 255 255 255 255 255 255 255 255 255 255 255 255 255 255 255 255 255 255 255 255 255 255 255 255 255 255 255 255 255 255 255 255 255 255 255 255 255 255 255 255 255 255 255 255 255 255 255 255 255 255 255 255 254 255 254 254 254 254 253 255 57 2 2 2 0 0 0 0 0 0 0 0 0 0 0 0 0 0 0 0 0 0 0 0 0 0 0 0 0 0 0 0 0 0 0 0 0 0 0 0 0 0 0 0 0 0 0 0 0 0 0 0 0 0 0 0 0 0 0 0 0 0 1 0 0 0 0 0 0 0 0 0 1 99 255 251 252 253 253 255 253 254 255 253 253 255 253 252 254 255 35 2 1 0 0 0 0 0 0 0 0 0 0 0 0 0 0 0 0 0 0 0 0 0 0 0 0 0 0 0 0 0 0 0 0 0 0 0 0 0 0 0 0 0 0 0 0 0 0 0 0 0 0 0 0 0 0 0 0 0 0 0 0 0 0 0 0 0 0 0 0 0 0 0 0 0 0 0 0 0 0 0 0 0 0 0 0 0 0 0 0 0 0 0 0 1 0 0 0 0 0 0 0 0 0 0 0 0 0 0 0 0 0 0 0 0 0 0 0 0 1 0 0 0 0 0 0 0 0 0 0 0 0 0 0 0 0 0 0 0 0 0 0 0 0 1 0 0 0 0 0 1 0 237 251 253 252 254 253 253 254 255 255 253 254 255 253 252 255 140 0 0 0 0 0 0 1 0 0 0 0 0 0 0 0 0 0 0 0 0 0 0 0 0 0 0 0 0 0 0 0 0 0 0 0 0 0 0 0 0 0 1 0 0 0 0 0 0 0 0 0 0 0 0 0 0 0 0 0 0 0 0 0 0 0 0 1 0 2 3 3 0 132 255 252 253 254 254 255 255 255 255 255 255 255 255 255 255 255 255 255 255 255 255 255 255 255 255 255 255 255 255 255 255 255 255 255 255 255 255 255 255 255 255 255 255 255 255 255 255 255 255 255 255 255 255 255 255 255 255 255 255 255 
255 255 255 255 255 255 255 255 255 255 255 255 255 255 255 255 255 255 255 255 255 255 255 255 255 255 255 255 255 255 255 255 255 255 255 255 255 255 255 255 255 255 255 255 255 255 255 255 255 255 255 255 255 255 253 255 255 255 254 255 254 171 0 2 0 1 0 0 0 0 0 0 0 0 0 0 0 0 0 0 0 0 1 0 0 0 0 0 0 0 0 1 0 0 0 0 0 0 0 0 0 0 0 0 0 0 0 0 1 0 0 0 0 0 1 0 0 0 0 0 0 0 0 0 0 0 0 0 0 0 0 0 0 0 3 20 255 251 252 253 254 255 254 253 254 254 254 254 254 253 255 255 87 1 2 0 0 0 0 0 0 1 0 0 0 0 0 0 0 0 0 1 0 0 0 0 0 0 0 0 0 0 0 0 0 0 0 0 0 0 0 0 0 0 0 0 0 0 0 0 0 0 0 0 0 0 0 1 0 0 0 0 0 0 0 0 1 0 0 0 0 0 0 0 0 0 0 0 0 0 0 0 1 0 0 1 0 0 0 0 0 0 0 0 0 0 0 0 0 0 0 0 0 0 0 0 0 0 0 0 1 0 0 0 0 0 0 0 0 0 0 0 0 0 0 0 0 0 0 0 0 0 0 0 0 0 0 0 0 0 0 1 0 0 0 0 0 0 0 0 0 0 0 4 29 255 251 253 253 253 252 254 254 255 255 254 253 254 253 252 255 36 2 0 0 0 0 0 0 0 0 0 0 0 0 0 0 0 0 1 0 0 0 0 0 0 0 0 1 0 0 0 0 0 0 0 0 0 0 0 0 0 0 0 0 0 0 1 0 0 0 0 0 0 0 0 1 0 0 0 0 0 0 0 0 0 0 0 0 0 2 1 0 5 0 235 253 254 255 254 255 255 255 255 255 255 255 255 255 255 255 255 255 255 255 255 255 255 255 255 255 255 255 255 255 255 255 255 255 255 255 255 255 255 255 255 255 255 255 255 255 255 255 255 255 255 255 255 255 255 255 255 255 255 255 
255 255 255 255 255 255 255 255 255 255 255 255 255 255 255 255 255 255 255 255 255 255 255 255 255 255 255 255 255 255 255 255 255 255 255 255 255 255 255 255 255 255 255 255 255 255 255 255 255 255 255 255 255 255 254 255 254 254 255 254 255 38 2 0 0 0 0 0 0 1 0 0 0 0 0 0 0 0 0 0 0 0 0 0 0 0 0 0 0 0 0 0 0 0 0 0 0 0 0 0 0 0 0 0 0 0 0 0 0 0 1 0 0 0 0 0 0 1 0 0 0 1 0 0 0 0 0 0 0 0 0 0 0 0 0 6 241 253 253 254 255 254 255 253 254 254 254 255 253 254 254 255 167 0 0 0 0 0 0 0 0 0 0 0 0 0 0 0 0 0 0 0 0 0 0 0 0 0 0 0 0 0 0 0 0 0 0 0 0 0 0 0 0 0 0 0 0 0 0 0 0 0 0 0 0 0 0 0 0 0 0 0 0 0 0 0 1 0 0 0 0 0 0 0 0 0 0 0 0 0 0 0 0 0 0 0 0 0 0 0 0 0 0 0 0 0 0 0 0 0 0 0 0 0 0 0 0 0 0 0 0 1 0 0 0 0 0 0 0 0 0 0 0 0 0 0 0 0 0 0 0 0 0 0 0 0 0 0 0 0 0 0 0 0 0 0 0 0 0 0 0 0 0 0 121 255 254 253 253 253 254 254 255 255 255 254 253 254 253 250 255 27 1 0 0 0 0 0 0 0 0 0 0 0 0 0 0 0 0 0 0 0 0 0 0 0 0 0 0 0 0 1 0 0 0 0 0 0 0 0 0 0 0 0 0 0 0 0 0 1 0 0 0 0 0 0 0 0 0 0 0 0 0 0 0 0 0 0 0 0 0 0 0 0 0 153 254 255 254 255 254 255 255 255 255 255 255 255 255 255 255 255 255 255 255 255 255 255 255 255 255 255 255 255 255 255 255 255 255 255 255 255 255 255 255 255 255 255 255 255 255 255 255 255 255 255 255 255 255 255 255 255 255 255 255 
255 255 255 255 255 255 255 255 255 255 255 255 255 255 255 255 255 255 255 255 255 255 255 255 255 255 255 255 255 255 255 255 255 255 255 255 255 255 255 255 255 255 255 255 255 255 255 255 255 255 255 255 255 255 254 254 254 254 255 254 230 0 2 0 0 0 0 0 0 0 1 0 0 0 0 0 0 0 0 0 0 1 0 0 0 0 0 0 0 0 0 0 0 0 0 0 0 0 0 0 0 0 0 0 0 0 0 0 0 0 0 0 0 0 0 0 1 0 0 0 0 0 0 1 0 0 0 0 0 0 0 0 0 0 0 0 207 252 254 254 255 255 255 255 254 254 254 253 254 255 254 254 243 1 0 0 0 0 0 0 0 0 0 0 0 0 0 0 0 0 0 0 0 0 0 0 0 0 0 0 0 0 0 0 0 0 0 0 0 0 0 0 0 0 0 0 0 0 0 0 0 0 0 0 0 1 0 0 0 1 0 1 0 0 0 0 0 0 0 0 0 1 0 0 0 0 0 0 0 0 0 0 0 0 0 0 0 0 0 0 0 0 0 0 0 0 0 0 0 0 0 0 0 0 0 0 0 0 0 0 0 0 0 0 0 0 0 0 0 0 0 0 0 0 0 0 0 0 0 0 0 0 0 0 0 0 0 0 0 0 0 0 0 0 0 0 0 0 0 0 0 0 0 0 180 254 255 254 253 255 254 255 253 255 255 254 254 254 253 250 236 0 0 1 0 0 0 0 0 0 1 1 1 0 0 0 0 0 1 0 0 0 0 0 0 0 0 0 0 0 0 0 0 0 0 0 0 0 0 1 0 0 0 0 0 0 0 0 0 0 1 0 0 0 0 0 0 0 0 0 1 0 0 0 0 0 0 0 0 0 0 0 0 0 2 45 255 255 255 254 253 255 255 255 255 255 255 255 255 255 255 255 255 255 255 255 255 255 255 255 255 255 255 255 255 255 255 255 255 255 255 255 255 255 255 255 255 255 255 255 255 255 255 255 255 255 255 255 255 255 255 255 255 255 255 
255 255 255 255 255 255 255 255 255 255 255 255 255 255 255 255 255 255 255 255 255 255 255 255 255 255 255 255 255 255 255 255 255 255 255 255 255 255 255 255 255 255 255 255 255 255 255 255 255 255 255 255 255 255 254 253 254 254 255 254 237 1 3 0 0 0 0 0 0 1 0 0 0 0 1 0 0 0 0 0 1 0 0 0 0 0 0 0 0 0 0 0 0 0 0 0 0 1 0 0 1 0 0 0 1 0 0 0 0 0 0 0 0 0 0 0 0 0 0 0 0 0 0 0 0 0 0 0 0 0 0 0 0 0 0 1 116 255 255 255 254 254 254 254 254 253 254 253 254 255 255 252 253 15 1 0 0 0 0 0 0 0 0 0 0 0 0 0 0 0 0 0 0 0 0 0 0 0 0 0 0 0 0 0 0 0 0 0 0 0 0 0 0 0 0 0 0 0 0 0 0 0 0 1 0 0 0 0 0 1 0 0 0 0 0 0 0 0 0 0 0 0 0 0 0 0 0 0 0 0 0 0 0 0 0 0 0 0 0 0 0 0 0 0 0 0 0 0 0 0 0 0 1 0 1 0 0 1 0 0 0 0 0 0 0 0 0 0 0 0 0 0 0 0 0 0 0 0 0 0 0 0 0 0 1 0 0 0 0 0 0 0 0 0 0 0 0 0 0 0 0 0 0 0 244 254 254 254 254 254 253 255 254 253 254 253 254 253 254 254 174 0 0 0 0 0 1 0 0 0 0 0 0 0 0 0 0 0 1 0 0 0 0 0 0 0 0 0 0 0 0 0 0 0 0 0 0 0 0 0 0 0 0 0 0 0 0 0 0 0 0 0 0 0 0 0 0 0 0 0 0 0 0 0 0 0 1 0 0 0 0 0 0 0 1 53 255 255 255 252 252 255 255 255 255 255 255 255 255 255 255 255 255 255 255 255 255 255 255 255 255 255 255 255 255 255 255 255 255 255 255 255 255 255 255 255 255 255 255 255 255 255 255 255 255 255 255 255 255 255 255 255 255 255 255 
255 255 255 255 255 255 255 255 255 255 255 255 255 255 255 255 255 255 255 255 255 255 255 255 255 255 255 255 255 255 255 255 255 255 255 255 255 255 255 255 255 255 255 255 255 255 255 255 255 255 255 255 255 255 254 254 253 253 253 254 238 1 2 0 0 0 0 0 0 0 0 0 0 0 0 0 0 0 1 0 0 0 0 0 0 0 0 0 0 0 0 0 0 0 0 0 0 0 0 0 0 0 0 0 0 1 0 0 0 0 0 0 1 0 0 1 0 0 0 0 0 0 0 0 1 0 0 0 0 0 0 0 0 0 0 1 97 255 255 254 255 254 253 254 253 253 254 253 253 255 254 253 255 68 0 0 0 0 0 0 0 0 0 0 0 0 0 0 0 0 0 0 0 0 0 0 0 0 0 0 0 0 0 0 0 0 0 0 0 0 0 0 0 0 0 0 0 0 0 0 0 0 0 0 0 0 0 0 0 0 0 0 0 0 0 0 0 0 1 0 0 0 0 0 0 0 0 0 0 0 0 0 0 0 0 0 0 0 0 0 0 0 0 0 0 0 0 0 0 0 0 0 0 0 0 0 0 0 0 0 0 0 0 0 0 0 0 0 0 0 0 0 0 0 0 0 0 0 0 0 0 0 0 0 0 1 1 0 0 0 0 1 0 0 0 0 0 0 0 0 0 0 1 30 255 255 255 255 255 252 254 254 255 253 253 253 254 253 255 255 133 0 0 0 0 0 0 0 0 0 0 0 0 0 0 0 0 0 0 0 0 0 0 1 0 0 0 0 0 0 0 0 0 0 0 0 0 0 0 0 0 1 0 0 0 0 0 0 0 0 0 0 0 0 1 0 0 0 0 0 0 0 0 0 0 0 0 0 0 0 0 0 0 0 1 52 255 255 255 253 252 255 255 255 255 255 255 255 255 255 255 255 255 255 255 255 255 255 255 255 255 255 255 255 255 255 255 255 255 255 255 255 255 255 255 255 255 255 255 255 255 255 255 255 255 255 255 255 255 255 255 255 255 255 255 
255 255 255 255 255 255 255 255 255 255 255 255 255 255 255 255 255 255 255 255 255 255 255 255 255 255 255 255 255 255 255 255 255 255 255 255 255 255 255 255 255 255 255 255 255 255 255 255 255 255 255 255 255 255 253 252 254 253 251 254 245 4 1 0 0 0 0 0 0 0 0 0 0 0 0 0 0 0 0 0 0 0 0 0 0 0 0 0 0 0 0 0 0 0 0 0 0 0 0 0 0 0 0 0 0 0 0 0 0 0 0 0 0 0 0 0 0 0 0 0 0 0 0 0 0 0 0 0 0 0 0 0 0 0 0 1 15 255 254 254 255 255 254 253 253 253 253 254 254 253 255 254 254 161 0 0 0 1 0 0 0 0 0 0 0 0 0 0 0 0 0 0 0 0 0 0 0 0 0 0 0 0 1 0 0 0 0 0 0 0 0 0 0 0 0 0 0 0 0 0 0 0 0 0 0 0 0 0 0 0 0 0 0 0 0 1 0 0 0 0 0 0 0 0 0 0 0 0 0 0 0 0 0 0 0 0 0 0 0 0 0 0 0 0 0 0 0 0 0 0 0 0 0 0 0 0 0 0 0 0 0 0 0 0 0 0 0 0 0 0 0 0 0 0 1 0 0 0 0 0 0 0 0 0 0 0 0 0 0 0 0 0 0 0 0 0 0 0 0 0 0 0 0 117 255 255 255 255 255 254 254 254 253 253 254 254 252 253 255 255 48 1 0 0 0 0 0 1 0 0 0 0 0 0 0 0 0 0 0 0 0 0 0 0 0 0 0 0 0 0 0 0 0 0 0 0 0 0 0 0 0 0 0 0 0 0 0 0 0 0 0 0 1 0 0 0 0 0 0 0 0 0 0 0 0 1 0 0 0 0 0 0 0 0 0 82 255 255 253 253 251 255 255 255 255 255 255 255 255 255 255 255 255 255 255 255 255 255 255 255 255 255 255 255 255 255 255 255 255 255 255 255 255 255 255 255 255 255 255 255 255 255 255 255 255 255 255 255 255 255 255 255 255 255 255 
255 255 255 255 255 255 255 255 255 255 255 255 255 255 255 255 255 255 255 255 255 255 255 255 255 255 255 255 255 255 255 255 255 255 255 255 255 255 255 255 255 255 255 255 255 255 255 255 255 255 255 255 255 255 254 253 253 254 253 250 224 0 1 0 0 0 0 0 0 0 0 0 0 0 0 0 0 0 0 0 0 0 0 0 0 0 0 0 0 0 0 0 0 0 0 0 0 0 0 0 0 0 0 0 0 0 0 0 0 0 0 0 0 0 0 0 0 0 0 0 0 0 0 0 0 0 0 0 0 0 0 0 0 0 1 1 18 255 253 255 254 253 254 252 254 253 254 255 255 254 255 255 255 203 0 0 0 0 0 0 0 0 0 0 0 0 0 0 0 0 0 0 0 0 0 0 0 0 0 0 0 0 0 0 1 0 0 0 0 0 1 0 0 0 1 0 0 0 0 0 0 0 0 0 0 0 0 0 0 0 0 0 0 0 0 0 0 0 0 0 1 0 0 0 0 0 1 0 0 0 0 0 0 0 0 0 0 0 0 0 0 0 0 0 0 0 0 0 0 0 0 0 0 0 0 0 0 0 0 0 0 0 0 0 1 0 0 0 0 0 0 0 0 0 0 1 0 0 0 0 0 0 0 0 0 0 0 0 0 0 0 0 0 0 0 0 0 0 0 0 0 0 0 160 254 253 255 255 255 255 254 255 253 254 253 252 253 254 254 255 41 1 0 0 0 0 1 0 0 0 0 0 0 0 0 0 0 1 0 0 0 0 0 0 0 0 0 0 0 0 0 0 0 0 0 0 0 0 1 0 0 0 0 0 0 0 0 0 0 0 0 0 0 0 0 0 0 0 0 0 0 0 0 0 0 0 0 0 0 0 0 0 0 0 0 73 255 252 251 252 249 255 255 255 255 255 255 255 255 255 255 255 255 255 255 255 255 255 255 255 255 255 255 255 255 255 255 255 255 255 255 255 255 255 255 255 255 255 255 255 255 255 255 255 255 255 255 255 255 255 255 255 255 255 255 
255 255 255 255 255 255 255 255 255 255 255 255 255 255 255 255 255 255 255 255 255 255 255 255 255 255 255 255 255 255 255 255 255 255 255 255 255 255 255 255 255 255 255 255 255 255 255 255 255 255 255 255 255 255 255 254 253 253 252 255 69 2 0 0 1 0 0 0 0 0 0 0 0 0 0 0 0 0 0 0 0 0 0 0 0 0 0 0 0 0 0 0 0 0 0 0 0 0 0 1 0 0 0 0 0 1 0 0 0 0 0 0 0 0 0 1 0 0 0 0 1 0 0 1 0 0 1 0 0 0 0 0 0 0 0 3 0 213 254 255 254 253 252 253 253 253 254 254 255 255 254 255 254 252 4 1 0 0 0 0 0 0 0 0 0 0 0 0 0 0 0 0 0 0 0 0 0 0 0 0 0 0 0 0 0 0 0 0 0 0 0 1 0 0 0 0 0 0 0 0 0 0 0 0 0 0 0 0 0 0 0 0 0 0 0 0 1 0 0 0 0 0 0 0 0 1 0 0 0 0 0 0 0 0 0 0 0 0 0 0 0 0 0 0 0 0 0 0 0 0 0 0 0 0 1 0 0 0 0 0 0 0 0 0 0 0 0 0 0 0 0 0 0 0 0 0 0 0 0 0 0 0 0 0 0 0 0 0 0 0 0 0 0 0 0 0 0 1 0 0 0 0 1 242 252 254 255 255 255 254 252 253 254 252 252 253 253 255 254 238 1 1 0 0 0 0 0 0 0 0 0 0 0 0 0 0 0 0 0 0 0 0 0 0 0 0 0 0 0 0 0 0 0 0 0 0 0 0 0 0 0 0 0 0 0 0 0 0 0 0 0 0 0 0 0 0 0 0 0 0 1 0 0 0 0 0 1 0 0 0 0 0 0 0 3 1 242 248 250 251 250 255 255 255 255 255 255 255 255 255 255 255 255 255 255 255 255 255 255 255 255 255 255 255 255 255 255 255 255 255 255 255 255 255 255 255 255 255 255 255 255 255 255 255 255 255 255 255 255 255 255 255 255 255 255 
255 255 255 255 255 255 255 255 255 255 255 255 255 255 255 255 255 255 255 255 255 255 255 255 255 255 255 255 255 255 255 255 255 255 255 255 255 255 255 255 255 255 255 255 255 255 255 255 255 255 255 255 255 255 254 255 253 252 249 242 0 2 1 0 0 0 0 0 0 0 0 0 0 0 0 0 0 0 0 0 0 0 0 0 0 0 0 0 0 0 0 0 0 0 0 0 0 0 0 0 0 0 0 0 0 0 0 0 0 0 0 0 0 0 0 0 0 0 1 0 0 1 0 0 0 0 1 0 0 0 0 0 0 0 0 1 0 200 254 255 254 253 253 252 253 254 254 254 255 254 253 253 255 255 45 0 0 0 0 0 0 0 0 0 0 0 0 0 0 0 0 0 0 0 0 0 0 0 0 0 0 0 0 0 0 0 0 0 0 0 0 0 0 0 0 0 0 0 0 0 0 0 0 0 0 0 0 0 0 0 0 0 0 0 0 0 0 0 0 0 0 0 0 0 0 0 0 1 0 0 0 0 0 0 0 0 0 0 0 0 0 0 0 0 0 0 0 0 0 0 0 0 0 0 0 0 0 0 0 0 0 0 0 0 0 0 0 0 0 0 0 0 0 0 0 0 0 0 0 0 0 0 0 0 0 0 0 1 0 0 1 0 0 0 0 0 0 0 0 0 0 0 15 255 253 254 255 255 255 254 253 254 254 253 252 254 253 255 252 229 0 1 0 0 0 0 0 0 0 0 0 0 0 0 0 0 0 0 0 0 0 0 0 0 0 0 0 1 0 0 0 0 0 0 0 0 0 0 0 0 0 0 0 0 0 0 0 0 0 0 0 0 0 0 0 0 0 0 0 0 0 0 0 0 1 0 0 0 0 0 0 0 0 0 0 1 114 254 250 252 252 255 255 255 255 255 255 255 255 255 255 255 255 255 255 255 255 255 255 255 255 255 255 255 255 255 255 255 255 255 255 255 255 255 255 255 255 255 255 255 255 255 255 255 255 255 255 255 255 255 255 255 255 255 255 
255 255 255 255 255 255 255 255 255 255 255 255 255 255 255 255 255 255 255 255 255 255 255 255 255 255 255 255 255 255 255 255 255 255 255 255 255 255 255 255 255 255 255 255 255 255 255 255 255 255 255 255 255 255 254 255 254 253 255 120 1 0 1 0 0 0 0 0 0 0 0 0 0 0 0 0 0 0 0 0 0 0 0 0 0 0 0 0 0 0 0 0 0 0 0 0 0 0 0 0 0 1 0 0 0 0 0 0 0 0 0 0 0 0 0 0 0 0 0 0 0 1 0 0 0 0 0 0 0 0 0 0 0 0 0 0 0 128 255 255 253 254 254 253 252 254 255 255 255 253 252 252 255 255 62 0 0 0 0 0 0 0 0 0 0 0 0 0 0 0 0 0 0 0 0 0 0 0 0 0 0 0 0 0 0 0 0 0 0 0 0 0 0 0 0 0 0 0 0 0 0 0 0 0 0 0 0 0 0 0 0 0 0 0 0 0 1 0 0 0 0 0 0 0 0 0 0 0 0 0 0 0 0 0 0 0 0 0 0 0 0 0 0 0 0 0 0 0 0 0 0 0 0 0 0 0 0 0 0 0 0 0 0 0 0 0 0 0 0 0 0 0 0 0 0 0 0 0 0 0 0 0 0 0 0 0 0 1 0 1 0 0 0 0 0 0 0 0 0 0 0 0 20 255 253 253 253 255 255 253 253 254 254 254 253 254 253 255 255 171 0 2 0 0 0 0 0 0 0 0 1 0 0 0 0 0 0 0 0 0 0 0 0 0 0 0 0 0 0 0 0 0 0 0 0 0 0 0 0 0 0 0 0 0 0 0 0 0 0 0 0 0 0 0 0 0 0 0 0 0 0 0 0 0 1 0 0 0 0 0 0 0 0 0 0 3 5 248 249 254 255 255 255 255 255 255 255 255 255 255 255 255 255 255 255 255 255 255 255 255 255 255 255 255 255 255 255 255 255 255 255 255 255 255 255 255 255 255 255 255 255 255 255 255 255 255 255 255 255 255 255 255 255 255 255 
255 255 255 255 255 255 255 255 255 255 255 255 255 255 255 255 255 255 255 255 255 255 255 255 255 255 255 255 255 255 255 255 255 255 255 255 255 255 255 255 255 255 255 255 255 255 255 255 255 255 255 255 255 255 255 254 255 251 255 10 1 0 0 1 0 0 0 0 0 0 0 0 0 0 0 0 0 0 0 0 0 0 0 0 0 0 0 0 0 0 1 0 0 0 0 0 0 0 0 0 0 0 0 0 0 0 0 0 0 0 0 0 0 0 0 1 0 0 0 0 0 0 0 0 0 0 0 0 0 0 0 0 0 0 0 0 0 126 255 255 253 254 253 253 252 254 254 255 254 253 252 252 255 255 59 0 0 0 0 0 0 0 0 0 0 0 0 0 0 0 0 0 0 0 0 0 0 0 0 0 0 0 0 0 0 0 1 0 0 0 0 0 0 0 0 0 0 0 0 0 0 0 0 0 0 0 0 0 0 0 1 0 0 0 0 0 0 0 0 0 0 0 0 0 1 0 0 1 0 0 0 0 0 0 0 0 0 0 0 0 0 0 0 0 0 0 0 0 0 0 0 0 0 0 0 0 0 0 0 0 0 0 0 0 0 0 0 0 0 0 0 0 0 0 0 0 1 0 0 0 0 0 0 0 0 0 0 0 0 1 0 1 0 0 0 0 0 0 0 0 0 0 22 255 253 253 253 253 254 255 253 254 253 253 255 254 255 254 255 152 0 1 0 0 0 0 0 0 0 0 0 0 0 0 0 0 0 0 1 0 0 1 0 0 0 0 0 0 1 0 0 0 0 0 0 0 0 0 0 0 0 1 0 0 0 0 0 0 0 0 0 0 0 0 0 0 0 0 0 0 0 0 0 0 0 0 0 0 0 0 0 0 0 0 0 0 0 173 254 255 254 255 255 255 255 255 255 255 255 255 255 255 255 255 255 255 255 255 255 255 255 255 255 255 255 255 255 255 255 255 255 255 255 255 255 255 255 255 255 255 255 255 255 255 255 255 255 255 255 255 255 255 255 255 255 
255 255 255 255 255 255 255 255 255 255 255 255 255 255 255 255 255 255 255 255 255 255 255 255 255 255 255 255 255 255 255 255 255 255 255 255 255 255 255 255 255 255 255 255 255 255 255 255 255 255 255 255 255 255 255 255 255 251 171 0 0 0 0 0 0 0 0 0 0 0 0 0 0 0 0 0 0 0 0 0 0 0 0 0 1 0 0 0 0 0 0 1 0 0 0 0 0 0 0 0 0 0 0 0 0 0 0 0 0 0 0 0 0 0 0 0 0 0 0 0 0 0 0 0 0 0 0 0 0 0 0 0 0 0 0 0 0 71 255 255 252 253 255 254 254 254 255 253 255 253 253 252 254 255 51 0 0 0 0 0 0 0 0 0 0 0 0 0 0 0 0 0 0 0 0 0 0 0 0 0 0 0 0 0 0 0 0 0 0 0 0 0 0 0 0 0 0 0 0 0 0 0 0 0 0 0 0 0 0 0 0 0 0 0 0 0 0 0 0 1 0 0 0 0 0 0 0 0 0 0 0 0 0 0 0 0 0 0 0 0 0 0 0 0 1 0 0 0 0 0 0 0 0 0 0 0 0 0 0 0 0 0 0 0 0 0 0 0 0 0 0 0 0 0 0 0 0 0 1 0 0 0 0 0 0 0 0 0 1 0 0 0 0 0 0 0 0 0 0 0 0 0 22 255 253 255 253 253 254 254 252 253 253 253 255 255 255 254 255 106 1 0 0 0 0 0 0 0 0 0 0 0 0 0 0 0 0 0 0 0 0 0 0 0 0 0 0 0 0 0 0 0 0 0 0 0 0 0 0 0 0 0 0 0 0 0 0 0 0 0 0 0 0 0 0 0 0 0 0 0 0 0 1 0 0 0 0 1 0 0 0 0 0 0 0 0 1 55 255 255 255 255 255 255 255 255 255 255 255 255 255 255 255 255 255 255 255 255 255 255 255 255 255 255 255 255 255 255 255 255 255 255 255 255 255 255 255 255 255 255 255 255 255 255 255 255 255 255 255 255 255 255 255 255 255 
255 255 255 255 255 255 255 255 255 255 255 255 255 255 255 255 255 255 255 255 255 255 255 255 255 255 255 255 255 255 255 255 255 255 255 255 255 255 255 255 255 255 255 255 255 255 255 255 255 255 255 255 255 255 253 254 254 255 38 2 0 0 0 0 0 0 0 0 0 0 0 0 0 0 0 0 0 0 0 0 0 1 0 0 1 0 0 0 0 0 0 0 0 0 0 0 1 0 0 0 0 0 0 0 0 0 0 0 0 0 0 0 0 0 0 0 0 0 0 0 0 0 0 0 0 0 0 0 0 0 0 0 0 0 1 0 0 23 255 254 254 253 255 254 254 255 255 253 255 253 253 254 252 255 47 0 0 0 0 0 0 0 0 0 0 0 0 0 0 0 0 0 0 0 1 0 0 0 0 0 0 0 0 0 0 0 0 0 0 0 0 0 0 0 0 0 0 0 0 0 0 0 0 0 0 0 0 0 0 0 0 0 0 1 0 0 0 0 0 0 0 0 0 0 0 0 0 0 0 0 0 0 0 0 0 0 0 0 0 0 0 0 0 0 0 0 0 0 0 0 0 0 0 0 0 0 0 0 0 0 0 0 0 0 0 0 0 0 0 0 0 0 1 0 0 0 0 0 0 0 0 0 0 0 0 0 0 0 0 0 0 0 0 0 0 0 0 0 0 0 0 1 17 255 253 255 253 253 253 253 253 253 253 255 255 255 255 252 255 55 0 0 0 0 0 0 0 0 0 0 0 0 0 0 0 1 0 0 0 0 0 0 0 0 0 0 0 0 0 0 0 0 0 0 0 1 0 0 0 0 0 0 0 0 0 0 0 0 0 0 0 0 0 0 0 0 0 0 0 0 0 0 0 0 0 0 0 0 0 0 0 0 0 0 0 0 2 0 238 250 255 255 255 255 255 255 255 255 255 255 255 255 255 255 255 255 255 255 255 255 255 255 255 255 255 255 255 255 255 255 255 255 255 255 255 255 255 255 255 255 255 255 255 255 255 255 255 255 255 255 255 255 255 255 255 
255 255 255 255 255 255 255 255 255 255 255 255 255 255 255 255 255 255 255 255 255 255 255 255 255 255 255 255 255 255 255 255 255 255 255 255 255 255 255 255 255 255 255 255 255 255 255 255 255 255 255 255 255 255 251 254 253 213 0 0 0 0 0 0 0 0 0 0 1 0 0 0 0 0 0 0 0 0 0 0 0 0 1 0 0 0 0 1 0 0 0 0 0 0 0 0 0 0 0 0 0 0 0 0 0 0 0 1 0 0 0 0 0 1 0 0 0 0 0 0 0 0 0 0 0 0 0 0 0 0 0 0 0 0 1 0 0 25 255 251 253 254 255 254 254 255 254 254 253 253 254 255 253 248 4 1 0 0 0 0 0 0 0 1 0 0 0 1 0 0 0 0 0 0 0 0 0 0 0 0 0 0 0 0 0 0 0 1 0 0 0 0 0 0 0 0 0 0 0 0 0 0 0 0 0 0 0 0 0 0 0 0 0 0 0 0 1 0 0 0 0 1 0 0 0 0 0 0 0 0 0 0 0 0 0 0 0 0 0 0 0 0 0 0 0 0 0 0 0 0 0 0 0 0 1 0 0 0 1 0 0 0 0 0 0 0 0 0 0 0 0 0 0 0 0 0 0 0 0 0 0 0 0 0 0 0 0 0 0 0 0 0 0 0 0 0 0 0 0 0 0 1 7 251 253 255 254 253 253 253 254 254 255 255 254 254 255 252 255 66 0 0 1 0 0 0 0 0 0 0 0 0 0 0 0 0 0 0 0 0 0 0 0 0 0 0 0 0 0 0 0 0 0 0 0 0 0 0 0 0 0 0 1 0 0 0 0 0 0 0 0 0 0 0 0 0 0 0 0 0 0 0 0 0 0 0 0 0 1 1 0 0 0 0 0 0 0 0 138 254 255 255 255 255 255 255 255 255 255 255 255 255 255 255 255 255 255 255 255 255 255 255 255 255 255 255 255 255 255 255 255 255 255 255 255 255 255 255 255 255 255 255 255 255 255 255 255 255 255 255 255 255 255 255 255 
255 255 255 255 255 255 255 255 255 255 255 255 255 255 255 255 255 255 255 255 255 255 255 255 255 255 255 255 255 255 255 255 255 255 255 255 255 255 255 255 255 255 255 255 255 255 255 255 255 255 255 255 255 255 250 252 255 63 3 1 0 0 0 0 0 0 0 0 0 0 0 0 0 0 0 0 0 0 0 0 0 0 0 0 0 0 0 0 0 0 0 0 0 0 0 0 1 0 0 0 0 0 0 0 0 0 0 0 0 0 0 0 0 0 0 0 1 0 0 0 0 0 0 0 0 0 0 0 0 0 0 0 0 0 1 0 0 20 255 252 254 254 254 255 255 254 254 254 254 254 255 255 254 245 3 1 0 0 0 0 0 0 0 0 0 0 0 0 0 0 0 0 0 0 0 0 0 0 0 0 0 0 0 0 0 0 0 0 0 0 0 1 0 0 0 0 0 0 0 0 0 0 0 0 0 0 0 0 0 0 0 0 0 0 0 0 0 0 0 0 0 0 1 0 0 0 0 0 0 0 0 0 0 0 0 0 0 0 0 0 0 0 0 0 0 0 0 0 0 0 0 0 0 0 0 0 0 0 0 0 0 0 0 0 0 0 0 0 0 0 0 0 0 0 0 0 0 0 0 0 0 0 0 0 0 0 0 0 1 0 0 0 0 0 0 0 0 0 0 0 0 0 5 250 251 255 255 253 253 253 253 254 255 255 254 255 253 252 255 68 0 0 0 1 0 0 0 0 0 0 0 0 0 0 0 0 0 0 0 0 0 0 0 0 0 0 0 0 0 0 0 0 0 0 0 0 0 0 0 0 0 0 0 0 0 0 0 0 0 0 0 0 0 0 0 0 0 0 0 0 0 0 0 0 0 1 0 0 0 0 0 0 0 0 0 0 0 4 22 255 251 255 255 255 255 255 255 255 255 255 255 255 255 255 255 255 255 255 255 255 255 255 255 255 255 255 255 255 255 255 255 255 255 255 255 255 255 255 255 255 255 255 255 255 255 255 255 255 255 255 255 255 255 255 255 
255 255 255 255 255 255 255 255 255 255 255 255 255 255 255 255 255 255 255 255 255 255 255 255 255 255 255 255 255 255 255 255 255 255 255 255 255 255 255 255 255 255 255 255 255 255 255 255 255 255 255 255 255 255 248 248 241 0 5 1 0 0 0 0 0 0 0 0 0 0 0 0 0 0 0 0 0 0 0 0 0 0 0 0 0 0 0 0 0 0 0 0 0 0 0 0 0 0 0 0 0 0 0 0 0 0 0 0 0 0 0 0 0 0 0 1 0 0 0 0 0 0 0 0 1 0 0 0 0 0 0 0 0 0 0 3 1 20 254 252 255 254 255 255 255 254 254 254 253 254 255 255 254 219 0 0 0 1 0 0 0 0 0 0 0 0 0 0 0 0 0 0 0 0 0 0 0 0 0 0 0 0 0 0 0 0 0 0 0 0 0 0 0 0 0 0 0 0 0 0 0 0 0 0 0 0 0 0 0 0 0 0 0 0 0 0 0 0 0 0 0 0 0 0 0 0 0 0 0 0 0 0 0 0 0 0 0 0 0 0 0 0 0 0 0 0 0 0 0 1 0 0 0 0 0 0 0 0 0 0 0 0 0 0 0 0 0 0 0 0 0 0 0 0 0 0 0 0 0 0 0 0 0 0 0 0 0 0 0 0 0 0 0 0 1 0 0 0 0 0 0 0 0 167 254 254 255 254 254 254 254 255 254 255 255 255 253 251 255 70 0 0 0 0 0 0 0 0 0 0 0 0 0 0 0 0 0 0 0 0 0 0 0 0 0 0 0 0 0 0 0 0 0 0 0 0 0 0 0 0 0 0 0 0 1 0 0 0 0 0 0 0 0 0 0 0 0 0 0 0 0 0 0 0 0 0 0 0 0 0 0 0 0 0 0 0 1 3 0 218 247 255 255 255 255 255 255 255 255 255 255 255 255 255 255 255 255 255 255 255 255 255 255 255 255 255 255 255 255 255 255 255 255 255 255 255 255 255 255 255 255 255 255 255 255 255 255 255 255 255 255 255 255 255 255 
255 255 255 255 255 255 255 255 255 255 255 255 255 255 255 255 255 255 255 255 255 255 255 255 255 255 255 255 255 255 255 255 255 255 255 255 255 255 255 255 255 255 255 255 255 255 255 255 255 255 255 255 255 255 251 251 137 0 1 0 0 0 0 0 0 0 0 0 0 0 0 0 0 0 0 0 0 0 0 0 0 0 0 0 0 0 0 0 0 0 0 0 0 0 0 0 0 0 0 0 0 0 0 0 0 0 0 0 0 0 0 0 0 0 0 0 0 0 0 0 0 0 0 0 0 0 0 0 0 0 0 1 0 0 0 2 2 22 255 251 253 255 255 254 254 255 253 253 253 254 255 254 254 213 0 0 0 0 0 0 0 0 0 0 0 0 1 0 0 0 0 0 1 0 0 0 0 0 0 0 0 0 0 0 0 0 0 0 0 0 0 0 0 0 0 0 0 0 0 0 0 0 0 0 0 0 0 0 0 0 0 0 0 0 0 0 0 0 0 1 0 0 0 0 0 0 0 0 0 0 0 0 0 0 0 0 0 0 1 0 0 0 0 0 0 0 0 0 0 0 0 0 0 0 0 0 0 0 0 0 0 0 0 0 0 0 0 0 0 0 1 0 0 0 0 0 0 0 0 0 0 0 0 0 0 0 0 0 0 0 0 0 0 0 0 0 0 0 0 0 1 0 0 154 255 253 254 255 254 253 253 255 254 255 254 253 254 251 255 53 0 1 1 0 0 0 0 0 0 0 0 0 0 0 1 0 0 0 0 0 0 0 0 0 0 0 0 0 0 0 0 0 0 0 0 0 0 0 0 0 0 0 0 0 0 0 0 0 0 0 0 0 0 0 0 0 0 0 0 0 0 0 0 0 0 0 0 0 0 0 0 0 0 0 0 0 0 0 1 104 253 255 255 255 255 255 255 255 255 255 255 255 255 255 255 255 255 255 255 255 255 255 255 255 255 255 255 255 255 255 255 255 255 255 255 255 255 255 255 255 255 255 255 255 255 255 255 255 255 255 255 255 255 255 255 
255 255 255 255 255 255 255 255 255 255 255 255 255 255 255 255 255 255 255 255 255 255 255 255 255 255 255 255 255 255 255 255 255 255 255 255 255 255 255 255 255 255 255 255 255 255 255 255 255 255 255 255 255 255 252 255 17 2 0 0 0 0 0 0 0 0 0 0 0 0 0 0 0 0 0 0 0 0 0 0 0 0 0 0 0 0 0 0 0 0 0 0 0 0 0 0 0 0 0 0 0 0 0 0 0 0 0 0 0 0 0 0 0 0 0 0 0 0 0 1 0 0 0 0 0 0 0 0 0 0 0 0 0 0 0 1 1 88 255 253 254 255 254 255 255 254 254 252 254 253 253 254 255 174 0 0 0 1 0 0 0 0 0 0 0 0 0 0 0 0 0 0 0 0 0 0 0 0 0 0 1 0 0 0 0 0 0 0 0 0 0 0 0 0 0 0 0 0 0 0 0 0 0 0 0 0 0 0 0 0 0 0 0 0 0 0 0 0 0 0 0 0 0 0 0 0 0 0 0 0 0 0 0 0 0 1 0 0 0 0 0 0 0 0 0 0 0 0 0 0 0 0 0 0 0 0 0 0 1 0 0 0 0 0 0 0 0 0 0 0 0 0 0 0 0 0 0 0 0 0 0 0 0 0 0 0 0 0 0 0 0 0 0 0 0 0 0 0 0 0 0 0 0 128 255 252 255 255 255 253 254 255 255 254 253 254 253 251 255 109 1 2 0 0 1 0 0 0 0 0 0 0 0 0 0 0 0 0 0 0 0 0 0 0 0 0 0 0 0 0 0 0 0 0 0 0 0 0 0 0 0 0 0 0 0 0 1 0 0 1 0 0 0 0 0 0 0 0 0 0 0 0 0 0 0 0 0 0 0 0 0 0 0 0 0 0 0 0 1 11 255 255 255 255 255 255 255 255 255 255 255 255 255 255 255 255 255 255 255 255 255 255 255 255 255 255 255 255 255 255 255 255 255 255 255 255 255 255 255 255 255 255 255 255 255 255 255 255 255 255 255 255 255 255 255 
255 255 255 255 255 255 255 255 255 255 255 255 255 255 255 255 255 255 255 255 255 255 255 255 255 255 255 255 255 255 255 255 255 255 255 255 255 255 255 255 255 255 255 255 255 255 255 255 255 255 255 255 255 255 254 187 0 0 0 0 0 0 0 0 1 0 0 0 0 0 0 0 0 0 0 0 0 0 0 0 0 0 0 0 1 0 0 0 0 0 0 0 0 0 0 0 0 0 0 0 0 0 0 0 0 0 0 0 0 0 0 0 0 0 0 0 0 0 0 0 0 0 0 0 0 0 0 0 0 0 0 0 0 0 0 0 0 142 255 253 253 255 255 253 253 254 254 253 254 253 253 254 254 177 0 0 0 0 0 0 0 0 0 0 0 0 0 0 0 0 0 0 0 0 0 0 0 0 0 0 0 0 0 0 0 0 0 0 0 0 0 0 0 0 0 0 0 0 0 0 0 0 0 0 0 0 1 0 0 0 0 0 0 0 0 0 0 0 0 0 0 0 0 0 0 0 0 0 0 0 0 0 0 0 0 0 0 0 0 0 0 0 0 0 0 0 0 0 0 0 0 0 0 0 1 0 0 0 0 0 0 0 0 0 1 0 0 0 0 0 0 0 0 0 0 0 0 0 0 0 0 0 0 0 1 0 0 0 0 0 0 0 0 0 0 0 0 0 0 0 0 0 1 35 255 252 253 254 255 254 255 254 253 254 254 253 253 252 254 184 0 3 0 1 0 0 0 0 0 0 0 0 0 0 0 0 1 0 1 0 0 0 0 0 0 0 0 0 0 0 0 0 0 0 0 0 0 0 0 0 0 0 0 0 0 0 0 0 0 0 0 1 0 0 0 0 0 0 0 0 0 0 0 0 0 0 0 0 0 0 0 0 0 0 0 0 0 0 0 0 218 255 255 255 255 255 255 255 255 255 255 255 255 255 255 255 255 255 255 255 255 255 255 255 255 255 255 255 255 255 255 255 255 255 255 255 255 255 255 255 255 255 255 255 255 255 255 255 255 255 255 255 255 255 255 
255 255 255 255 255 255 255 255 255 255 255 255 255 255 255 255 255 255 255 255 255 255 255 255 255 255 255 255 255 255 255 255 255 255 255 255 255 255 255 255 255 255 255 255 255 255 255 255 255 255 255 255 255 255 255 54 2 0 0 0 0 0 0 0 0 0 0 0 0 0 0 0 0 0 0 0 0 0 0 0 0 0 0 0 0 0 0 0 0 0 0 0 0 0 0 0 0 0 0 0 0 0 0 0 0 0 0 0 0 0 0 0 0 0 0 0 0 0 0 0 0 0 0 0 0 1 0 0 0 0 0 0 0 0 0 0 0 201 254 254 253 255 255 254 253 254 254 253 253 254 254 255 255 73 1 0 1 0 0 0 0 0 0 0 0 0 0 0 0 0 0 0 0 0 0 0 0 0 0 0 0 0 0 0 0 0 0 0 0 0 0 0 0 0 0 0 0 0 0 0 0 0 0 0 0 0 0 0 0 0 0 0 0 0 0 0 0 0 0 0 0 0 0 0 0 0 0 0 0 0 0 0 0 0 0 0 0 0 0 0 0 0 1 0 0 0 0 0 0 0 0 0 0 0 0 0 0 0 0 0 0 0 0 0 0 0 0 0 0 0 0 0 0 0 0 0 0 0 0 0 0 0 0 0 0 0 0 0 0 0 0 0 0 0 0 0 0 0 0 0 0 0 2 35 255 254 252 254 255 255 255 255 253 253 255 253 253 253 253 244 3 4 1 0 0 0 0 0 0 0 0 0 0 0 0 0 0 0 1 0 0 0 0 0 0 0 0 0 0 0 0 0 0 0 0 0 0 0 0 0 0 0 0 0 0 0 0 0 0 0 0 0 0 1 0 0 0 0 0 0 0 0 0 0 0 0 0 0 0 0 0 0 0 0 0 0 0 0 0 0 145 255 255 255 255 255 255 255 255 255 255 255 255 255 255 255 255 255 255 255 255 255 255 255 255 255 255 255 255 255 255 255 255 255 255 255 255 255 255 255 255 255 255 255 255 255 255 255 255 255 255 255 255 255 255 
255 255 255 255 255 255 255 255 255 255 255 255 255 255 255 255 255 255 255 255 255 255 255 255 255 255 255 255 255 255 255 255 255 255 255 255 255 255 255 255 255 255 255 255 255 255 255 255 255 255 255 255 255 255 236 0 1 0 0 0 0 0 0 0 0 0 0 0 0 0 0 0 0 0 0 0 0 0 0 0 0 0 0 1 0 0 0 0 0 0 0 0 0 0 0 0 0 0 0 0 0 1 0 0 0 0 0 0 0 0 0 0 0 1 0 0 0 0 0 0 0 0 1 0 0 0 0 0 0 0 0 0 0 0 0 1 6 244 254 255 254 253 254 253 254 253 254 253 254 254 255 254 255 67 1 0 0 0 0 0 0 0 0 0 0 0 0 0 0 0 0 0 0 0 0 0 0 0 0 0 0 0 0 0 0 0 0 0 0 0 0 0 0 0 0 0 0 0 0 0 0 0 0 0 0 0 0 0 0 0 0 0 0 0 0 0 1 0 0 0 0 0 0 0 0 0 0 0 0 0 0 0 0 0 0 0 0 0 0 0 0 0 0 0 0 0 0 0 0 0 0 0 0 0 0 0 0 0 0 0 0 0 0 0 0 0 0 0 0 0 0 0 0 0 0 0 0 0 0 0 0 0 0 0 0 0 0 0 1 0 0 0 0 0 0 0 0 0 0 0 0 0 2 12 249 255 253 254 255 254 255 253 253 254 254 253 252 254 254 255 35 4 0 0 0 0 0 0 0 0 0 1 0 0 0 0 0 0 1 0 0 0 0 0 0 0 0 0 0 0 0 0 0 0 0 0 0 0 0 0 0 0 0 0 0 0 0 0 0 0 0 0 0 0 0 0 0 0 0 0 0 0 0 0 0 0 0 0 0 0 0 0 0 0 0 0 0 0 0 4 56 255 255 255 255 255 255 255 255 255 255 255 255 255 255 255 255 255 255 255 255 255 255 255 255 255 255 255 255 255 255 255 255 255 255 255 255 255 255 255 255 255 255 255 255 255 255 255 255 255 255 255 255 255 255 
255 255 255 255 255 255 255 255 255 255 255 255 255 255 255 255 255 255 255 255 255 255 255 255 255 255 255 255 255 255 255 255 255 255 255 255 255 255 255 255 255 255 255 255 255 255 255 255 255 255 255 255 255 255 130 0 0 0 0 0 0 0 0 0 0 0 0 0 0 0 0 0 0 0 0 0 0 0 0 0 0 0 0 1 1 0 0 0 0 0 0 0 0 0 0 0 0 0 0 0 0 1 0 0 0 0 0 0 0 0 0 0 0 0 1 0 0 0 0 0 0 0 0 0 0 0 0 0 0 0 0 0 0 0 0 1 39 255 254 255 255 254 253 254 253 253 253 254 254 254 254 253 250 1 1 0 0 0 0 0 0 0 0 0 0 0 0 0 0 0 0 0 0 0 0 0 0 0 0 0 0 0 0 0 0 0 0 0 0 0 0 0 0 0 0 0 0 0 0 0 0 0 0 0 0 0 0 0 0 0 0 0 0 0 0 0 0 0 0 0 0 0 0 0 0 0 0 0 0 0 0 0 0 0 0 0 0 0 0 0 0 0 0 0 0 0 0 0 0 0 0 0 0 0 0 0 0 0 0 0 0 0 0 0 0 0 0 0 0 0 0 0 0 0 0 0 0 0 0 0 0 0 0 0 0 0 0 0 0 0 0 0 0 0 0 0 0 0 0 0 0 0 2 0 225 255 253 253 255 255 255 253 254 252 254 253 252 254 255 255 128 0 0 0 0 0 0 0 0 0 0 0 0 0 0 0 0 0 1 0 0 0 0 0 0 0 1 0 0 0 0 0 0 0 0 0 0 0 0 1 0 0 1 0 0 1 0 0 0 1 0 0 0 0 0 0 0 0 0 0 0 0 0 0 0 0 0 0 0 0 0 0 0 0 0 0 0 0 0 3 0 255 255 255 255 255 255 255 255 255 255 255 255 255 255 255 255 255 255 255 255 255 255 255 255 255 255 255 255 255 255 255 255 255 255 255 255 255 255 255 255 255 255 255 255 255 255 255 255 255 255 255 255 255 255 
255 255 255 255 255 255 255 255 255 255 255 255 255 255 255 255 255 255 255 255 255 255 255 255 255 255 255 255 255 255 255 255 255 255 255 255 255 255 255 255 255 255 255 255 255 255 255 255 255 255 255 255 255 255 18 3 0 0 0 0 0 0 0 0 0 0 0 0 0 0 0 0 0 0 0 0 0 0 0 0 0 0 0 0 0 0 0 0 0 0 0 0 0 0 0 0 0 0 0 0 0 0 0 0 0 0 0 0 0 1 0 0 0 0 1 0 0 1 0 0 0 0 0 0 0 1 0 0 0 0 0 0 0 0 0 0 135 255 255 255 254 253 253 253 254 253 253 253 254 255 255 252 251 3 0 0 0 0 0 0 0 0 0 0 0 0 0 0 0 0 0 0 0 0 0 0 0 0 0 0 0 0 0 0 0 0 1 0 0 0 0 0 0 0 0 0 0 0 0 0 0 0 0 0 0 0 0 0 0 0 0 0 0 0 1 0 0 0 0 0 0 0 0 0 0 0 0 0 0 0 0 0 0 0 0 0 0 0 0 0 0 0 0 0 0 0 0 0 0 0 0 0 0 0 0 0 0 0 0 0 0 0 0 0 0 0 0 0 0 0 0 0 0 0 0 0 0 0 1 0 0 0 0 0 0 0 0 0 0 0 0 0 0 0 1 0 0 0 0 0 0 0 1 0 211 254 255 254 254 254 255 253 254 253 253 254 253 255 255 254 207 0 0 0 0 0 0 0 1 0 0 0 0 1 0 0 1 0 0 0 0 0 0 0 0 0 0 0 0 0 0 0 0 0 0 0 0 1 0 0 0 0 0 0 0 0 0 0 0 0 0 0 0 0 0 0 0 0 0 0 0 0 0 0 0 0 1 0 0 1 0 0 0 0 0 0 0 0 0 1 3 255 255 255 255 255 255 255 255 255 255 255 255 255 255 255 255 255 255 255 255 255 255 255 255 255 255 255 255 255 255 255 255 255 255 255 255 255 255 255 255 255 255 255 255 255 255 255 255 255 255 255 255 255 255 
255 255 255 255 255 255 255 255 255 255 255 255 255 255 255 255 255 255 255 255 255 255 255 255 255 255 255 255 255 255 255 255 255 255 255 255 255 255 255 255 255 255 255 255 255 255 255 255 255 255 255 255 255 255 0 0 0 1 0 0 0 0 0 0 0 0 0 0 0 0 0 0 0 1 0 0 0 0 0 0 0 0 0 0 0 0 0 0 0 0 0 0 0 0 0 1 0 0 0 0 0 0 0 0 0 0 0 1 0 0 0 0 0 0 1 0 0 0 0 0 0 0 0 0 0 0 0 0 1 0 0 0 0 0 2 0 232 251 255 254 255 253 253 253 254 254 254 254 255 254 255 255 201 0 0 0 0 0 0 0 0 0 0 0 0 0 0 0 0 0 0 0 0 0 0 0 0 0 0 0 0 0 0 0 0 0 0 0 0 0 0 0 1 0 0 0 0 0 0 0 0 1 0 0 0 0 0 0 0 0 0 0 0 0 0 0 0 0 0 0 0 0 0 0 0 0 0 0 0 0 0 0 0 0 0 0 0 0 0 0 0 0 0 0 0 0 0 0 0 0 0 0 0 0 0 0 0 0 0 0 0 0 0 0 0 0 0 0 0 0 0 0 0 0 0 0 0 0 0 0 0 0 0 0 0 0 0 0 0 1 0 0 0 0 0 0 0 0 0 0 0 0 0 1 119 255 255 255 254 254 254 253 253 253 254 253 254 255 254 254 254 13 1 0 0 0 0 0 0 0 0 0 0 0 0 0 0 0 0 0 0 0 0 0 0 0 0 0 0 0 0 0 0 0 0 0 0 0 0 0 1 0 0 0 1 0 0 0 0 0 0 0 0 0 0 0 0 1 0 0 0 0 0 0 0 0 1 0 0 0 0 0 0 0 0 0 0 0 0 1 1 255 255 255 255 255 255 255 255 255 255 255 255 255 255 255 255 255 255 255 255 255 255 255 255 255 255 255 255 255 255 255 255 255 255 255 255 255 255 255 255 255 255 255 255 255 255 255 255 255 255 255 255 255 255 
255 255 255 255 255 255 255 255 255 255 255 255 255 255 255 255 255 255 255 255 255 255 255 255 255 255 255 255 255 255 255 255 255 255 255 255 255 255 255 255 255 255 255 255 255 255 255 255 255 255 255 255 255 255 3 0 0 0 0 0 0 0 0 0 0 1 0 0 0 0 0 1 0 0 0 0 0 0 0 0 0 0 0 0 0 0 0 0 0 1 0 0 0 0 0 0 0 0 0 0 0 1 0 0 0 0 0 0 0 0 0 0 0 0 0 0 0 0 1 0 0 0 0 0 0 0 0 0 0 0 0 0 0 0 1 40 255 254 254 255 255 254 252 253 254 253 254 253 255 255 254 255 145 0 0 0 0 0 0 0 0 1 0 0 0 0 0 0 0 0 0 0 0 0 0 0 0 0 0 0 0 0 0 1 0 0 0 0 0 0 0 0 0 0 0 0 0 0 0 0 0 0 0 0 0 0 0 0 0 0 0 0 0 0 1 0 0 0 1 0 0 0 0 0 0 0 0 0 0 0 0 0 0 0 0 0 0 0 0 0 0 0 0 0 0 0 0 0 0 0 0 0 0 0 0 0 0 0 0 0 0 0 0 0 0 0 0 0 0 0 0 0 0 0 0 0 0 0 0 0 0 0 0 0 1 0 0 0 0 1 0 0 0 0 0 0 0 0 0 0 0 0 0 0 115 255 255 254 254 253 253 254 253 254 253 253 255 253 255 254 255 109 0 0 0 1 0 0 0 0 0 0 0 0 0 0 0 0 0 0 0 0 0 0 0 0 0 0 0 0 0 0 0 0 0 0 0 0 0 0 0 1 0 0 1 0 0 1 0 0 0 0 0 0 0 0 0 0 0 0 0 0 0 0 0 0 0 0 0 0 0 0 0 0 0 0 0 0 0 0 0 255 255 255 255 255 255 255 255 255 255 255 255 255 255 255 255 255 255 255 255 255 255 255 255 255 255 255 255 255 255 255 255 255 255 255 255 255 255 255 255 255 255 255 255 255 255 255 255 255 255 255 255 255 255 
255 255 255 255 255 255 255 255 255 255 255 255 255 255 255 255 255 255 255 255 255 255 255 255 255 255 255 255 255 255 255 255 255 255 255 255 255 255 255 255 255 255 255 255 255 255 255 255 255 255 255 255 255 255 1 3 0 0 0 1 0 0 0 0 0 0 0 0 0 0 0 0 0 0 0 0 0 0 0 0 0 1 0 0 0 0 0 0 0 0 0 0 0 0 0 0 0 0 0 0 0 0 0 0 0 0 0 0 0 0 0 0 0 0 0 0 0 0 0 0 0 0 0 1 0 0 0 0 0 0 0 0 0 0 0 174 253 255 254 253 254 254 254 253 254 254 254 254 254 255 253 255 125 0 0 0 0 0 0 0 0 0 0 0 0 0 1 0 0 0 0 0 0 0 0 0 0 0 0 0 0 0 0 0 0 0 0 0 0 0 0 0 0 0 0 0 0 0 0 0 0 0 0 0 0 0 0 0 0 0 0 0 0 1 0 0 0 0 0 0 0 0 0 0 0 0 0 0 0 0 0 0 0 0 0 0 0 0 0 0 0 0 0 0 0 0 0 0 0 0 0 0 0 0 0 0 0 0 0 0 0 0 0 0 0 0 0 0 0 0 0 0 0 1 0 0 0 0 0 0 0 0 0 0 0 0 0 0 0 0 0 0 1 0 0 0 0 0 0 0 0 0 0 1 25 255 254 255 254 253 253 253 253 254 254 254 254 254 255 253 251 231 0 2 0 0 0 1 0 0 0 0 0 0 0 0 0 0 0 0 0 0 0 0 0 0 0 0 0 0 0 1 0 0 0 0 0 0 0 0 0 1 0 0 0 0 0 0 0 0 0 0 0 0 0 0 0 0 0 0 0 0 0 0 0 0 0 0 0 0 0 0 0 0 0 1 0 0 0 0 1 255 255 255 255 255 255 255 255 255 255 255 255 255 255 255 255 255 255 255 255 255 255 255 255 255 255 255 255 255 255 255 255 255 255 255 255 255 255 255 255 255 255 255 255 255 255 255 255 255 255 255 255 255 255 
255 255 255 255 255 255 255 255 255 255 255 255 255 255 255 255 255 255 255 255 255 255 255 255 255 255 255 255 255 255 255 255 255 255 255 255 255 255 255 255 255 255 255 255 255 255 255 255 255 255 255 255 255 255 102 1 0 0 0 0 0 0 0 0 0 0 0 0 0 0 0 0 1 0 0 0 0 0 0 0 0 0 0 0 0 0 0 0 0 0 0 0 0 0 0 0 0 0 0 0 0 0 0 0 1 0 0 0 0 0 0 0 0 0 1 0 0 0 0 1 0 0 0 0 0 0 0 0 0 0 0 0 0 1 2 247 253 254 255 253 253 254 253 254 254 254 255 255 254 253 255 255 37 1 1 0 0 0 0 0 0 0 0 0 0 0 0 0 0 0 0 0 0 0 0 0 0 0 0 0 0 0 0 0 0 0 0 0 0 0 0 0 0 0 0 0 0 0 0 0 0 0 0 0 0 0 0 0 0 0 0 0 0 0 0 0 0 0 0 0 0 0 0 0 0 0 0 0 0 0 0 0 0 0 0 0 0 0 0 0 0 0 0 0 0 0 0 0 0 0 0 0 0 0 0 0 0 0 0 0 0 0 0 0 0 0 0 0 0 0 0 0 0 0 0 0 0 0 0 0 0 0 0 0 0 0 0 0 0 0 1 0 0 0 0 0 0 0 0 0 0 0 0 1 22 255 252 254 254 254 254 253 254 255 254 254 255 255 253 253 251 255 39 0 0 0 0 0 0 0 0 0 0 0 0 0 0 0 0 0 0 0 0 0 0 0 0 0 0 0 0 0 0 0 0 0 0 0 0 0 0 0 0 0 0 0 0 0 0 0 1 0 0 0 0 0 0 0 0 0 0 0 0 0 0 0 0 0 0 0 0 0 0 0 0 0 0 0 0 0 0 255 255 255 255 255 255 255 255 255 255 255 255 255 255 255 255 255 255 255 255 255 255 255 255 255 255 255 255 255 255 255 255 255 255 255 255 255 255 255 255 255 255 255 255 255 255 255 255 255 255 255 255 255 255 
255 255 255 255 255 255 255 255 255 255 255 255 255 255 255 255 255 255 255 255 255 255 255 255 255 255 255 255 255 255 255 255 255 255 255 255 255 255 255 255 255 255 255 255 255 255 255 255 255 255 255 255 255 255 236 0 1 0 0 0 0 0 0 0 0 0 0 0 0 0 0 0 0 0 0 0 0 0 0 1 0 0 0 0 0 0 0 0 0 0 0 0 0 0 0 0 0 0 0 0 0 0 1 0 0 0 0 0 0 0 0 0 0 0 0 0 0 0 0 0 0 0 0 0 0 0 0 0 0 0 0 0 0 1 82 255 252 255 254 254 254 253 254 255 254 254 254 254 255 253 254 255 36 0 0 0 0 0 0 0 0 0 0 0 0 0 0 0 0 0 0 0 0 0 0 0 0 0 0 0 0 0 0 0 0 0 0 0 0 0 0 0 0 0 0 0 0 0 0 0 0 0 0 0 0 0 0 0 0 0 0 0 0 0 0 0 0 1 0 0 0 0 0 0 0 0 0 0 0 0 0 0 0 0 0 0 0 0 0 0 0 0 0 0 0 0 0 0 0 0 0 0 0 0 0 0 0 0 0 0 0 0 0 0 0 0 0 0 1 0 0 0 0 0 0 0 0 0 0 0 0 0 0 0 0 0 0 0 0 0 0 0 0 0 0 0 0 0 0 0 0 0 0 1 0 235 252 254 253 253 253 254 254 255 254 254 255 255 253 254 252 254 161 0 1 0 0 0 0 0 0 0 0 0 0 0 0 0 0 0 0 0 0 0 0 0 0 0 0 0 0 0 0 0 0 0 0 0 0 0 0 0 0 0 0 0 0 0 0 0 0 0 0 0 1 0 0 0 0 0 0 0 0 0 0 0 0 1 0 0 0 0 0 0 0 0 0 0 0 2 51 255 255 255 255 255 255 255 255 255 255 255 255 255 255 255 255 255 255 255 255 255 255 255 255 255 255 255 255 255 255 255 255 255 255 255 255 255 255 255 255 255 255 255 255 255 255 255 255 255 255 255 255 255 255 
255 255 255 255 255 255 255 255 255 255 255 255 255 255 255 255 255 255 255 255 255 255 255 255 255 255 255 255 255 255 255 255 255 255 255 255 255 255 255 255 255 255 255 255 255 255 255 255 255 255 255 255 255 255 255 65 1 0 0 0 0 1 1 0 1 0 0 1 0 0 0 0 0 0 0 0 0 0 0 0 0 0 0 0 0 0 0 0 0 0 0 0 0 0 0 0 0 0 0 0 0 0 0 0 0 0 0 0 0 0 0 0 0 0 0 1 0 0 0 0 0 0 0 0 0 0 0 0 0 0 0 0 0 0 209 252 253 255 254 253 255 254 255 254 255 254 254 253 254 252 254 240 0 1 0 0 0 0 0 0 0 0 0 0 0 0 0 0 0 0 0 0 0 0 0 0 0 0 0 0 0 0 0 0 0 0 0 0 0 0 0 0 0 0 0 0 0 0 0 0 1 0 0 0 0 0 0 0 0 0 0 0 0 0 0 0 0 0 0 0 0 1 0 0 0 0 0 0 0 0 0 0 0 0 0 0 0 0 0 0 0 0 0 0 0 0 0 0 0 0 0 0 0 0 0 0 1 0 0 0 0 0 0 0 1 0 0 0 0 0 0 0 0 0 0 0 0 0 0 0 0 0 0 0 0 0 0 0 0 0 0 0 0 0 0 0 0 0 0 0 0 0 0 0 0 218 253 253 253 253 254 253 254 255 254 254 254 254 254 254 252 250 250 7 3 0 0 1 0 0 0 0 0 0 0 0 0 0 0 0 0 0 0 0 0 0 0 0 0 0 1 0 0 0 0 0 0 0 0 1 0 0 0 0 0 0 0 0 0 0 0 0 0 0 0 0 0 0 1 0 0 0 0 0 0 0 0 0 0 0 0 0 0 0 0 0 0 0 0 0 193 255 255 255 255 255 255 255 255 255 255 255 255 255 255 255 255 255 255 255 255 255 255 255 255 255 255 255 255 255 255 255 255 255 255 255 255 255 255 255 255 255 255 255 255 255 255 255 255 255 255 255 255 255 255 
255 255 255 255 255 255 255 255 255 255 255 255 255 255 255 255 255 255 255 255 255 255 255 255 255 255 255 255 255 255 255 255 255 255 255 255 255 255 255 255 255 255 255 255 255 255 255 255 255 255 255 255 255 255 251 237 0 2 0 0 0 0 0 0 0 0 0 0 0 0 0 0 0 0 0 0 0 0 0 0 1 0 0 0 1 0 0 0 0 0 0 0 0 0 0 0 0 0 0 0 0 0 0 0 0 0 0 1 0 0 0 0 0 0 0 1 0 0 0 0 0 1 0 0 0 0 0 0 0 0 0 0 2 31 255 252 253 252 255 254 254 253 253 253 255 254 254 255 253 254 254 224 0 0 0 0 0 0 0 0 0 0 0 0 0 0 0 0 0 0 0 0 0 0 0 0 0 0 0 0 0 0 0 0 0 0 0 0 0 0 0 0 0 0 0 0 0 0 0 0 0 0 0 0 0 0 0 0 0 1 0 0 0 0 0 0 0 0 0 0 0 0 0 0 0 0 0 0 0 1 0 0 0 0 0 0 0 0 0 0 0 1 0 0 0 0 0 0 1 0 0 0 0 0 0 0 0 0 0 0 0 0 0 0 0 0 0 0 0 0 0 0 0 0 0 0 0 0 0 0 0 0 0 0 0 0 0 0 0 0 0 0 0 0 0 0 0 0 0 0 0 0 0 0 0 167 255 254 254 253 254 253 254 254 255 253 255 253 254 253 252 253 255 98 0 1 0 0 0 0 0 0 0 0 0 0 0 0 0 0 0 0 0 0 0 0 0 0 0 0 0 0 0 0 0 0 0 0 0 0 0 0 0 0 1 0 0 0 0 0 0 0 0 0 0 0 0 0 0 0 0 0 1 0 0 0 0 0 0 0 0 0 0 0 0 0 0 0 2 16 255 255 255 255 255 255 255 255 255 255 255 255 255 255 255 255 255 255 255 255 255 255 255 255 255 255 255 255 255 255 255 255 255 255 255 255 255 255 255 255 255 255 255 255 255 255 255 255 255 255 255 255 255 255 255 
255 255 255 255 255 255 255 255 255 255 255 255 255 255 255 255 255 255 255 255 255 255 255 255 255 255 255 255 255 255 255 255 255 255 255 255 255 255 255 255 255 255 255 255 255 255 255 255 255 255 255 255 255 255 249 255 96 0 0 1 0 0 0 0 1 0 0 1 0 0 0 0 0 0 0 0 0 0 0 0 0 0 0 0 0 0 0 0 0 0 0 0 0 0 0 0 0 0 0 0 1 0 1 0 0 0 0 0 0 0 0 0 0 0 1 0 0 0 0 0 0 0 0 0 0 0 0 0 0 0 0 0 0 177 253 255 253 252 253 253 255 253 255 255 255 254 253 255 255 255 255 141 0 0 0 0 0 0 0 1 0 1 0 0 0 0 0 0 0 0 0 0 0 0 0 0 0 1 0 0 0 0 0 0 0 0 1 0 0 0 0 0 0 0 0 0 0 0 0 0 0 0 0 0 0 0 0 0 0 0 0 0 0 1 0 0 0 1 0 0 0 0 0 0 0 0 1 0 0 0 0 0 0 0 0 0 0 0 0 0 0 0 0 0 0 0 0 0 0 0 0 0 0 0 0 0 0 0 0 0 1 0 0 0 0 0 1 1 0 0 0 0 0 0 0 0 0 0 0 0 0 0 0 0 0 0 0 0 0 0 0 0 0 0 0 0 0 0 0 0 0 0 0 0 1 106 255 254 255 255 254 254 254 254 255 254 253 254 254 253 253 255 252 235 0 1 0 0 0 0 0 0 0 0 0 0 0 0 0 0 0 0 0 0 0 0 0 0 0 0 0 0 0 0 0 0 1 1 0 0 0 0 0 0 0 1 0 1 0 0 0 0 0 0 0 0 0 0 0 0 0 0 0 0 0 0 0 0 0 0 0 0 0 0 0 0 0 0 0 155 253 255 255 255 255 255 255 255 255 255 255 255 255 255 255 255 255 255 255 255 255 255 255 255 255 255 255 255 255 255 255 255 255 255 255 255 255 255 255 255 255 255 255 255 255 255 255 255 255 255 255 255 255 255 255 
255 255 255 255 255 255 255 255 255 255 255 255 255 255 255 255 255 255 255 255 255 255 255 255 255 255 255 255 255 255 255 255 255 255 255 255 255 255 255 255 255 255 255 255 255 255 255 255 255 255 255 255 255 255 249 249 246 3 4 0 0 0 0 0 0 0 0 0 0 0 0 0 0 0 0 0 0 0 0 0 0 0 0 1 0 0 0 0 0 0 0 0 0 0 0 0 1 0 0 0 0 0 0 0 0 0 0 0 0 0 0 0 0 0 0 0 0 0 0 0 0 0 0 0 0 0 0 0 0 0 0 4 20 255 253 255 254 254 253 254 253 254 254 254 255 253 253 254 253 254 255 97 0 0 0 0 0 0 0 0 0 0 0 0 0 0 0 0 0 0 0 0 0 0 0 0 0 0 0 0 0 0 0 0 0 0 0 0 0 0 0 0 0 0 0 0 0 0 0 0 0 0 0 0 0 0 0 0 0 0 0 0 0 0 0 0 0 0 0 0 0 0 0 0 0 1 0 0 0 0 0 0 0 0 0 0 0 0 0 0 0 0 0 0 0 0 1 0 0 1 0 0 0 0 0 0 0 0 0 1 0 0 0 0 0 0 0 0 0 0 0 0 0 0 0 0 0 0 0 0 0 0 0 0 0 0 0 0 0 0 0 0 1 0 0 0 0 0 0 0 0 0 0 0 0 71 255 255 255 253 254 254 254 254 254 255 253 255 253 254 253 254 254 255 63 0 0 0 0 0 0 0 0 0 0 0 0 0 0 0 0 0 0 0 0 0 0 0 0 0 0 0 0 0 0 0 0 0 0 0 0 0 0 0 1 0 0 0 0 0 1 0 0 0 0 0 0 0 0 0 0 0 0 0 0 0 1 0 0 0 0 0 0 0 0 0 0 2 18 255 251 255 255 255 255 255 255 255 255 255 255 255 255 255 255 255 255 255 255 255 255 255 255 255 255 255 255 255 255 255 255 255 255 255 255 255 255 255 255 255 255 255 255 255 255 255 255 255 255 255 255 255 255 255 255 
255 255 255 255 255 255 255 255 255 255 255 255 255 255 255 255 255 255 255 255 255 255 255 255 255 255 255 255 255 255 255 255 255 255 255 255 255 255 255 255 255 255 255 255 255 255 255 255 255 255 255 255 255 255 251 254 254 124 1 1 0 0 0 0 0 0 0 0 0 0 0 0 0 0 0 0 0 0 0 0 0 0 0 0 0 0 0 0 0 0 0 0 0 0 0 0 0 0 0 1 0 0 0 0 0 0 0 0 0 0 0 0 0 0 0 0 0 0 0 0 0 0 0 0 0 0 0 0 0 0 0 0 149 255 254 255 255 253 253 254 253 253 253 255 253 254 254 253 254 253 255 45 2 0 0 0 0 0 0 0 0 0 0 0 0 0 0 0 0 0 0 0 0 0 0 0 0 0 0 0 0 0 0 0 0 0 0 1 0 1 0 1 0 0 0 0 0 0 0 0 0 0 0 0 0 0 0 0 0 0 0 0 0 0 0 0 0 0 0 0 0 0 0 0 0 0 0 0 0 0 0 0 0 0 0 0 0 0 0 0 0 0 0 0 0 1 0 0 0 0 0 0 0 0 0 0 0 0 1 0 0 0 0 0 0 0 0 0 0 0 0 0 0 1 0 0 0 0 0 0 0 0 0 0 0 0 1 0 0 0 0 0 0 0 0 0 0 0 0 0 0 0 0 0 1 16 255 254 255 253 254 255 254 255 254 254 255 253 254 253 254 254 255 254 208 0 1 0 0 0 1 0 0 0 1 0 0 1 0 0 0 0 1 0 0 0 0 0 0 0 0 0 0 0 0 0 0 0 0 0 0 0 0 0 1 0 0 0 0 0 1 0 0 0 0 0 0 0 0 0 0 0 0 0 0 0 0 0 0 0 0 0 0 0 0 0 0 0 165 254 252 255 255 255 255 255 255 255 255 255 255 255 255 255 255 255 255 255 255 255 255 255 255 255 255 255 255 255 255 255 255 255 255 255 255 255 255 255 255 255 255 255 255 255 255 255 255 255 255 255 255 255 255 255 255 
255 255 255 255 255 255 255 255 255 255 255 255 255 255 255 255 255 255 255 255 255 255 255 255 255 255 255 255 255 255 255 255 255 255 255 255 255 255 255 255 255 255 255 255 255 255 255 255 255 255 255 255 255 255 253 253 249 250 7 5 0 0 0 0 0 0 1 0 0 0 0 0 0 0 0 0 0 0 0 1 1 0 0 0 0 0 0 0 0 0 0 0 0 0 0 0 0 0 0 0 0 0 0 0 0 0 0 0 0 0 0 0 0 1 0 0 0 0 0 0 0 0 0 0 0 0 0 0 0 0 3 1 249 251 255 255 254 254 253 254 253 253 254 254 254 254 254 253 254 253 255 30 0 0 0 0 0 0 0 0 0 0 0 0 0 0 0 0 0 0 0 0 0 0 0 0 0 0 0 1 0 0 0 0 0 0 0 0 0 0 0 0 0 0 0 0 0 0 0 0 0 0 0 0 0 0 0 0 0 0 0 0 0 0 1 0 1 0 0 0 0 0 0 0 0 0 0 0 0 0 0 1 0 0 0 0 0 0 0 0 0 0 0 0 0 0 0 0 0 0 0 0 0 0 0 0 0 0 0 0 0 0 0 1 0 0 0 0 0 0 0 0 0 0 0 0 0 0 0 0 0 0 0 0 0 0 0 0 0 0 0 0 0 0 0 0 0 0 0 0 0 0 0 0 0 15 251 254 255 255 255 254 254 255 254 253 253 253 253 253 255 253 253 252 255 38 2 0 0 0 0 1 0 0 0 1 0 0 0 0 0 0 0 0 0 0 0 0 0 0 0 0 0 1 0 0 1 0 0 0 0 0 0 0 0 0 0 0 0 0 0 0 0 0 0 0 0 1 0 0 0 0 0 1 0 0 0 0 0 0 0 0 0 0 0 0 3 12 255 251 253 255 255 255 255 255 255 255 255 255 255 255 255 255 255 255 255 255 255 255 255 255 255 255 255 255 255 255 255 255 255 255 255 255 255 255 255 255 255 255 255 255 255 255 255 255 255 255 255 255 255 255 255 255 255 
255 255 255 255 255 255 255 255 255 255 255 255 255 255 255 255 255 255 255 255 255 255 255 255 255 255 255 255 255 255 255 255 255 255 255 255 255 255 255 255 255 255 255 255 255 255 255 255 255 255 255 255 255 255 254 254 255 254 142 0 1 0 0 0 0 0 0 0 1 0 0 0 0 0 0 0 0 0 0 0 1 0 0 0 0 0 0 0 0 0 0 0 0 1 0 0 0 0 1 0 0 0 0 0 0 0 0 0 0 0 0 0 0 0 1 0 0 0 0 0 0 0 0 0 0 0 0 0 0 0 0 105 255 254 254 254 254 254 253 253 253 253 255 254 255 253 254 253 254 252 234 0 1 0 0 0 0 0 0 0 0 0 0 0 0 0 0 0 0 0 0 0 0 0 0 0 0 0 0 0 0 0 0 0 0 1 0 0 0 0 0 0 0 0 0 0 0 0 0 0 0 0 0 0 0 0 0 1 0 0 0 0 0 0 0 1 0 0 0 0 0 0 0 0 1 0 0 0 0 0 0 0 0 0 0 0 0 0 0 0 0 0 0 0 0 0 0 0 0 0 0 0 0 0 0 0 0 0 0 0 0 0 0 0 0 0 0 0 0 0 0 0 0 0 0 0 0 0 0 0 0 0 0 0 0 0 0 0 0 0 0 0 0 0 0 0 0 0 0 0 0 0 0 0 0 0 198 254 255 254 254 254 253 253 254 253 253 253 253 254 254 253 253 253 253 189 0 0 0 0 0 0 0 1 0 0 0 0 0 0 0 0 0 0 0 0 0 0 0 0 0 0 0 0 0 0 0 0 0 0 0 0 0 0 0 1 0 0 0 0 0 0 0 0 0 0 0 0 1 0 0 0 0 0 0 0 0 0 0 0 0 1 0 0 0 0 0 147 253 255 254 255 255 255 255 255 255 255 255 255 255 255 255 255 255 255 255 255 255 255 255 255 255 255 255 255 255 255 255 255 255 255 255 255 255 255 255 255 255 255 255 255 255 255 255 255 255 255 255 255 255 255 255 255 255 
255 255 255 255 255 255 255 255 255 255 255 255 255 255 255 255 255 255 255 255 255 255 255 255 255 255 255 255 255 255 255 255 255 255 255 255 255 255 255 255 255 255 255 255 255 255 255 255 255 255 255 255 255 255 255 253 255 252 252 10 3 0 0 0 0 0 0 0 0 0 0 0 0 0 0 0 0 0 0 0 0 0 0 0 1 0 0 0 0 0 0 0 0 0 0 0 0 0 0 0 1 0 0 0 0 0 0 0 0 0 0 0 0 0 0 1 0 0 0 0 0 0 0 0 0 0 0 0 0 0 0 243 252 254 255 253 255 253 254 255 253 253 253 254 253 254 254 254 253 254 216 0 0 0 0 0 0 1 0 0 0 0 0 0 0 0 0 0 0 0 0 0 0 0 0 0 0 0 0 0 0 0 0 0 0 0 0 0 0 0 0 0 0 0 0 0 0 0 0 0 0 1 0 1 0 0 0 0 0 0 0 0 0 0 0 0 0 0 0 0 1 0 0 0 0 0 0 0 0 0 0 0 0 0 0 0 0 0 0 0 1 0 0 1 0 0 0 0 0 0 0 1 0 0 0 1 0 0 1 0 0 0 0 0 0 0 0 0 0 0 0 0 0 0 0 0 0 0 0 0 0 0 0 0 0 0 0 0 0 0 0 0 0 0 0 0 0 0 0 0 1 0 0 0 0 0 200 254 254 254 254 255 253 253 254 254 253 254 254 253 254 254 255 253 249 255 38 2 0 0 0 0 0 0 0 0 0 0 0 0 1 0 0 0 0 0 0 0 0 0 0 0 0 0 0 0 0 0 0 0 0 0 0 0 0 0 0 0 0 0 0 0 0 0 0 0 0 0 0 0 0 0 0 1 0 0 0 0 1 0 0 0 0 0 0 2 10 255 252 253 255 255 255 255 255 255 255 255 255 255 255 255 255 255 255 255 255 255 255 255 255 255 255 255 255 255 255 255 255 255 255 255 255 255 255 255 255 255 255 255 255 255 255 255 255 255 255 255 255 255 255 255 255 255 255 
255 255 255 255 255 255 255 255 255 255 255 255 255 255 255 255 255 255 255 255 255 255 255 255 255 255 255 255 255 255 255 255 255 255 255 255 255 255 255 255 255 255 255 255 255 255 255 255 255 255 255 255 255 255 254 253 253 255 254 174 0 1 0 0 0 0 0 0 0 0 0 0 0 0 0 0 0 0 0 0 0 0 0 0 0 0 0 0 0 0 0 1 0 0 1 0 0 0 0 0 1 1 0 0 0 0 0 0 0 0 0 0 0 0 0 0 0 0 0 0 1 0 0 0 0 0 1 0 0 0 119 255 253 253 253 252 254 255 254 255 254 254 253 254 254 253 254 253 253 255 129 1 0 0 0 0 0 0 0 0 0 0 0 0 0 0 0 0 0 0 0 0 0 0 0 0 0 0 0 0 0 0 0 0 0 0 0 0 0 0 0 0 0 0 1 0 0 0 0 0 1 0 0 0 0 0 0 0 0 0 0 0 0 1 0 0 0 0 0 0 0 0 0 0 0 0 0 0 0 0 0 0 0 0 0 0 0 0 0 0 0 0 0 0 0 0 0 0 1 0 0 0 0 0 0 0 0 0 0 0 0 0 0 0 0 0 0 0 0 0 0 0 0 0 0 0 0 0 0 0 0 0 0 0 0 0 0 0 0 0 0 0 0 0 0 0 0 0 0 0 0 0 0 0 0 1 87 255 255 253 255 254 254 252 255 253 253 253 255 253 254 254 254 254 254 254 215 0 3 0 0 0 0 0 0 0 0 0 0 0 0 0 0 0 0 0 0 0 0 0 0 0 0 0 0 0 0 0 0 0 0 0 0 0 0 0 0 0 0 0 0 0 0 0 0 0 0 0 0 0 0 0 0 0 0 0 0 0 0 0 0 0 0 0 0 0 159 255 255 254 255 255 255 255 255 255 255 255 255 255 255 255 255 255 255 255 255 255 255 255 255 255 255 255 255 255 255 255 255 255 255 255 255 255 255 255 255 255 255 255 255 255 255 255 255 255 255 255 255 255 255 255 255 255 255 
255 255 255 255 255 255 255 255 255 255 255 255 255 255 255 255 255 255 255 255 255 255 255 255 255 255 255 255 255 255 255 255 255 255 255 255 255 255 255 255 255 255 255 255 255 255 255 255 255 255 255 255 255 255 254 254 253 254 252 255 33 3 0 0 1 0 0 1 0 0 0 1 0 0 1 0 0 0 0 0 0 0 0 0 0 0 0 0 0 0 0 0 0 0 0 0 0 0 0 0 0 0 0 0 0 0 0 0 0 0 0 0 0 0 0 1 0 0 0 0 0 0 0 0 0 0 0 0 2 8 255 250 255 254 253 255 253 255 253 253 255 254 254 255 255 253 253 255 253 255 128 0 0 0 0 0 0 0 0 0 0 0 0 0 0 0 0 0 0 0 0 0 0 0 0 0 0 0 0 0 0 0 0 0 0 0 0 0 0 0 0 0 0 0 0 0 0 0 0 0 0 0 0 0 0 0 0 0 0 0 0 0 0 0 0 0 1 0 0 0 0 0 0 0 0 0 0 0 0 0 0 0 0 0 0 0 0 0 0 0 0 0 0 0 0 0 0 0 0 0 0 0 0 0 0 0 0 1 0 0 0 0 1 0 0 0 0 1 0 0 0 0 0 0 0 0 0 0 0 0 0 0 0 0 0 0 0 0 0 0 0 0 0 0 0 0 0 0 0 0 0 0 0 0 0 1 93 255 255 253 254 253 254 253 254 254 254 253 255 254 253 254 254 255 255 253 255 62 2 0 1 0 0 0 0 0 0 0 0 0 0 0 0 0 0 0 0 0 0 0 0 0 0 0 0 0 0 0 0 0 0 0 0 0 0 0 0 0 0 0 0 0 0 0 0 0 0 0 0 0 0 0 0 0 0 0 0 0 0 0 0 0 1 0 2 19 255 252 255 255 255 255 255 255 255 255 255 255 255 255 255 255 255 255 255 255 255 255 255 255 255 255 255 255 255 255 255 255 255 255 255 255 255 255 255 255 255 255 255 255 255 255 255 255 255 255 255 255 255 255 255 255 255 255 255 
255 255 255 255 255 255 255 255 255 255 255 255 255 255 255 255 255 255 255 255 255 255 255 255 255 255 255 255 255 255 255 255 255 255 255 255 255 255 255 255 255 255 255 255 255 255 255 255 255 255 255 255 255 255 255 254 253 254 253 250 228 0 5 0 0 1 0 0 0 0 0 0 0 0 0 0 0 0 0 0 0 0 1 0 0 0 0 0 0 0 0 0 0 0 0 0 0 0 0 0 0 0 0 0 0 0 0 0 0 0 0 0 0 0 0 0 0 0 0 0 0 0 0 0 0 0 0 0 0 172 253 254 254 254 254 254 253 254 253 253 254 254 254 255 253 253 254 254 253 255 39 0 0 0 0 0 0 0 0 0 0 0 0 0 0 0 0 0 0 0 0 0 0 0 0 0 0 0 0 0 0 0 0 0 0 0 0 0 0 0 0 0 0 0 0 0 0 0 0 0 0 0 0 0 0 0 0 0 0 0 0 0 0 0 0 0 0 0 0 0 0 0 0 0 0 0 0 0 0 0 1 0 0 0 0 0 0 0 0 0 0 0 0 0 0 0 0 0 0 0 0 1 0 0 0 0 0 0 0 0 0 0 0 0 0 0 0 0 0 0 0 0 0 0 0 0 0 0 0 0 0 0 0 0 0 0 0 0 0 0 0 0 0 0 0 0 0 0 0 0 0 0 0 0 0 2 9 251 253 254 253 252 254 254 253 255 255 254 255 254 254 254 255 254 254 255 253 229 0 4 0 0 0 0 0 0 0 1 0 0 0 0 0 0 0 0 0 0 0 0 0 0 0 0 0 0 0 0 0 0 0 0 0 0 0 0 0 0 0 0 0 0 0 1 0 0 0 0 0 0 0 0 0 0 0 0 0 0 0 0 0 1 3 4 0 198 252 253 255 254 255 255 255 255 255 255 255 255 255 255 255 255 255 255 255 255 255 255 255 255 255 255 255 255 255 255 255 255 255 255 255 255 255 255 255 255 255 255 255 255 255 255 255 255 255 255 255 255 255 255 255 255 255 255 255 
255 255 255 255 255 255 255 255 255 255 255 255 255 255 255 255 255 255 255 255 255 255 255 255 255 255 255 255 255 255 255 255 255 255 255 255 255 255 255 255 255 255 255 255 255 255 255 255 255 255 255 255 255 255 254 255 253 255 253 250 255 132 0 7 0 0 2 0 0 0 0 0 0 0 0 0 0 0 0 0 0 0 0 0 0 0 0 0 0 0 0 1 0 0 0 0 0 0 0 0 0 0 0 0 1 0 0 0 0 0 0 0 0 0 0 0 0 0 0 0 0 0 0 0 0 0 0 4 28 255 252 255 254 254 255 253 254 254 254 255 254 255 253 253 254 254 254 253 254 255 18 0 0 0 0 0 0 0 0 0 0 0 0 0 0 0 0 0 0 0 0 0 0 0 0 0 0 0 0 0 0 0 0 0 0 0 0 0 0 0 0 0 0 0 0 0 0 0 0 0 0 0 0 0 0 0 0 0 0 0 0 0 0 0 0 0 0 0 0 0 0 0 0 0 0 1 0 0 0 0 0 0 0 0 0 0 0 0 0 0 0 0 0 0 0 0 0 0 0 0 0 0 0 0 0 0 0 0 0 0 0 0 0 0 0 0 0 0 0 0 0 0 0 0 0 0 0 0 0 0 0 0 0 0 0 0 0 0 0 0 0 0 0 0 0 0 0 0 0 0 1 0 0 0 0 0 9 248 254 255 254 254 253 255 254 254 254 255 254 253 254 255 254 254 253 253 254 255 91 0 0 0 0 0 0 0 0 0 0 0 0 0 1 0 0 0 0 0 0 0 0 0 0 0 0 0 0 0 0 0 0 0 0 0 0 0 0 0 0 0 0 0 0 1 0 0 0 0 0 0 0 0 0 0 0 0 0 0 0 0 0 0 7 0 86 255 250 253 254 254 254 255 255 255 255 255 255 255 255 255 255 255 255 255 255 255 255 255 255 255 255 255 255 255 255 255 255 255 255 255 255 255 255 255 255 255 255 255 255 255 255 255 255 255 255 255 255 255 255 255 255 255 255 255 255 
255 255 255 255 255 255 255 255 255 255 255 255 255 255 255 255 255 255 255 255 255 255 255 255 255 255 255 255 255 255 255 255 255 255 255 255 255 255 255 255 255 255 255 255 255 255 255 255 255 255 255 255 255 255 254 254 253 253 253 253 250 255 112 0 5 5 2 0 0 0 0 0 0 0 0 1 0 0 0 0 0 0 0 0 0 0 0 0 0 1 0 0 1 0 0 1 0 0 0 0 0 0 0 0 0 0 0 0 0 0 0 0 0 0 0 0 0 0 0 0 0 0 0 0 0 0 4 0 215 251 255 254 254 255 254 254 253 253 254 254 255 253 254 253 254 254 254 255 254 235 0 0 0 0 0 0 0 0 0 0 0 0 0 0 0 0 0 0 0 0 0 0 0 0 0 0 0 0 0 0 1 0 0 0 0 0 0 0 0 0 0 0 0 0 0 0 0 0 0 0 0 0 0 1 0 0 0 0 0 0 0 0 0 0 1 0 0 0 0 0 0 0 0 0 1 0 0 0 0 0 0 0 0 0 0 0 0 0 0 1 0 1 1 0 0 0 0 0 0 0 0 0 0 0 0 0 0 0 0 0 0 0 0 0 0 0 0 0 0 0 0 0 0 0 0 1 0 0 0 0 0 0 0 0 0 0 0 0 0 0 0 0 0 0 0 0 0 0 0 0 0 0 0 0 0 0 0 192 253 255 254 254 253 255 255 253 255 254 255 253 253 255 255 253 253 253 254 252 250 7 3 0 0 0 0 0 0 0 0 1 1 0 0 0 0 0 0 0 0 0 1 0 0 0 0 0 0 0 0 0 1 1 0 0 0 0 0 0 0 0 0 1 0 0 0 0 0 0 0 0 0 0 0 0 0 0 0 0 0 0 2 9 0 64 255 250 253 254 253 253 255 255 255 255 255 255 255 255 255 255 255 255 255 255 255 255 255 255 255 255 255 255 255 255 255 255 255 255 255 255 255 255 255 255 255 255 255 255 255 255 255 255 255 255 255 255 255 255 255 255 255 255 255 255 255 
255 255 255 255 255 255 255 255 255 255 255 255 255 255 255 255 255 255 255 255 255 255 255 255 255 255 255 255 255 255 255 255 255 255 255 255 255 255 255 255 255 255 255 255 255 255 255 255 255 255 255 255 255 255 255 253 255 253 253 255 255 249 255 194 20 0 0 0 2 0 0 0 0 1 0 1 0 0 0 0 0 1 0 0 0 0 0 0 0 0 0 0 0 0 0 1 0 0 0 0 0 0 0 2 0 0 0 0 0 0 0 0 0 0 0 0 0 0 0 0 0 0 0 0 0 2 0 111 255 252 253 253 254 254 254 253 255 253 254 254 254 255 254 255 253 253 254 255 254 212 0 0 0 0 0 0 0 0 0 0 0 0 0 0 0 0 0 0 0 0 0 0 0 0 0 0 0 0 0 0 0 0 1 0 0 0 0 0 0 0 0 0 0 0 0 0 0 0 0 0 0 0 0 0 0 0 0 0 0 0 0 0 0 0 1 0 0 0 0 0 0 0 0 0 0 0 0 0 0 0 0 0 0 0 0 0 0 0 0 0 1 0 1 0 0 0 0 0 0 0 0 0 0 0 1 0 0 0 0 0 1 0 0 0 0 0 0 0 0 0 0 0 0 0 0 0 0 0 0 0 0 0 0 0 0 0 0 0 1 0 0 0 0 0 0 1 0 0 0 0 0 0 0 0 0 0 0 171 254 255 254 255 253 255 255 254 254 255 254 254 254 254 254 254 253 254 253 255 254 197 0 4 0 0 0 0 0 0 0 0 0 0 0 0 0 0 0 0 0 1 0 0 0 0 0 0 0 0 1 0 0 1 1 0 0 0 0 0 0 0 0 0 1 0 0 0 0 0 0 0 0 1 1 0 0 0 0 0 1 0 0 0 148 255 252 254 255 253 254 253 254 255 255 255 255 255 255 255 255 255 255 255 255 255 255 255 255 255 255 255 255 255 255 255 255 255 255 255 255 255 255 255 255 255 255 255 255 255 255 255 255 255 255 255 255 255 255 255 255 255 255 255 255 255 255 
255 255 255 255 255 255 255 255 255 255 255 255 255 255 255 255 255 255 255 255 255 255 255 255 255 255 255 255 255 255 255 255 255 255 255 255 255 255 255 255 255 255 255 255 255 255 255 255 255 255 255 255 255 255 254 254 255 253 253 255 254 255 249 254 255 205 131 106 0 4 0 0 0 1 0 0 0 0 0 0 0 0 0 0 0 0 0 0 0 0 0 0 0 0 0 0 0 0 1 1 1 0 0 0 1 0 0 0 0 0 0 0 0 0 0 0 0 0 0 1 0 0 0 0 0 2 29 255 249 255 254 253 253 254 255 253 255 254 254 254 254 255 253 254 254 253 254 254 255 143 0 0 0 0 0 0 0 0 0 0 0 0 0 0 0 0 0 0 0 0 0 0 0 0 0 0 0 0 0 0 0 0 0 0 0 0 0 0 0 1 0 0 0 0 0 0 0 0 0 0 0 0 1 0 0 0 0 0 0 0 0 0 0 0 0 0 0 0 0 0 0 0 0 0 0 0 0 0 0 0 1 0 0 0 0 1 0 0 0 0 0 0 0 0 0 0 0 0 0 0 0 0 0 0 0 0 0 0 0 1 0 0 0 0 0 0 0 0 0 0 0 0 0 0 0 0 0 0 0 0 0 0 0 0 0 0 0 1 0 0 0 0 0 0 0 0 0 0 0 0 0 0 0 0 1 0 2 75 255 253 254 255 254 254 254 255 255 254 254 253 255 253 254 253 252 254 254 255 251 255 122 0 3 0 0 0 0 0 0 0 0 0 0 0 0 0 0 0 1 0 0 0 0 1 0 0 0 1 1 1 0 0 0 0 0 0 0 0 0 0 0 0 1 0 0 0 0 0 0 0 0 0 2 2 0 0 0 4 4 79 138 241 255 248 254 255 254 254 254 253 253 255 255 255 255 255 255 255 255 255 255 255 255 255 255 255 255 255 255 255 255 255 255 255 255 255 255 255 255 255 255 255 255 255 255 255 255 255 255 255 255 255 255 255 255 255 255 255 255 255 255 255 255 255 255 
255 255 255 255 255 255 255 255 255 255 255 255 255 255 255 255 255 255 255 255 255 255 255 255 255 255 255 255 255 255 255 255 255 255 255 255 255 255 255 255 255 255 255 255 255 255 255 255 255 255 255 255 255 255 254 255 253 254 254 253 255 254 255 252 247 252 255 255 90 0 3 1 2 0 0 0 0 0 0 0 0 0 0 0 0 0 0 0 0 0 1 0 0 1 0 0 0 0 0 4 1 0 0 0 0 0 0 0 0 0 0 0 0 0 0 0 1 0 1 0 0 0 0 0 3 2 242 252 253 255 254 253 253 254 253 254 254 253 254 254 254 254 254 254 253 253 254 255 255 108 0 0 0 0 1 0 0 1 0 0 0 0 0 0 0 0 0 0 0 0 0 0 0 0 0 0 0 0 0 0 0 0 0 0 0 0 0 0 0 0 0 0 0 0 0 0 0 0 0 0 0 0 0 0 0 0 0 0 0 0 0 0 0 0 0 1 0 0 0 0 0 0 0 0 0 1 1 2 0 0 2 3 0 0 0 0 0 0 0 1 0 0 0 0 0 0 0 0 0 0 0 0 0 0 0 0 0 0 1 0 0 0 0 0 0 0 0 0 0 0 0 0 0 0 0 0 0 0 0 0 0 0 0 1 0 1 0 0 0 0 0 0 0 0 0 0 0 0 0 0 0 0 0 0 0 0 1 48 255 253 255 254 255 255 253 255 254 253 255 253 255 254 253 253 254 253 255 255 253 248 255 56 1 1 1 1 0 0 0 1 0 0 0 0 0 0 0 0 0 0 0 0 0 1 1 1 0 0 2 1 0 0 0 0 0 0 0 0 0 0 0 0 0 0 1 0 0 0 0 0 0 0 3 4 3 0 6 0 209 255 254 250 249 255 255 255 254 255 253 254 254 255 255 255 255 255 255 255 255 255 255 255 255 255 255 255 255 255 255 255 255 255 255 255 255 255 255 255 255 255 255 255 255 255 255 255 255 255 255 255 255 255 255 255 255 255 255 255 255 255 255 255 255 255 255 
255 255 255 255 255 255 255 255 255 255 255 255 255 255 255 255 255 255 255 255 255 255 255 255 255 255 255 255 255 255 255 255 255 255 255 255 255 255 255 255 255 255 255 255 255 255 255 255 255 255 255 255 255 255 254 254 253 254 254 255 254 254 255 255 251 250 252 247 255 73 0 4 6 3 2 0 0 0 0 3 2 1 0 0 0 0 1 1 0 0 0 1 0 0 0 1 0 2 4 6 1 0 0 0 0 0 0 0 0 0 0 0 0 0 0 0 0 0 0 0 0 0 0 5 0 220 254 254 253 254 254 253 253 252 254 253 255 254 255 254 254 255 254 255 253 254 254 254 255 27 2 0 0 0 0 0 0 0 0 0 0 0 0 0 0 0 0 0 0 0 0 0 0 0 0 0 0 0 0 0 0 0 0 0 0 0 0 0 0 0 0 0 0 0 0 0 0 0 0 0 0 0 0 0 0 0 0 0 0 0 0 0 0 0 0 0 0 0 0 0 0 0 0 0 1 1 1 4 4 6 3 2 0 0 0 0 0 0 0 0 0 0 0 0 0 0 0 0 0 0 0 0 0 0 0 0 0 0 0 0 0 0 0 0 0 0 0 0 0 0 0 0 1 0 0 0 0 0 1 0 0 0 0 0 0 0 0 0 0 0 0 0 0 0 0 0 0 0 0 0 0 0 0 0 0 0 2 5 250 253 254 253 254 254 254 254 254 253 253 253 253 253 254 254 254 254 255 255 253 254 249 255 20 3 1 0 0 0 0 0 0 0 0 0 0 0 0 1 0 0 0 0 0 0 3 2 0 2 6 2 0 0 0 1 1 0 0 0 0 0 0 0 0 0 0 0 0 0 0 0 1 1 3 6 6 1 0 191 255 249 252 252 252 254 255 255 254 254 255 253 255 255 255 255 255 255 255 255 255 255 255 255 255 255 255 255 255 255 255 255 255 255 255 255 255 255 255 255 255 255 255 255 255 255 255 255 255 255 255 255 255 255 255 255 255 255 255 255 255 255 255 255 255 255 255 
255 255 255 255 255 255 255 255 255 255 255 255 255 255 255 255 255 255 255 255 255 255 255 255 255 255 255 255 255 255 255 255 255 255 255 255 255 255 255 255 255 255 255 255 255 255 255 255 255 255 255 255 255 255 254 255 255 254 254 255 253 254 254 253 252 252 254 255 246 255 145 15 0 0 0 0 0 0 2 5 3 1 0 0 0 0 1 0 0 0 0 2 2 2 2 4 1 0 0 0 37 1 3 0 0 0 0 0 0 0 0 0 0 0 0 0 0 0 0 0 0 1 4 0 199 254 252 255 253 253 255 253 254 253 254 254 253 254 253 253 253 255 253 255 255 255 254 253 255 16 1 0 0 0 0 0 0 0 0 0 0 0 0 0 0 0 0 0 0 0 0 0 0 0 0 0 0 0 0 0 0 0 0 0 0 0 0 0 0 0 0 0 0 0 0 0 0 0 0 0 0 1 0 0 0 0 0 0 0 0 0 0 0 0 0 0 0 0 1 0 0 0 2 13 37 48 8 2 0 0 10 26 26 5 1 0 0 1 0 0 0 0 0 0 0 0 0 0 0 0 0 0 1 0 0 0 0 0 0 0 0 0 0 0 0 0 0 0 0 0 0 0 0 0 0 0 0 0 0 0 0 0 0 0 0 0 0 0 0 0 0 0 0 0 0 0 0 0 0 0 0 0 0 0 0 0 1 4 237 254 254 254 254 254 255 254 254 253 253 254 254 254 254 255 255 253 255 255 253 254 254 252 252 14 2 2 0 0 1 0 1 0 0 0 0 0 0 1 0 0 0 0 0 2 6 1 14 4 0 0 1 3 2 2 3 1 0 0 0 0 0 0 0 0 0 0 2 4 0 0 0 0 1 0 1 62 229 254 249 255 255 252 253 255 254 254 254 253 255 254 255 255 255 255 255 255 255 255 255 255 255 255 255 255 255 255 255 255 255 255 255 255 255 255 255 255 255 255 255 255 255 255 255 255 255 255 255 255 255 255 255 255 255 255 255 255 255 255 255 255 255 255 255 255 255 
255 255 255 255 255 255 255 255 255 255 255 255 255 255 255 255 255 255 255 255 255 255 255 255 255 255 255 255 255 255 255 255 255 255 255 255 255 255 255 255 255 255 255 255 255 255 255 255 255 255 255 255 255 255 254 254 255 254 254 254 253 254 254 253 253 253 255 255 255 245 255 255 221 127 113 22 22 23 0 1 2 1 2 2 1 3 4 2 2 2 0 3 2 1 1 0 41 130 213 225 255 131 0 2 0 0 0 0 0 0 0 0 0 0 0 0 0 0 1 0 3 2 3 224 254 251 254 253 253 255 253 253 254 253 254 254 253 254 255 254 253 253 254 254 255 254 254 254 231 0 0 0 0 0 0 0 0 0 0 0 0 0 0 0 0 0 0 0 0 0 0 0 0 0 0 0 0 0 0 0 0 0 0 0 0 0 0 0 0 0 0 0 0 0 0 0 0 0 0 0 1 0 0 0 0 0 0 0 0 0 0 0 0 0 0 1 0 0 0 0 1 0 0 208 255 255 243 235 221 213 244 255 255 185 0 1 0 0 0 0 0 0 0 0 0 0 0 0 0 0 0 0 0 0 0 0 0 0 0 0 0 0 0 0 0 0 0 0 0 0 0 0 0 0 0 0 1 0 0 0 0 0 0 0 0 0 0 0 1 0 0 0 0 0 0 1 0 0 0 0 0 0 0 0 0 0 0 0 187 255 254 254 255 255 254 255 252 253 253 254 254 253 253 255 255 254 253 254 254 254 255 255 249 249 33 0 3 0 0 1 0 0 0 0 0 0 0 0 1 0 0 0 0 3 4 41 255 239 200 130 19 0 0 1 2 3 0 2 2 2 3 2 1 1 0 1 1 0 9 16 74 72 87 182 236 255 251 251 253 255 255 254 253 253 254 253 255 254 254 253 254 255 255 255 255 255 255 255 255 255 255 255 255 255 255 255 255 255 255 255 255 255 255 255 255 255 255 255 255 255 255 255 255 255 255 255 255 255 255 255 255 255 255 255 255 255 255 255 255 255 255 255 255 255 255 
255 255 255 255 255 255 255 255 255 255 255 255 255 255 255 255 255 255 255 255 255 255 255 255 255 255 255 255 255 255 255 255 255 255 255 255 255 255 255 255 255 255 255 255 255 255 255 255 255 255 255 255 255 255 254 253 254 253 254 253 255 254 253 253 254 254 254 255 254 255 252 247 248 255 255 255 255 255 218 120 44 11 0 0 0 0 0 0 0 0 11 21 38 101 108 223 255 255 251 249 242 255 14 6 0 0 0 0 0 0 0 0 0 0 0 0 0 0 2 5 0 33 235 251 251 254 254 253 254 254 253 254 255 253 254 253 254 255 255 253 253 253 254 253 255 254 255 253 209 0 0 0 0 0 0 0 0 0 0 0 0 0 0 0 0 0 0 0 0 0 0 0 0 0 0 0 1 0 0 0 0 0 1 0 0 0 0 0 0 0 0 0 0 0 0 0 0 0 0 0 0 0 0 0 1 0 0 0 0 0 0 0 0 0 1 1 0 0 0 0 1 1 17 255 246 249 248 248 250 251 248 248 246 255 7 1 0 0 0 0 0 0 0 0 0 0 0 0 0 0 0 0 0 0 0 0 0 0 0 0 0 0 0 0 0 0 0 0 0 0 0 0 0 0 0 0 1 0 1 1 0 0 1 0 0 0 0 0 1 0 0 0 0 0 0 0 0 0 0 0 0 0 0 1 0 0 0 0 127 255 255 255 254 253 253 254 253 253 253 255 254 253 255 254 254 254 254 253 253 253 255 255 253 251 255 86 0 2 3 1 0 0 0 0 0 1 0 0 0 0 0 0 0 7 0 209 248 248 251 255 255 199 137 72 34 9 2 0 0 0 0 0 0 0 5 16 86 182 249 253 255 255 255 253 248 249 255 255 253 255 255 254 253 253 254 254 254 254 254 253 254 255 255 255 255 255 255 255 255 255 255 255 255 255 255 255 255 255 255 255 255 255 255 255 255 255 255 255 255 255 255 255 255 255 255 255 255 255 255 255 255 255 255 255 255 255 255 255 255 255 255 255 255 255 255 
255 255 255 255 255 255 255 255 255 255 255 255 255 255 255 255 255 255 255 255 255 255 255 255 255 255 255 255 255 255 255 255 255 255 255 255 255 255 255 255 255 255 255 255 255 255 255 255 255 255 255 255 255 255 255 253 254 253 253 255 255 254 253 253 255 254 253 253 253 255 255 255 251 251 253 249 248 248 250 255 255 253 223 213 217 220 219 214 213 208 248 255 255 255 255 248 247 253 255 252 255 252 227 0 4 1 0 1 3 2 0 0 0 0 1 2 1 1 2 0 120 255 250 254 252 253 255 254 253 253 255 253 253 255 255 253 254 255 254 255 254 254 253 253 254 255 255 255 106 2 0 0 0 0 0 0 0 0 0 0 0 0 0 0 0 0 0 0 0 0 0 0 0 0 0 0 0 0 0 0 0 0 0 0 0 0 0 0 0 0 0 0 0 0 0 0 0 0 0 0 0 0 0 0 0 0 0 0 0 0 0 0 0 0 0 0 0 0 0 0 1 0 98 255 253 252 253 255 255 253 251 254 255 255 88 0 0 0 0 0 0 0 0 0 0 0 0 0 0 0 0 0 0 0 0 0 0 0 0 0 0 0 0 0 0 0 0 0 0 0 0 0 0 0 0 0 0 0 0 0 0 0 0 0 0 0 0 0 0 0 0 0 0 0 0 0 0 0 0 0 0 0 0 0 0 0 0 1 78 255 255 254 254 254 253 253 255 253 253 255 254 254 253 254 253 255 255 253 253 254 253 255 254 255 247 255 199 24 0 2 2 1 0 0 2 1 0 0 0 1 0 0 3 0 100 255 253 255 255 252 246 251 254 255 255 249 235 209 217 219 215 213 214 212 242 254 255 254 245 248 252 251 250 251 254 255 255 254 253 253 253 254 253 254 253 254 254 253 254 252 254 255 255 255 255 255 255 255 255 255 255 255 255 255 255 255 255 255 255 255 255 255 255 255 255 255 255 255 255 255 255 255 255 255 255 255 255 255 255 255 255 255 255 255 255 255 255 255 255 255 255 255 255 255 255 
255 255 255 255 255 255 255 255 255 255 255 255 255 255 255 255 255 255 255 255 255 255 255 255 255 255 255 255 255 255 255 255 255 255 255 255 255 255 255 255 255 255 255 255 255 255 255 255 255 255 255 255 255 255 255 253 253 254 254 254 254 254 253 254 254 254 252 253 253 255 255 255 252 251 254 255 255 255 251 251 250 247 249 250 249 249 249 249 250 250 249 249 250 252 251 253 254 255 255 253 253 254 254 198 0 4 1 3 4 3 1 1 1 1 4 3 1 0 70 241 255 246 255 253 254 254 253 255 253 254 254 255 253 254 253 254 255 254 254 254 253 255 254 255 254 254 252 255 104 1 0 0 0 0 0 0 0 0 0 0 0 0 0 0 0 0 0 0 0 0 0 0 0 0 0 0 0 0 0 0 0 0 0 0 0 0 0 0 0 0 0 0 0 0 0 0 0 0 0 0 0 0 0 0 0 0 0 0 0 0 0 0 0 0 0 0 0 0 0 1 2 0 197 252 252 253 253 255 255 253 252 254 255 254 180 0 1 0 0 0 0 0 0 0 0 0 0 0 0 1 0 0 0 0 0 0 0 0 0 0 0 0 0 0 0 0 1 0 0 0 0 0 1 0 0 0 0 0 0 0 0 0 0 0 0 0 0 0 0 0 0 0 0 0 0 0 0 0 0 0 0 0 0 0 0 0 0 1 14 251 254 255 253 254 254 255 254 253 254 253 254 254 253 254 253 254 254 254 254 254 254 255 254 253 255 251 250 255 153 8 0 3 1 2 5 3 0 1 1 3 1 3 0 71 255 245 252 255 255 255 253 248 251 253 249 247 248 250 249 249 250 249 250 250 249 249 253 254 255 255 255 253 253 251 253 255 253 255 254 253 254 255 253 253 253 254 255 255 254 253 254 255 255 255 255 255 255 255 255 255 255 255 255 255 255 255 255 255 255 255 255 255 255 255 255 255 255 255 255 255 255 255 255 255 255 255 255 255 255 255 255 255 255 255 255 255 255 255 255 255 255 255 255 255 255 
255 255 255 255 255 255 255 255 255 255 255 255 255 255 255 255 255 255 255 255 255 255 255 255 255 255 255 255 255 255 255 255 255 255 255 255 255 255 255 255 255 255 255 255 255 255 255 255 255 255 255 255 255 255 254 255 253 253 255 254 253 254 254 253 254 253 254 253 253 255 255 253 254 253 253 255 255 255 252 250 252 252 255 255 254 254 254 249 251 254 255 255 255 252 251 252 255 255 255 254 252 255 252 254 223 35 0 1 3 3 2 2 1 0 0 10 98 232 255 247 252 253 255 253 253 255 254 254 253 253 254 255 253 254 255 253 253 255 254 255 253 253 254 253 254 255 252 255 19 1 0 0 0 0 0 0 0 0 0 0 0 0 0 0 0 0 0 0 0 0 0 0 0 0 0 0 0 0 1 0 0 0 0 0 0 1 0 0 0 0 0 0 0 0 0 0 0 0 0 0 0 0 0 0 0 0 0 0 0 0 0 0 0 0 0 0 0 0 0 0 2 3 251 252 252 253 253 255 255 255 253 253 254 249 237 0 2 0 0 0 0 0 0 0 0 0 0 0 0 0 0 0 0 0 0 0 0 0 0 0 0 0 0 0 0 0 0 0 0 0 0 0 0 0 0 0 0 0 0 0 0 0 0 0 0 0 0 0 0 0 0 0 0 0 0 0 0 0 0 0 0 0 0 0 0 0 0 1 3 248 252 255 255 254 255 255 254 254 254 254 254 254 253 254 254 255 253 254 254 255 254 255 255 253 255 254 250 247 254 255 149 28 0 0 0 4 3 2 3 1 0 7 136 255 245 252 252 255 255 253 252 251 252 254 255 254 251 253 254 255 254 252 254 254 254 254 252 254 255 254 255 255 252 252 254 255 255 255 254 253 253 253 255 253 255 252 254 255 255 255 254 255 255 255 255 255 255 255 255 255 255 255 255 255 255 255 255 255 255 255 255 255 255 255 255 255 255 255 255 255 255 255 255 255 255 255 255 255 255 255 255 255 255 255 255 255 255 255 255 255 255 255 255 255 255 
255 255 255 255 255 255 255 255 255 255 255 255 255 255 255 255 255 255 255 255 255 255 255 255 255 255 255 255 255 255 255 255 255 255 255 255 255 255 255 255 255 255 255 255 255 255 255 255 255 255 255 255 255 255 254 254 254 254 255 254 254 254 254 254 255 255 254 253 253 253 255 254 254 253 254 255 255 255 253 252 253 254 255 255 255 255 254 251 252 255 255 253 253 254 253 254 253 255 254 255 253 253 255 251 249 255 193 120 32 36 33 29 57 143 217 251 255 248 254 254 253 255 255 254 254 254 254 255 253 254 255 254 255 255 255 253 255 255 255 253 255 253 254 255 255 253 252 254 14 1 0 0 0 0 0 0 0 0 0 0 0 0 0 0 1 0 0 0 0 0 0 0 0 1 0 0 0 0 0 1 0 0 0 0 0 0 0 0 0 0 0 0 0 0 0 0 0 0 0 0 0 0 0 0 0 0 0 0 0 0 0 0 0 0 0 0 0 0 0 0 1 53 255 255 255 253 254 254 255 254 255 253 254 251 255 26 3 0 0 0 0 0 0 0 0 0 0 0 0 0 0 0 0 0 0 0 0 0 0 0 0 0 0 0 0 0 0 0 0 0 0 0 0 1 0 0 0 0 0 0 0 0 0 0 0 0 0 0 0 0 0 0 0 0 0 0 0 0 0 0 0 0 0 0 0 0 0 0 0 184 254 254 255 254 254 253 254 253 255 253 253 254 255 254 254 254 254 254 253 253 255 255 253 254 254 253 251 252 254 247 254 255 233 148 104 36 35 32 27 68 160 250 254 248 255 252 253 255 255 253 253 253 254 255 254 253 253 253 253 254 255 253 254 254 255 255 254 254 255 255 253 253 254 253 255 255 255 255 255 254 253 253 253 254 255 253 254 255 254 255 254 255 255 255 255 255 255 255 255 255 255 255 255 255 255 255 255 255 255 255 255 255 255 255 255 255 255 255 255 255 255 255 255 255 255 255 255 255 255 255 255 255 255 255 255 255 255 255 255 255 255 255 255 255 255 
255 255 255 255 255 255 255 255 255 255 255 255 255 255 255 255 255 255 255 255 255 255 255 255 255 255 255 255 255 255 255 255 255 255 255 255 255 255 255 255 255 255 255 255 255 255 255 255 255 255 255 255 255 255 253 254 255 254 253 255 254 254 253 253 255 253 255 255 254 255 255 253 253 254 253 254 254 255 253 253 253 254 253 255 255 255 253 254 254 253 253 253 253 253 254 253 255 255 255 254 253 253 252 252 253 251 251 255 255 255 255 255 255 253 250 252 251 250 253 255 253 254 254 254 253 254 254 254 255 253 254 254 254 253 254 254 253 254 254 254 255 255 253 253 255 254 254 205 0 0 0 0 0 0 0 0 0 0 0 0 0 0 0 0 0 0 0 0 0 0 0 0 0 0 0 0 0 0 0 0 0 1 0 0 0 0 0 0 0 0 0 0 0 0 1 0 0 0 0 0 0 0 0 0 0 0 0 0 0 0 0 0 0 0 0 1 0 0 0 0 0 142 255 255 255 253 252 253 253 254 255 254 252 255 254 119 0 0 0 0 0 0 0 0 0 0 0 0 0 0 0 0 0 0 0 0 0 0 0 0 0 0 0 0 0 0 0 0 0 0 0 0 0 0 0 0 0 0 0 0 0 0 0 0 0 0 0 0 0 0 0 0 0 0 0 0 0 0 0 0 0 0 0 0 0 0 0 0 0 175 253 254 253 254 254 255 254 255 255 255 253 254 254 254 253 254 254 254 254 255 253 254 254 254 254 254 254 254 254 251 250 251 248 253 255 255 255 255 255 255 253 249 254 254 254 253 254 253 254 255 253 254 255 253 253 254 253 254 253 254 253 254 253 253 254 255 255 254 253 253 253 253 253 253 255 254 254 254 255 254 254 254 255 255 253 255 254 254 254 255 254 255 255 255 255 255 255 255 255 255 255 255 255 255 255 255 255 255 255 255 255 255 255 255 255 255 255 255 255 255 255 255 255 255 255 255 255 255 255 255 255 255 255 255 255 255 255 255 255 255 255 255 255 255 255 
255 255 255 255 255 255 255 255 255 255 255 255 255 255 255 255 255 255 255 255 255 255 255 255 255 255 255 255 255 255 255 255 255 255 255 255 255 255 255 255 255 255 255 255 255 255 255 255 255 255 255 255 255 255 255 254 253 254 253 255 255 254 254 254 255 253 253 255 254 255 254 254 253 255 253 253 253 253 253 253 254 255 254 253 254 253 254 252 254 253 253 252 253 254 255 254 254 255 255 254 253 254 253 253 255 254 254 254 253 252 249 252 254 254 254 254 252 254 253 253 254 254 253 254 253 253 254 254 255 255 253 254 254 253 255 255 253 254 253 254 255 253 253 253 255 255 255 160 0 0 1 0 0 0 0 0 0 0 0 0 0 0 0 0 0 0 0 0 0 0 0 0 0 0 0 0 0 0 0 0 0 0 0 0 0 0 0 0 0 0 0 0 0 0 0 0 0 0 0 0 0 0 0 0 0 0 0 0 0 0 0 0 0 0 0 0 1 0 0 0 0 207 255 255 255 254 253 253 252 254 253 255 253 255 254 205 0 0 0 0 0 0 0 0 0 0 0 0 0 1 0 1 0 0 0 0 0 0 0 0 0 0 0 0 0 0 1 0 1 0 0 0 0 0 0 0 0 0 0 0 0 0 0 0 0 0 0 0 0 0 0 0 0 0 0 0 0 0 0 0 0 0 0 0 0 0 0 0 1 62 255 254 254 253 253 254 253 254 254 254 255 254 253 254 253 253 253 255 253 255 254 253 254 254 253 253 253 255 253 254 252 252 254 254 253 254 251 249 251 253 253 254 255 254 252 254 254 253 253 253 253 254 255 254 253 253 253 254 254 253 252 254 253 254 255 255 254 255 253 253 254 253 253 254 255 254 255 254 253 253 253 255 254 255 254 254 254 254 254 253 253 255 255 255 255 255 255 255 255 255 255 255 255 255 255 255 255 255 255 255 255 255 255 255 255 255 255 255 255 255 255 255 255 255 255 255 255 255 255 255 255 255 255 255 255 255 255 255 255 255 255 255 255 255 255 
255 255 255 255 255 255 255 255 255 255 255 255 255 255 255 255 255 255 255 255 255 255 255 255 255 255 255 255 255 255 255 255 255 255 255 255 255 255 255 255 255 255 255 255 255 255 255 255 255 255 255 255 255 255 255 253 253 254 254 253 255 255 254 255 255 254 254 254 253 253 254 255 254 255 254 255 254 253 254 255 254 255 253 253 254 252 253 253 254 255 253 253 253 255 254 255 255 254 253 254 252 252 252 254 255 255 255 255 254 251 251 253 254 255 254 253 253 253 253 253 254 254 253 253 254 254 254 254 253 254 253 254 254 255 254 254 254 253 255 254 253 254 254 254 254 255 255 95 1 0 0 0 0 0 0 0 0 0 0 0 0 0 0 0 0 0 0 0 0 0 0 0 0 0 0 0 0 0 0 0 0 0 0 0 0 0 0 0 0 0 1 0 0 0 0 0 0 0 0 0 0 0 0 0 0 0 0 0 0 0 0 0 0 0 0 0 0 0 0 1 5 252 253 255 254 255 253 254 252 254 253 255 254 255 254 239 0 1 0 0 0 0 0 0 0 0 0 0 0 0 0 0 0 0 0 0 0 0 0 0 0 0 0 0 0 0 0 0 0 0 0 0 0 0 0 0 0 0 0 0 0 0 0 0 0 0 0 0 0 0 0 0 0 0 0 0 0 0 0 0 0 0 0 0 0 0 0 0 1 48 255 254 253 253 253 254 254 254 255 254 254 254 253 254 253 255 253 255 254 254 254 254 255 254 253 254 254 255 253 253 255 254 255 255 255 252 251 253 253 253 254 253 255 255 252 253 253 255 253 253 255 255 254 255 253 253 253 254 254 253 253 254 255 254 254 255 255 253 253 253 253 254 254 254 253 255 253 253 254 254 254 253 254 253 255 254 254 255 254 253 254 255 255 255 255 255 255 255 255 255 255 255 255 255 255 255 255 255 255 255 255 255 255 255 255 255 255 255 255 255 255 255 255 255 255 255 255 255 255 255 255 255 255 255 255 255 255 255 255 255 255 255 255 255 255 
255 255 255 255 255 255 255 255 255 255 255 255 255 255 255 255 255 255 255 255 255 255 255 255 255 255 255 255 255 255 255 255 255 255 255 255 255 255 255 255 255 255 255 255 255 255 255 255 255 255 255 255 255 255 255 254 254 253 254 254 254 253 253 253 253 255 254 255 255 254 254 255 254 253 255 253 254 253 254 255 254 254 254 254 253 254 253 253 254 255 254 254 253 253 253 254 253 254 253 254 253 251 253 254 255 255 255 255 253 252 253 255 255 255 253 253 254 254 253 254 253 253 253 253 254 254 254 254 254 255 253 254 253 254 253 253 254 255 254 255 253 254 254 253 253 255 255 47 0 0 0 0 0 0 0 0 0 0 0 0 0 0 0 0 0 0 0 0 0 0 0 0 0 0 0 0 0 0 0 0 0 1 0 0 0 0 0 0 0 0 0 0 0 0 0 0 0 0 0 0 0 0 0 0 0 0 0 0 0 0 1 0 0 0 0 0 0 0 0 1 61 255 255 255 255 255 253 253 253 253 252 254 255 254 255 255 42 1 0 0 0 0 0 0 0 0 0 0 0 0 0 0 0 1 0 0 0 0 0 0 0 0 0 0 0 0 0 0 0 0 0 0 0 0 0 0 0 0 0 0 0 0 0 0 0 0 0 0 0 0 0 0 0 0 0 0 0 0 0 0 0 0 0 0 0 0 0 0 0 2 243 254 253 253 253 254 254 253 254 253 254 253 252 254 253 254 253 253 253 254 253 253 254 255 253 254 253 254 255 252 254 255 254 255 253 253 252 255 254 254 254 253 254 253 253 253 253 254 254 253 254 253 255 253 254 254 254 255 255 253 254 253 255 255 255 255 255 253 253 255 253 254 254 253 254 253 254 253 254 253 254 253 253 254 255 255 254 254 254 254 255 255 255 255 255 255 255 255 255 255 255 255 255 255 255 255 255 255 255 255 255 255 255 255 255 255 255 255 255 255 255 255 255 255 255 255 255 255 255 255 255 255 255 255 255 255 255 255 255 255 255 255 255 255 255 
255 255 255 255 255 255 255 255 255 255 255 255 255 255 255 255 255 255 255 255 255 255 255 255 255 255 255 255 255 255 255 255 255 255 255 255 255 255 255 255 255 255 255 255 255 255 255 255 255 255 255 255 255 255 253 254 253 254 254 253 255 253 253 254 254 253 253 254 254 253 254 253 254 253 255 253 254 253 253 255 255 254 253 254 254 254 254 254 255 255 255 253 253 254 254 254 253 254 253 254 254 253 254 254 255 254 255 254 253 253 254 255 255 253 254 253 253 255 254 254 254 253 254 254 254 253 253 254 253 253 254 253 252 254 254 255 253 254 254 253 254 254 254 254 254 252 255 16 1 0 0 0 0 0 0 0 0 0 0 0 0 0 0 1 0 0 0 0 0 1 0 0 0 0 0 0 0 0 0 0 0 1 0 0 0 0 0 0 0 0 0 0 0 0 0 0 0 0 0 0 0 1 0 0 0 0 0 0 0 0 0 0 0 0 0 0 0 0 0 0 113 255 255 255 255 254 254 253 253 252 253 253 254 255 253 255 118 0 0 0 0 0 0 0 0 0 0 0 0 0 0 0 0 0 0 0 0 0 0 0 0 0 0 0 0 0 0 0 0 0 0 0 0 0 0 0 0 0 0 0 0 0 0 0 0 0 0 0 0 0 0 0 0 0 0 0 0 0 0 0 0 0 0 0 0 0 0 0 0 3 245 254 253 253 255 254 253 255 253 253 255 254 254 253 253 254 254 254 253 254 253 255 254 253 253 254 254 254 253 254 254 254 255 253 253 254 253 255 255 255 255 253 254 253 254 254 253 253 253 254 253 254 253 252 253 253 255 253 254 253 253 253 254 254 253 254 254 253 255 253 253 253 255 253 254 254 253 253 253 253 253 254 253 255 253 254 254 254 253 255 254 255 255 255 255 255 255 255 255 255 255 255 255 255 255 255 255 255 255 255 255 255 255 255 255 255 255 255 255 255 255 255 255 255 255 255 255 255 255 255 255 255 255 255 255 255 255 255 255 255 255 255 255 255 255 
255 255 255 255 255 255 255 255 255 255 255 255 255 255 255 255 255 255 255 255 255 255 255 255 255 255 255 255 255 255 255 255 255 255 255 255 255 255 255 255 255 255 255 255 255 255 255 255 255 255 255 255 255 255 254 255 254 255 255 252 254 255 254 253 253 253 254 253 254 253 255 253 254 254 254 253 254 253 253 253 254 254 254 253 254 254 253 254 254 254 253 254 254 253 255 253 253 254 253 254 253 255 253 255 255 255 254 254 252 253 255 255 255 253 254 254 254 254 253 254 254 253 254 253 253 255 253 255 254 253 254 254 254 254 254 253 254 253 255 253 255 254 255 254 253 253 221 0 1 0 1 0 0 0 0 0 0 0 0 0 0 0 0 0 0 0 0 0 0 0 0 0 0 0 0 0 0 0 0 0 0 0 0 0 0 0 0 0 0 0 0 0 0 0 0 0 0 0 1 0 0 0 0 0 0 0 0 0 0 0 0 0 0 0 0 0 0 0 0 0 221 253 254 254 253 254 253 254 253 254 253 254 253 255 252 254 175 0 0 0 0 0 0 0 0 1 0 0 0 0 0 0 0 0 0 0 0 0 0 0 0 0 0 0 0 0 0 0 0 0 0 0 0 0 0 0 1 0 1 0 0 0 0 0 0 0 0 0 0 0 0 1 0 0 0 0 0 0 0 0 0 0 0 0 0 0 0 0 0 0 160 255 254 254 253 255 254 253 254 253 254 254 254 254 254 254 254 255 253 254 255 254 254 254 252 254 255 254 253 254 254 255 253 253 253 253 253 254 255 255 255 253 254 254 255 254 254 254 254 255 254 255 253 255 253 254 253 254 254 254 253 255 254 255 253 253 254 253 254 254 252 253 253 255 254 254 253 254 254 253 253 254 254 255 252 253 255 254 253 254 254 255 255 255 255 255 255 255 255 255 255 255 255 255 255 255 255 255 255 255 255 255 255 255 255 255 255 255 255 255 255 255 255 255 255 255 255 255 255 255 255 255 255 255 255 255 255 255 255 255 255 255 255 255 255 
255 255 255 255 255 255 255 255 255 255 255 255 255 255 255 255 255 255 255 255 255 255 255 255 255 255 255 255 255 255 255 255 255 255 255 255 255 255 255 255 255 255 255 255 255 255 255 255 255 255 255 255 255 255 254 254 254 255 254 254 253 255 253 254 254 254 253 254 253 254 255 254 253 253 253 253 253 253 253 253 254 253 255 254 254 252 254 254 254 253 254 253 255 254 254 254 253 253 255 254 253 254 254 254 255 254 255 255 254 253 254 254 254 253 254 253 255 253 253 255 254 253 255 253 255 255 254 253 254 255 254 254 254 255 254 254 253 253 253 255 255 254 253 254 254 251 200 0 0 0 0 0 0 0 0 0 0 0 0 0 0 0 0 0 1 0 0 0 0 0 0 0 0 0 1 0 0 1 0 0 0 0 0 0 0 0 0 0 0 0 0 0 0 0 1 0 0 0 0 0 0 0 0 0 0 0 0 0 0 0 0 0 0 0 0 0 0 0 0 2 240 254 254 255 253 255 253 255 254 254 254 255 253 253 253 250 244 0 1 0 0 0 0 0 0 0 0 0 0 0 0 0 0 0 0 0 0 0 0 0 0 0 0 0 0 0 0 0 0 0 0 0 0 0 0 0 0 0 0 0 0 0 0 0 0 0 0 0 0 0 0 0 0 0 0 0 0 0 0 0 0 0 0 0 0 0 0 0 0 0 131 255 255 255 254 254 254 252 255 253 254 254 254 253 255 254 253 255 253 255 253 254 253 254 252 254 253 253 254 254 254 255 254 254 253 253 255 253 254 254 255 253 254 253 254 254 253 254 254 253 254 254 254 255 253 254 254 254 253 254 254 253 255 255 254 253 255 253 253 254 254 254 252 254 254 254 254 253 253 254 254 255 255 254 254 254 254 254 253 254 254 255 255 255 255 255 255 255 255 255 255 255 255 255 255 255 255 255 255 255 255 255 255 255 255 255 255 255 255 255 255 255 255 255 255 255 255 255 255 255 255 255 255 255 255 255 255 255 255 255 255 255 255 255 255 
255 255 255 255 255 255 255 255 255 255 255 255 255 255 255 255 255 255 255 255 255 255 255 255 255 255 255 255 255 255 255 255 255 255 255 255 255 255 255 255 255 255 255 255 255 255 255 255 255 255 255 255 255 255 253 254 254 254 254 254 254 254 254 253 253 254 253 254 254 254 253 254 254 253 254 254 253 254 254 253 253 254 255 253 255 253 254 253 255 254 255 253 254 254 253 254 254 253 253 253 252 253 255 255 253 253 254 254 253 253 253 254 253 254 254 252 253 254 253 253 254 253 253 253 255 253 254 253 254 253 255 254 254 254 253 255 254 253 254 254 254 254 254 254 255 255 80 2 0 0 0 0 0 0 0 0 0 0 0 0 0 0 0 0 0 0 0 0 1 0 0 0 0 0 0 0 0 0 0 0 0 0 0 0 0 0 0 0 0 0 0 0 0 0 0 0 0 0 0 0 0 0 0 0 0 0 0 0 0 0 0 0 0 0 0 0 0 0 1 27 255 255 255 253 253 254 254 254 255 254 254 254 253 253 254 254 255 38 1 0 0 0 0 0 0 0 0 0 0 0 0 0 0 0 0 0 0 0 0 0 0 0 0 0 0 0 0 0 0 1 0 0 0 0 0 0 0 0 0 0 0 0 0 0 0 0 0 0 0 0 0 0 1 0 0 0 0 0 0 0 0 0 1 0 0 0 0 0 0 2 45 255 255 254 254 253 253 254 254 253 254 254 254 253 255 254 253 254 254 253 254 253 254 254 254 254 253 253 254 255 254 255 253 254 252 253 254 254 254 253 253 254 252 253 254 253 252 252 253 254 254 254 253 255 253 255 254 255 253 254 253 253 253 254 254 253 255 253 252 254 253 254 254 254 252 254 254 253 253 255 253 253 254 254 254 255 254 254 254 254 255 255 255 255 255 255 255 255 255 255 255 255 255 255 255 255 255 255 255 255 255 255 255 255 255 255 255 255 255 255 255 255 255 255 255 255 255 255 255 255 255 255 255 255 255 255 255 255 255 255 255 255 255 255 255 
255 255 255 255 255 255 255 255 255 255 255 255 255 255 255 255 255 255 255 255 255 255 255 255 255 255 255 255 255 255 255 255 255 255 255 255 255 255 255 255 255 255 255 255 255 255 255 255 255 255 255 255 255 255 254 253 255 253 255 253 255 253 254 254 254 254 253 255 254 254 253 253 253 253 255 255 253 253 254 253 253 254 254 254 253 254 254 254 254 253 254 253 253 253 254 253 253 254 254 254 254 254 254 254 253 253 253 253 254 255 254 255 254 253 253 255 252 254 254 254 254 252 254 252 253 254 254 253 254 253 254 255 253 253 252 254 254 254 254 254 253 254 254 254 255 255 73 1 0 1 0 0 0 0 0 0 0 0 0 0 0 0 0 0 0 0 0 0 0 0 0 0 1 0 0 0 0 0 0 0 0 0 0 0 0 0 0 0 1 0 0 0 1 0 0 0 0 0 0 0 0 0 0 0 0 0 0 0 0 0 0 0 0 0 0 0 0 1 0 118 255 255 255 254 254 253 254 253 254 255 254 255 253 253 254 255 255 78 1 0 1 0 0 0 0 0 0 0 0 0 0 0 0 0 0 0 0 0 0 0 1 0 0 0 1 0 0 0 0 0 0 0 0 0 0 0 0 0 0 0 0 0 0 0 0 0 0 0 0 0 0 0 0 0 0 0 0 0 0 0 0 0 0 0 0 0 0 0 0 1 36 255 255 255 254 253 254 252 253 253 254 253 254 253 252 255 254 253 255 253 255 254 253 254 253 254 254 255 254 253 253 255 253 254 254 254 254 253 253 254 252 254 254 254 253 253 255 254 253 255 254 253 254 253 254 254 254 253 254 253 253 255 253 253 253 254 252 253 254 254 253 255 254 254 254 254 254 253 253 254 254 253 254 255 254 254 253 253 254 254 254 255 255 255 255 255 255 255 255 255 255 255 255 255 255 255 255 255 255 255 255 255 255 255 255 255 255 255 255 255 255 255 255 255 255 255 255 255 255 255 255 255 255 255 255 255 255 255 255 255 255 255 255 255 255 
255 255 255 255 255 255 255 255 255 255 255 255 255 255 255 255 255 255 255 255 255 255 255 255 255 255 255 255 255 255 255 255 255 255 255 255 255 255 255 255 255 255 255 255 255 255 255 255 255 255 255 255 255 255 254 253 254 253 255 253 253 254 254 253 254 254 254 253 253 254 254 253 254 253 254 252 253 254 254 254 254 253 254 255 253 254 254 253 254 254 253 254 254 254 255 253 254 254 253 255 255 253 253 255 253 254 253 253 255 253 254 254 253 253 254 254 254 253 254 255 254 254 253 254 253 255 255 254 253 255 254 253 254 254 254 252 253 255 253 255 253 254 253 254 254 248 1 1 0 0 0 0 0 0 0 0 0 0 0 0 0 0 0 0 0 0 0 0 0 0 0 0 0 0 0 0 0 0 0 0 0 0 0 0 0 0 0 0 0 1 0 0 0 0 0 0 0 0 0 0 0 0 0 0 0 0 0 0 0 0 0 0 0 0 0 0 0 1 0 158 254 253 255 254 254 253 253 254 253 254 255 254 253 253 254 255 253 163 0 0 0 0 0 0 0 0 0 0 0 0 0 0 0 1 0 0 0 0 0 0 1 0 0 0 0 0 0 0 0 0 0 0 0 0 0 0 0 0 0 0 0 0 0 0 0 0 0 0 0 0 0 0 0 0 0 0 0 0 0 0 0 0 0 0 0 0 0 0 0 1 0 235 254 254 253 254 255 254 253 254 254 253 254 254 254 253 255 255 253 255 254 255 254 254 254 253 254 255 255 254 252 254 254 254 255 254 254 254 254 253 254 254 254 254 254 254 253 255 253 254 253 253 254 254 253 253 254 253 254 254 254 254 253 254 253 253 253 253 255 254 254 254 252 253 255 254 254 254 253 255 255 253 253 253 255 255 253 254 254 253 254 255 255 255 255 255 255 255 255 255 255 255 255 255 255 255 255 255 255 255 255 255 255 255 255 255 255 255 255 255 255 255 255 255 255 255 255 255 255 255 255 255 255 255 255 255 255 255 255 255 255 255 255 255 255 
255 255 255 255 255 255 255 255 255 255 255 255 255 255 255 255 255 255 255 255 255 255 255 255 255 255 255 255 255 255 255 255 255 255 255 255 255 255 255 255 255 255 255 255 255 255 255 255 255 255 255 255 255 255 253 254 255 254 253 253 254 253 255 253 254 253 253 252 255 254 253 252 255 254 253 254 253 254 253 254 253 254 252 255 254 252 254 254 253 255 252 255 255 255 255 253 255 254 254 253 254 253 253 254 254 253 254 254 254 254 253 253 253 254 255 254 255 253 254 254 254 255 254 254 253 254 253 255 254 254 253 253 254 254 255 253 253 254 255 253 254 252 254 254 254 245 4 1 1 0 0 0 0 0 0 0 0 1 0 0 0 0 0 0 0 0 0 0 0 0 0 0 0 0 0 1 0 0 0 0 0 0 0 0 0 0 0 0 0 0 0 0 0 0 0 0 0 0 0 0 0 0 0 0 0 0 0 1 0 0 0 0 0 0 0 0 0 1 0 236 251 253 254 253 253 253 254 253 254 253 255 253 254 253 254 254 252 241 5 1 0 0 0 0 0 0 0 0 0 0 0 0 0 0 0 0 0 0 0 0 0 0 0 1 0 0 0 1 0 1 0 0 0 0 0 0 0 0 0 0 0 0 0 0 0 0 0 0 0 0 0 1 0 0 0 0 0 0 0 0 0 0 0 0 1 0 0 0 0 0 0 215 251 253 254 253 255 255 254 255 254 254 255 254 255 253 254 254 254 253 254 253 254 255 253 253 254 254 253 255 253 254 254 254 254 254 255 255 253 253 253 253 254 253 255 253 254 254 253 254 254 254 254 253 253 253 254 254 254 255 253 254 253 254 253 254 254 254 253 255 255 254 254 253 253 253 255 254 253 253 254 254 253 254 254 254 255 254 254 254 254 255 255 255 255 255 255 255 255 255 255 255 255 255 255 255 255 255 255 255 255 255 255 255 255 255 255 255 255 255 255 255 255 255 255 255 255 255 255 255 255 255 255 255 255 255 255 255 255 255 255 255 255 255 255 
255 255 255 255 255 255 255 255 255 255 255 255 255 255 255 255 255 255 255 255 255 255 255 255 255 255 255 255 255 255 255 255 255 255 255 255 255 255 255 255 255 255 255 255 255 255 255 255 255 255 255 255 255 255 253 254 255 254 253 254 253 253 254 255 255 253 255 253 254 253 254 254 253 255 254 254 254 254 253 253 254 255 253 253 253 253 254 255 253 253 254 253 253 253 254 254 254 254 255 253 255 253 253 254 253 253 254 254 254 254 254 253 253 253 253 254 253 254 255 253 254 255 254 253 254 253 253 252 254 253 253 254 254 254 253 253 253 253 255 254 254 253 254 254 255 179 0 0 0 0 0 0 0 0 0 0 0 0 0 0 0 0 0 0 0 0 0 0 0 0 0 0 0 0 0 0 0 0 1 0 0 0 0 0 0 0 0 1 0 0 0 0 0 0 0 0 0 0 0 0 0 0 0 0 0 0 0 0 0 1 0 0 0 1 0 0 0 0 19 254 254 253 253 254 254 254 255 253 255 254 255 253 255 254 254 252 253 250 14 1 0 0 0 0 1 0 0 0 0 0 0 0 0 0 0 0 0 0 0 0 0 0 0 0 0 0 0 0 0 0 0 0 0 0 0 0 0 0 0 0 0 0 0 0 0 0 0 0 0 0 0 0 0 0 0 0 0 0 0 0 0 0 0 0 0 1 0 0 0 0 0 141 254 254 253 253 255 254 255 254 254 254 254 254 254 254 254 253 254 254 254 254 253 255 253 254 254 253 254 254 254 253 253 254 254 255 254 253 254 253 254 253 254 254 253 253 255 254 252 255 254 254 255 252 254 253 253 255 253 254 254 254 254 253 254 254 255 254 253 255 255 255 255 254 253 253 254 253 254 253 254 254 254 255 253 253 255 253 254 254 254 255 255 255 255 255 255 255 255 255 255 255 255 255 255 255 255 255 255 255 255 255 255 255 255 255 255 255 255 255 255 255 255 255 255 255 255 255 255 255 255 255 255 255 255 255 255 255 255 255 255 255 255 255 255 
255 255 255 255 255 255 255 255 255 255 255 255 255 255 255 255 255 255 255 255 255 255 255 255 255 255 255 255 255 255 255 255 255 255 255 255 255 255 255 255 255 255 255 255 255 255 255 255 255 255 255 255 255 255 253 255 254 254 253 254 253 255 253 254 255 253 253 254 253 254 254 255 253 255 254 253 255 254 254 253 255 254 254 253 253 253 254 253 253 253 254 253 253 254 254 253 254 255 253 254 255 253 254 254 253 253 253 253 253 253 255 254 253 253 253 253 253 254 254 252 253 255 254 254 255 254 254 252 254 253 254 253 253 255 253 254 254 253 253 254 254 254 253 255 255 121 0 1 0 1 0 1 0 1 0 0 0 0 0 0 0 0 0 0 0 0 0 0 0 0 0 0 1 0 0 0 0 0 0 0 0 0 0 0 0 0 0 0 0 0 0 0 0 0 0 0 0 0 0 0 0 0 0 0 0 0 0 0 0 0 0 0 0 0 0 0 0 1 51 255 254 254 252 254 254 255 254 254 253 253 254 255 254 255 254 252 255 255 75 1 0 0 0 0 0 0 0 0 0 0 0 0 0 0 0 0 0 0 0 0 0 0 0 0 0 0 0 0 0 0 0 0 0 0 0 0 0 0 0 0 0 0 0 0 0 0 0 0 0 0 0 0 0 0 0 0 0 0 0 0 0 0 1 0 0 0 0 0 0 0 0 94 255 254 254 255 254 254 254 254 254 253 254 254 254 254 254 255 253 254 255 255 254 252 253 254 254 253 254 253 254 254 254 254 254 254 253 254 254 253 253 253 253 254 253 254 253 254 254 252 254 253 254 252 254 255 253 254 254 255 255 253 255 253 254 254 255 253 253 254 254 255 255 254 253 254 253 254 254 253 254 254 255 254 254 254 253 253 254 253 254 255 255 255 255 255 255 255 255 255 255 255 255 255 255 255 255 255 255 255 255 255 255 255 255 255 255 255 255 255 255 255 255 255 255 255 255 255 255 255 255 255 255 255 255 255 255 255 255 255 255 255 255 255 255 
255 255 255 255 255 255 255 255 255 255 255 255 255 255 255 255 255 255 255 255 255 255 255 255 255 255 255 255 255 255 255 255 255 255 255 255 255 255 255 255 255 255 255 255 255 255 255 255 255 255 255 255 255 255 254 255 254 254 254 253 254 254 254 254 253 253 254 255 253 255 254 255 254 254 253 254 254 255 254 252 254 253 255 253 254 253 253 254 254 253 253 254 253 254 255 253 254 254 253 255 254 253 255 253 254 254 254 254 253 253 254 255 254 254 254 253 254 253 253 254 254 254 254 255 253 255 254 254 254 254 254 254 253 254 253 254 254 253 254 254 253 254 254 254 255 61 2 0 0 0 0 0 0 0 0 0 0 0 0 0 0 0 0 0 0 0 0 0 0 0 0 0 0 0 0 0 0 0 0 0 0 0 0 0 0 0 0 0 0 0 0 1 0 0 0 0 0 0 0 0 0 0 0 0 0 0 0 0 0 0 0 0 0 0 0 0 0 0 142 254 255 255 253 254 255 254 254 254 254 252 254 255 254 255 254 252 255 254 172 0 0 0 0 0 0 0 0 0 0 0 0 0 0 0 0 0 0 1 0 0 1 0 0 1 0 0 1 0 0 0 0 0 0 0 1 0 0 0 0 0 0 0 0 0 0 0 0 0 0 0 0 1 0 0 0 0 0 0 0 0 0 0 0 0 0 0 0 0 0 0 1 34 255 254 255 253 254 254 253 254 255 254 254 254 254 254 253 254 254 252 255 253 254 254 253 254 254 254 253 254 254 254 254 255 254 254 253 254 254 253 253 254 253 254 253 254 253 254 253 252 254 254 253 254 253 255 253 254 254 254 253 253 254 254 254 254 254 254 252 254 253 254 254 255 253 255 254 254 255 253 253 254 255 254 254 255 254 254 255 254 254 255 255 255 255 255 255 255 255 255 255 255 255 255 255 255 255 255 255 255 255 255 255 255 255 255 255 255 255 255 255 255 255 255 255 255 255 255 255 255 255 255 255 255 255 255 255 255 255 255 255 255 255 255 255 
255 255 255 255 255 255 255 255 255 255 255 255 255 255 255 255 255 255 255 255 255 255 255 255 255 255 255 255 255 255 255 255 255 255 255 255 255 255 255 255 255 255 255 255 255 255 255 255 255 255 255 255 255 255 255 253 254 255 254 254 254 254 254 254 254 254 255 255 254 255 253 255 253 254 254 255 254 254 253 253 254 254 254 254 255 254 253 254 254 254 252 255 254 253 253 254 253 253 254 254 254 254 254 253 253 255 254 254 254 253 253 255 255 253 254 253 254 253 254 255 254 254 253 253 254 254 253 254 254 255 254 255 253 253 254 254 253 253 255 254 254 255 255 253 253 15 1 0 0 0 0 0 0 0 0 0 0 0 0 0 0 0 0 0 0 0 0 0 0 0 0 0 0 0 0 0 0 1 0 0 0 0 0 0 0 0 0 0 0 0 0 0 0 0 0 0 0 0 0 0 0 0 0 0 0 0 0 0 0 0 0 0 0 1 0 1 0 0 205 254 255 255 254 254 253 254 254 253 254 254 254 254 253 255 254 253 254 255 203 0 0 0 0 0 0 0 0 0 0 0 0 0 0 0 0 0 0 0 0 0 0 0 0 0 0 0 0 1 0 0 0 0 0 0 0 0 0 0 0 0 0 0 0 0 0 0 0 0 0 0 0 0 0 0 0 0 0 0 0 0 0 0 0 0 0 0 0 0 0 0 0 3 240 254 255 254 253 255 254 254 254 254 254 254 254 254 253 253 254 253 254 253 254 254 255 254 254 253 253 253 253 253 254 254 254 255 254 254 255 253 253 255 253 255 254 254 254 254 253 254 254 254 253 254 253 254 254 254 254 254 254 254 253 254 253 254 253 254 253 254 254 254 254 254 253 254 254 253 254 254 254 253 254 254 254 254 253 255 254 254 255 255 255 255 255 255 255 255 255 255 255 255 255 255 255 255 255 255 255 255 255 255 255 255 255 255 255 255 255 255 255 255 255 255 255 255 255 255 255 255 255 255 255 255 255 255 255 255 255 255 255 255 255 255 255 
255 255 255 255 255 255 255 255 255 255 255 255 255 255 255 255 255 255 255 255 255 255 255 255 255 255 255 255 255 255 255 255 255 255 255 255 255 255 255 255 255 255 255 255 255 255 255 255 255 255 255 255 255 255 254 253 255 255 254 253 255 253 255 253 255 254 255 253 255 252 254 253 254 254 255 254 254 254 254 253 254 255 253 254 253 255 254 253 253 254 253 255 255 254 253 254 253 253 254 255 254 254 255 253 254 253 253 253 255 254 254 254 255 254 255 253 254 253 254 255 253 254 254 254 254 253 254 254 253 254 253 253 254 254 254 255 253 254 253 253 254 254 255 254 245 1 1 0 0 1 0 0 0 0 0 0 0 0 0 0 0 0 0 0 0 0 0 0 0 0 0 0 1 0 0 0 0 0 0 0 0 0 0 0 0 0 0 0 0 0 0 0 0 0 0 0 0 0 0 0 0 0 0 0 0 0 0 0 0 0 0 0 0 0 0 1 3 0 231 254 255 255 255 253 253 253 253 253 253 255 253 253 253 255 254 255 255 252 253 8 0 0 0 0 0 0 0 0 0 0 0 0 0 0 0 0 0 0 0 0 0 0 0 0 0 0 0 0 0 0 0 0 1 0 0 0 0 0 0 0 0 0 0 0 0 0 0 0 0 0 0 0 0 0 0 0 0 0 0 0 0 0 0 0 0 0 0 0 0 0 0 0 229 252 253 254 255 253 254 255 253 253 254 254 254 254 252 254 253 255 254 254 255 253 253 254 255 254 254 254 253 255 254 255 254 254 253 253 253 253 254 255 253 254 254 255 254 254 254 255 254 254 253 253 254 254 254 254 255 254 254 253 253 254 253 254 254 253 255 253 254 254 254 252 253 254 253 254 255 254 254 253 253 254 254 254 254 254 253 255 254 255 255 255 255 255 255 255 255 255 255 255 255 255 255 255 255 255 255 255 255 255 255 255 255 255 255 255 255 255 255 255 255 255 255 255 255 255 255 255 255 255 255 255 255 255 255 255 255 255 255 255 255 255 255 
255 255 255 255 255 255 255 255 255 255 255 255 255 255 255 255 255 255 255 255 255 255 255 255 255 255 255 255 255 255 255 255 255 255 255 255 255 255 255 255 255 255 255 255 255 255 255 255 255 255 255 255 255 255 254 253 255 253 252 254 253 255 254 253 254 254 253 254 255 254 253 254 253 253 254 254 254 254 254 253 254 253 254 253 254 254 255 253 254 253 254 253 253 253 253 254 253 254 254 253 254 254 254 254 255 254 254 254 253 254 254 254 255 254 254 255 252 253 254 253 253 253 255 254 254 254 254 254 253 255 254 254 254 255 254 254 254 255 253 253 253 253 255 254 177 0 0 0 0 0 0 0 0 0 0 0 0 0 0 0 0 0 0 0 0 0 0 0 0 0 0 0 0 0 0 0 0 0 0 0 0 0 0 0 0 0 0 0 0 0 0 0 0 0 0 0 1 0 0 0 0 0 1 0 0 0 0 0 0 0 0 0 0 0 0 0 4 29 255 252 255 255 255 254 254 253 253 253 253 255 254 253 254 254 255 255 255 252 255 35 0 0 0 0 0 0 0 0 0 0 0 0 0 0 0 0 0 0 0 0 0 0 0 0 0 0 0 0 0 0 0 0 0 0 0 0 0 0 0 0 0 0 0 0 0 0 0 0 0 0 0 0 0 0 0 0 0 0 0 0 0 0 0 0 0 0 0 0 0 0 0 0 154 255 255 253 255 254 253 255 254 253 255 255 254 255 254 252 253 254 253 254 255 253 254 253 255 255 254 255 254 255 254 253 254 254 253 253 254 253 254 253 254 255 253 254 254 253 253 253 254 254 254 255 255 253 254 253 254 254 255 253 255 254 253 253 255 253 253 253 254 253 253 254 254 254 253 254 253 254 255 253 254 254 254 254 255 254 253 254 254 255 255 255 255 255 255 255 255 255 255 255 255 255 255 255 255 255 255 255 255 255 255 255 255 255 255 255 255 255 255 255 255 255 255 255 255 255 255 255 255 255 255 255 255 255 255 255 255 255 255 255 255 255 255 
255 255 255 255 255 255 255 255 255 255 255 255 255 255 255 255 255 255 255 255 255 255 255 255 255 255 255 255 255 255 255 255 255 255 255 255 255 255 255 255 255 255 255 255 255 255 255 255 255 255 255 255 255 255 254 254 254 254 253 254 252 254 254 254 253 254 253 255 253 253 254 253 254 253 254 254 254 254 254 254 254 254 254 253 255 254 253 254 254 254 255 254 254 254 254 255 254 254 254 254 253 254 253 254 255 254 255 254 254 254 253 255 254 254 253 255 253 254 254 253 253 253 254 253 255 254 254 254 254 253 255 255 254 253 253 253 255 255 254 253 253 253 255 255 145 0 0 0 0 0 0 0 0 0 0 0 0 0 0 0 0 0 0 0 0 0 0 1 0 0 0 0 0 0 0 0 0 0 0 0 0 0 0 0 0 0 0 0 0 0 0 0 0 0 0 0 0 0 0 0 0 0 0 0 0 0 0 0 0 0 0 0 0 0 0 0 0 92 255 253 255 254 255 254 253 254 254 253 255 254 255 254 253 254 255 254 255 253 255 83 2 1 0 0 0 0 0 0 0 0 0 0 0 0 0 1 0 0 0 0 0 0 1 0 0 0 0 0 0 0 0 0 0 0 0 0 0 0 0 0 0 0 0 0 0 0 0 0 0 0 0 0 0 0 0 0 0 0 0 0 0 0 0 0 0 0 0 0 0 0 0 0 130 255 255 253 255 253 254 253 255 254 255 254 253 253 255 253 253 255 255 254 253 253 255 254 253 254 253 254 252 253 255 253 254 254 254 253 254 253 253 254 253 254 254 255 254 254 253 254 255 253 255 254 255 253 254 254 254 254 254 254 255 254 254 253 253 254 254 252 254 253 253 255 253 255 254 254 253 253 254 255 254 255 254 254 254 254 253 254 254 255 255 255 255 255 255 255 255 255 255 255 255 255 255 255 255 255 255 255 255 255 255 255 255 255 255 255 255 255 255 255 255 255 255 255 255 255 255 255 255 255 255 255 255 255 255 255 255 255 255 255 255 255 255 
255 255 255 255 255 255 255 255 255 255 255 255 255 255 255 255 255 255 255 255 255 255 255 255 255 255 255 255 255 255 255 255 255 255 255 255 255 255 255 255 255 255 255 255 255 255 255 255 255 255 255 255 255 255 253 254 254 254 254 255 253 254 255 254 255 254 255 253 255 253 254 254 255 253 255 253 254 254 255 254 254 255 254 255 253 253 254 254 253 254 253 254 254 255 253 253 254 253 253 254 253 254 254 254 254 254 253 254 254 254 252 253 253 255 255 253 253 254 254 253 254 253 254 254 254 254 255 252 254 254 254 254 254 253 253 253 254 254 253 254 253 253 254 255 47 1 0 0 0 0 0 0 0 0 0 1 0 0 0 0 0 0 0 0 0 0 0 0 0 0 0 0 0 0 0 0 0 0 0 0 1 0 0 0 0 0 0 0 0 0 0 0 0 0 0 1 0 0 0 0 0 0 0 0 0 0 0 0 0 0 0 0 0 0 0 0 0 170 254 253 253 254 255 253 254 254 254 255 255 254 253 254 253 254 254 255 255 253 251 195 0 1 0 0 0 0 0 0 1 0 0 0 1 0 0 0 0 0 0 0 0 0 0 0 0 0 0 0 0 0 0 0 0 0 0 0 0 0 0 0 0 0 0 0 0 0 0 0 0 1 0 0 0 0 0 0 0 0 0 0 0 0 0 0 0 0 0 0 0 0 0 1 29 255 255 253 254 253 254 253 255 254 255 255 253 254 255 254 253 253 254 253 253 255 254 253 255 253 254 254 253 253 254 254 253 254 254 253 254 254 253 255 253 255 254 254 253 253 254 255 254 253 253 253 253 253 255 253 255 254 255 254 253 254 255 253 253 254 253 253 254 253 254 254 254 253 254 255 255 253 253 254 254 253 254 255 254 255 254 254 254 255 255 255 255 255 255 255 255 255 255 255 255 255 255 255 255 255 255 255 255 255 255 255 255 255 255 255 255 255 255 255 255 255 255 255 255 255 255 255 255 255 255 255 255 255 255 255 255 255 255 255 255 255 255 
255 255 255 255 255 255 255 255 255 255 255 255 255 255 255 255 255 255 255 255 255 255 255 255 255 255 255 255 255 255 255 255 255 255 255 255 255 255 255 255 255 255 255 255 255 255 255 255 255 255 255 255 255 255 254 253 254 253 254 255 254 254 254 252 253 255 254 254 255 253 254 254 254 254 253 253 254 253 253 254 253 255 254 254 254 253 254 254 253 255 253 253 254 254 254 253 254 254 253 254 253 254 254 254 254 253 254 255 254 254 253 253 254 253 253 255 253 253 255 254 254 253 253 254 254 255 253 254 253 254 254 254 254 252 254 253 254 255 253 254 255 254 252 255 32 0 0 0 0 0 0 0 0 0 0 0 0 0 0 0 0 0 0 0 0 0 0 0 0 0 0 0 0 0 1 0 0 0 0 0 1 0 0 0 0 0 0 0 0 0 0 0 0 0 0 0 0 0 0 0 0 0 0 0 0 0 0 0 0 0 0 0 0 0 0 0 2 241 253 252 253 253 253 253 255 255 254 254 254 254 254 254 254 255 254 254 253 252 253 209 0 2 0 0 0 0 0 0 0 0 0 0 0 0 0 0 0 0 0 0 0 0 0 0 0 0 0 0 0 0 0 0 0 0 0 0 0 0 0 0 0 0 0 0 0 0 0 0 0 0 0 0 0 0 0 0 0 0 0 0 0 0 0 0 0 0 0 0 0 0 0 1 28 255 255 255 254 253 253 254 253 253 255 255 253 254 255 253 254 253 255 254 254 254 253 253 255 253 255 253 254 253 253 253 254 253 253 253 254 254 253 253 254 253 253 255 254 253 254 252 254 253 253 253 253 253 254 253 254 254 254 254 253 255 255 254 254 253 253 255 255 253 254 254 255 254 253 254 254 253 253 253 254 254 254 253 254 255 253 253 254 255 255 255 255 255 255 255 255 255 255 255 255 255 255 255 255 255 255 255 255 255 255 255 255 255 255 255 255 255 255 255 255 255 255 255 255 255 255 255 255 255 255 255 255 255 255 255 255 255 255 255 255 255 255 
255 255 255 255 255 255 255 255 255 255 255 255 255 255 255 255 255 255 255 255 255 255 255 255 255 255 255 255 255 255 255 255 255 255 255 255 255 255 255 255 255 255 255 255 255 255 255 255 255 255 255 255 255 255 255 255 255 254 255 253 255 254 255 253 254 254 254 254 253 254 254 254 253 253 254 254 254 254 254 255 253 255 254 254 254 254 253 254 254 253 253 255 253 254 254 254 252 253 253 254 255 253 253 254 254 255 253 254 254 254 254 253 253 253 253 255 255 253 254 254 255 254 253 254 254 255 254 255 253 254 254 253 253 253 254 255 255 253 253 253 254 254 250 235 0 1 0 0 0 0 0 0 0 0 0 0 0 0 0 1 0 0 0 0 0 0 0 0 0 0 0 0 0 0 0 0 0 0 0 0 0 0 0 0 0 0 0 0 1 0 0 0 0 0 0 0 0 0 0 0 0 0 0 0 0 0 0 0 0 0 0 0 0 0 0 0 14 251 254 253 253 253 253 253 254 254 254 254 255 254 254 255 254 254 254 253 253 254 253 255 16 3 0 0 0 0 0 0 0 0 0 0 0 0 0 0 0 0 0 0 0 0 0 0 0 0 0 0 0 0 0 0 0 0 0 0 0 0 0 0 0 0 0 0 0 0 0 1 0 0 0 0 0 0 0 0 0 0 0 0 0 0 0 0 0 0 0 0 0 0 0 0 0 219 253 255 253 253 253 255 253 253 254 253 253 254 255 254 254 255 253 254 253 254 255 253 255 253 253 254 253 255 254 253 254 253 253 253 254 255 253 253 254 254 254 253 254 254 254 253 254 253 254 254 254 254 253 254 253 253 253 255 253 255 253 255 253 253 253 254 253 253 253 254 255 254 254 253 254 253 253 255 254 254 255 254 253 254 253 254 253 255 255 255 255 255 255 255 255 255 255 255 255 255 255 255 255 255 255 255 255 255 255 255 255 255 255 255 255 255 255 255 255 255 255 255 255 255 255 255 255 255 255 255 255 255 255 255 255 255 255 255 255 255 255 
255 255 255 255 255 255 255 255 255 255 255 255 255 255 255 255 255 255 255 255 255 255 255 255 255 255 255 255 255 255 255 255 255 255 255 255 255 255 255 255 255 255 255 255 255 255 255 255 255 255 255 255 255 255 253 255 253 255 254 254 254 253 254 254 254 253 254 253 255 254 253 254 253 253 253 254 254 254 253 254 254 253 253 253 253 253 254 253 253 254 255 254 254 254 255 253 253 253 254 253 253 253 253 254 253 255 253 254 255 253 253 255 253 255 253 254 255 255 253 254 254 254 254 254 254 255 255 253 255 254 254 255 254 254 254 254 254 254 253 253 255 254 253 211 0 0 0 1 0 0 0 0 0 0 0 0 0 0 0 0 0 0 0 0 0 0 0 0 0 0 0 0 0 0 0 0 0 0 0 0 0 0 0 0 0 0 0 0 0 0 0 0 0 0 0 0 0 0 0 0 0 0 0 0 0 0 0 0 0 0 0 0 0 0 0 1 39 255 254 255 253 254 253 254 253 254 254 254 253 254 253 254 254 254 254 252 253 254 255 255 35 1 0 0 0 0 0 0 0 0 0 0 0 0 0 0 0 0 0 0 0 0 1 0 0 0 0 0 0 1 0 0 0 0 0 0 0 0 0 0 0 0 0 0 0 0 0 0 0 0 0 0 0 0 0 0 0 0 0 0 0 0 0 0 0 0 0 0 0 0 0 0 0 207 252 255 253 254 254 254 254 253 255 253 255 253 253 254 253 255 253 254 253 254 255 253 253 253 253 253 253 253 253 254 254 253 254 254 254 254 254 255 253 253 254 253 254 255 253 253 255 253 253 253 254 254 253 253 253 253 255 255 253 254 254 254 253 254 253 254 254 252 253 253 253 254 253 254 253 254 253 254 253 254 254 255 254 254 254 254 254 255 255 255 255 255 255 255 255 255 255 255 255 255 255 255 255 255 255 255 255 255 255 255 255 255 255 255 255 255 255 255 255 255 255 255 255 255 255 255 255 255 255 255 255 255 255 255 255 255 255 255 255 255 255 
255 255 255 255 255 255 255 255 255 255 255 255 255 255 255 255 255 255 255 255 255 255 255 255 255 255 255 255 255 255 255 255 255 255 255 255 255 255 255 255 255 255 255 255 255 255 255 255 255 255 255 255 255 255 254 253 255 254 254 253 254 254 253 254 254 254 254 253 254 255 253 254 253 255 254 253 254 253 253 255 254 253 253 253 253 254 254 254 253 254 253 253 255 254 254 254 254 254 253 253 253 255 254 254 254 254 255 253 253 253 253 253 253 254 254 255 253 253 253 253 254 254 253 253 254 254 254 254 254 255 253 253 254 253 254 255 254 254 254 254 255 254 255 141 0 0 0 0 0 0 0 0 0 0 0 0 0 0 0 0 0 0 0 0 0 0 0 0 0 0 0 0 0 0 0 0 0 0 0 0 0 0 0 0 0 0 0 0 0 0 0 0 0 0 0 0 0 0 0 0 0 0 0 0 0 0 0 0 0 0 0 0 0 0 0 0 106 255 255 255 253 253 253 253 253 254 254 255 254 254 253 255 254 254 254 254 253 253 255 255 106 0 0 0 0 0 0 1 0 0 0 0 0 0 0 0 0 0 0 0 0 0 0 0 0 0 0 0 0 0 0 1 0 0 0 0 0 0 0 0 0 0 0 0 0 0 0 0 0 0 0 0 0 0 0 0 0 0 0 0 0 0 0 0 0 0 0 0 0 0 0 0 1 110 255 255 255 253 254 253 254 254 254 254 255 255 253 254 253 254 253 254 255 253 253 255 253 254 254 253 253 253 253 254 254 254 253 253 254 253 255 253 253 254 254 254 253 253 253 253 254 254 253 253 253 254 253 253 253 254 254 253 254 255 254 255 254 255 254 254 254 253 253 253 255 254 254 254 253 253 254 254 254 254 254 255 254 255 255 254 254 255 255 255 255 255 255 255 255 255 255 255 255 255 255 255 255 255 255 255 255 255 255 255 255 255 255 255 255 255 255 255 255 255 255 255 255 255 255 255 255 255 255 255 255 255 255 255 255 255 255 255 255 255 255 
255 255 255 255 255 255 255 255 255 255 255 255 255 255 255 255 255 255 255 255 255 255 255 255 255 255 255 255 255 255 255 255 255 255 255 255 255 255 255 255 255 255 255 255 255 255 255 255 255 255 255 255 255 255 253 254 253 254 254 254 254 253 254 254 252 254 253 253 254 255 254 254 254 253 253 254 254 254 253 254 253 255 253 255 254 253 254 254 254 254 254 253 253 254 254 255 255 253 254 253 254 253 253 253 254 253 253 254 253 254 254 252 254 253 254 254 254 253 253 253 253 254 254 253 255 254 253 254 254 254 253 254 255 254 254 255 253 253 253 254 254 255 255 65 0 1 0 0 0 0 0 0 0 0 0 0 0 0 0 0 0 0 0 0 0 1 0 0 0 0 0 0 0 0 0 1 0 0 0 0 0 0 0 0 0 0 0 0 0 0 0 0 0 0 0 0 0 0 0 0 0 0 0 0 0 0 0 0 0 0 0 0 0 0 0 0 151 255 255 255 255 254 253 253 254 254 253 253 254 253 254 255 253 255 254 255 253 253 255 254 192 0 0 0 0 0 0 0 0 0 1 0 0 0 0 0 0 0 0 0 0 0 0 0 0 0 0 0 0 0 0 0 0 0 0 0 0 0 0 0 0 0 0 0 0 1 0 0 0 0 0 0 0 0 0 0 0 0 0 0 0 0 0 0 0 0 0 0 0 0 0 0 0 62 255 254 255 253 253 253 253 254 253 253 254 255 253 253 254 254 253 253 253 254 254 253 254 254 253 255 254 254 254 254 253 254 253 253 255 254 255 253 255 253 255 253 253 253 253 253 254 254 254 253 253 254 253 254 255 254 253 254 254 254 253 254 253 254 255 254 254 254 254 254 254 253 255 253 253 255 255 253 253 254 254 254 253 255 255 254 254 255 255 255 255 255 255 255 255 255 255 255 255 255 255 255 255 255 255 255 255 255 255 255 255 255 255 255 255 255 255 255 255 255 255 255 255 255 255 255 255 255 255 255 255 255 255 255 255 255 255 255 255 255 255 
255 255 255 255 255 255 255 255 255 255 255 255 255 255 255 255 255 255 255 255 255 255 255 255 255 255 255 255 255 255 255 255 255 255 255 255 255 255 255 255 255 255 255 255 255 255 255 255 255 255 255 255 255 255 253 253 254 255 254 254 254 254 253 254 253 254 254 253 255 253 255 253 254 253 253 253 254 253 253 253 254 255 253 255 254 255 255 253 254 255 253 254 254 254 254 253 253 254 253 253 254 253 253 253 254 253 253 254 253 253 253 254 255 254 253 254 253 253 254 254 254 254 255 255 253 253 254 253 254 253 254 254 254 255 255 255 253 253 254 254 255 254 255 32 1 0 1 0 0 0 0 0 0 0 0 0 0 0 0 0 0 0 0 0 0 0 0 0 0 0 0 0 0 0 0 0 0 0 0 0 0 0 0 0 0 0 0 0 0 0 0 0 0 0 0 0 0 0 0 0 0 0 0 0 0 0 0 0 0 0 0 0 0 0 0 0 228 252 255 255 255 253 253 253 253 253 253 253 254 254 254 254 254 254 254 254 255 253 253 254 211 0 0 0 0 0 0 0 0 0 0 0 0 0 0 0 0 0 0 0 0 0 0 0 0 0 0 0 0 0 0 0 0 0 0 0 0 0 0 0 0 0 0 0 0 0 0 0 0 0 0 0 0 0 0 0 0 0 0 0 0 0 0 0 0 0 0 0 0 0 0 0 1 20 255 254 255 253 253 254 255 254 254 253 254 253 255 253 255 254 255 253 253 253 254 253 253 253 254 253 255 254 254 253 253 254 253 253 254 254 253 253 253 255 254 253 253 255 253 253 253 254 253 254 254 255 254 254 253 254 253 253 254 254 254 253 254 254 255 253 254 254 255 253 254 254 254 253 253 253 254 255 252 255 254 254 254 253 254 253 254 255 255 255 255 255 255 255 255 255 255 255 255 255 255 255 255 255 255 255 255 255 255 255 255 255 255 255 255 255 255 255 255 255 255 255 255 255 255 255 255 255 255 255 255 255 255 255 255 255 255 255 255 255 255 
255 255 255 255 255 255 255 255 255 255 255 255 255 255 255 255 255 255 255 255 255 255 255 255 255 255 255 255 255 255 255 255 255 255 255 255 255 255 255 255 255 255 255 255 255 255 255 255 255 255 255 255 255 255 255 253 255 255 254 253 253 253 255 254 255 254 253 254 255 254 254 253 253 253 255 254 254 254 254 253 254 253 253 254 254 255 254 253 253 253 253 254 253 253 253 254 253 253 255 253 254 255 252 254 255 253 254 254 254 253 254 253 255 253 253 254 254 253 255 255 253 253 254 253 253 253 255 254 254 254 253 254 253 254 254 254 254 252 255 252 255 254 233 0 1 0 0 0 0 0 0 0 0 0 0 0 0 0 0 0 0 0 0 0 0 0 0 0 0 0 0 0 0 0 0 0 0 0 0 0 0 0 0 0 0 0 0 0 0 0 0 0 0 0 0 0 0 0 0 0 0 0 0 0 1 0 0 0 0 0 0 0 0 0 0 3 244 252 253 255 254 254 255 254 253 253 253 254 255 254 253 253 253 253 253 255 255 254 252 254 252 13 0 0 0 0 0 0 0 0 0 0 0 0 0 0 1 0 0 0 1 0 0 0 0 0 0 0 0 0 0 0 0 0 0 0 0 0 0 0 0 0 0 0 0 0 0 0 0 0 0 0 0 0 0 0 0 0 0 0 1 0 0 0 0 0 0 0 0 0 0 0 0 0 223 254 253 254 253 255 255 253 254 253 253 254 255 254 253 255 253 253 254 253 255 255 253 253 253 253 254 254 254 252 254 255 254 253 253 253 253 253 254 253 254 253 253 255 254 255 253 253 254 255 253 255 253 253 253 254 255 254 254 253 254 254 253 253 254 253 253 254 253 254 253 254 255 253 253 253 254 253 254 253 254 254 253 254 254 254 255 255 255 255 255 255 255 255 255 255 255 255 255 255 255 255 255 255 255 255 255 255 255 255 255 255 255 255 255 255 255 255 255 255 255 255 255 255 255 255 255 255 255 255 255 255 255 255 255 255 255 255 255 255 255 
255 255 255 255 255 255 255 255 255 255 255 255 255 255 255 255 255 255 255 255 255 255 255 255 255 255 255 255 255 255 255 255 255 255 255 255 255 255 255 255 255 255 255 255 255 255 255 255 255 255 255 255 255 255 255 253 254 253 254 253 253 253 254 253 254 254 253 253 255 253 253 253 254 253 253 255 253 254 254 254 254 252 253 253 253 254 254 253 253 253 254 253 253 254 254 253 254 254 253 253 253 253 253 253 253 253 253 253 254 254 253 254 254 254 253 253 253 254 254 254 253 253 255 253 254 253 254 255 253 254 254 255 253 254 253 255 254 255 253 253 254 254 216 0 0 0 0 0 0 0 0 0 0 0 0 0 0 0 0 0 0 0 0 0 0 0 0 0 0 0 0 0 0 0 0 0 0 0 0 0 0 0 0 0 0 0 1 0 0 0 0 0 0 0 0 0 0 0 0 0 0 0 0 0 0 0 0 0 0 0 0 0 0 0 0 56 255 252 253 253 253 253 254 255 254 254 253 254 253 254 254 254 254 254 254 255 255 255 254 254 255 15 1 0 1 0 0 0 0 0 0 0 0 0 0 0 0 0 0 0 0 0 0 0 0 0 0 0 0 0 0 0 0 0 0 0 0 0 0 0 0 0 0 0 1 0 0 0 0 0 0 0 0 0 0 1 0 0 0 0 0 0 0 0 0 0 0 0 0 1 0 0 0 0 212 253 254 253 253 253 254 254 254 254 254 254 253 254 253 253 254 253 253 254 253 253 254 254 254 254 253 253 253 254 254 255 253 253 254 254 254 254 254 254 254 253 254 254 254 255 253 253 255 254 253 253 254 254 253 253 253 253 255 253 253 254 253 253 255 254 253 254 253 254 254 254 255 253 253 253 253 254 254 254 254 254 253 255 255 254 254 255 255 255 255 255 255 255 255 255 255 255 255 255 255 255 255 255 255 255 255 255 255 255 255 255 255 255 255 255 255 255 255 255 255 255 255 255 255 255 255 255 255 255 255 255 255 255 255 255 255 255 255 255 255 
255 255 255 255 255 255 255 255 255 255 255 255 255 255 255 255 255 255 255 255 255 255 255 255 255 255 255 255 255 255 255 255 255 255 255 255 255 255 255 255 255 255 255 255 255 255 255 255 255 255 255 255 255 255 255 254 255 252 255 253 254 254 254 253 253 253 255 254 254 253 253 253 253 254 253 255 253 254 253 253 255 254 255 254 253 253 254 254 254 253 253 252 254 253 255 255 254 254 254 254 252 253 255 253 252 255 253 253 253 255 254 254 253 255 254 254 253 254 254 253 254 254 253 253 253 253 254 255 253 253 255 253 254 254 254 255 254 253 254 254 254 254 135 0 0 0 0 0 1 0 0 0 0 0 0 0 0 0 0 0 0 0 0 0 0 0 0 0 1 0 0 0 0 0 0 0 0 0 0 0 0 0 0 0 0 0 0 0 0 0 0 0 1 0 0 0 0 0 0 0 0 0 0 0 0 0 0 0 0 0 0 0 0 0 0 49 255 255 253 253 253 253 253 255 253 255 253 253 253 254 254 255 254 254 253 255 255 255 255 255 255 76 0 0 0 0 0 0 0 0 0 0 0 0 0 0 0 0 0 0 0 0 0 0 0 0 0 0 0 0 0 0 0 0 0 0 0 0 0 0 0 0 0 0 0 0 0 0 1 0 0 0 0 0 0 0 0 0 0 0 0 0 0 0 0 0 0 0 0 0 0 0 0 0 125 255 253 254 254 254 255 253 255 254 255 253 253 254 254 253 253 253 254 255 254 253 255 253 254 254 254 254 253 254 254 253 253 254 255 255 255 253 254 253 254 253 254 253 253 253 253 253 255 253 253 252 255 255 253 253 254 252 254 253 253 254 254 254 254 253 254 254 254 253 254 255 253 253 254 253 254 253 254 254 254 253 253 255 255 254 254 255 255 255 255 255 255 255 255 255 255 255 255 255 255 255 255 255 255 255 255 255 255 255 255 255 255 255 255 255 255 255 255 255 255 255 255 255 255 255 255 255 255 255 255 255 255 255 255 255 255 255 255 255 255 
255 255 255 255 255 255 255 255 255 255 255 255 255 255 255 255 255 255 255 255 255 255 255 255 255 255 255 255 255 255 255 255 255 255 255 255 255 255 255 255 255 255 255 255 255 255 255 255 255 255 255 255 255 255 254 253 254 254 254 252 254 255 255 254 255 254 254 252 255 254 253 254 253 253 254 254 253 253 254 254 254 254 254 254 254 253 254 253 254 254 253 254 253 253 253 255 254 254 255 253 253 254 255 253 253 255 254 254 254 253 254 254 253 253 253 254 254 254 254 254 254 255 253 254 254 254 253 253 255 254 254 254 255 255 254 255 254 253 255 254 253 255 108 0 0 0 0 0 1 0 0 0 0 0 0 0 0 0 0 0 0 0 0 0 0 0 0 0 0 0 0 0 0 0 0 0 0 0 0 0 0 0 0 0 0 0 0 0 0 0 0 0 0 0 0 0 0 0 0 0 0 0 0 0 0 0 0 0 0 0 0 0 0 0 0 162 255 255 252 254 254 252 254 254 253 254 253 253 254 254 254 254 255 253 253 253 253 254 255 255 255 120 0 0 0 0 0 0 0 0 0 0 0 0 0 0 0 0 0 0 0 0 0 0 0 0 0 0 0 0 0 0 0 0 0 0 0 0 1 0 1 0 0 0 0 0 0 0 0 0 0 0 0 0 0 0 0 0 0 0 0 0 0 0 0 0 0 0 0 0 0 0 0 0 100 255 254 254 254 254 254 253 254 254 255 253 253 253 255 254 254 254 254 252 255 253 254 254 253 253 255 253 255 253 254 254 254 253 255 254 255 253 254 253 253 254 253 254 253 253 254 253 255 254 252 254 254 254 254 254 254 254 253 254 252 254 255 253 254 253 255 254 254 253 255 254 253 254 254 253 254 253 254 254 255 253 253 253 254 254 254 255 255 255 255 255 255 255 255 255 255 255 255 255 255 255 255 255 255 255 255 255 255 255 255 255 255 255 255 255 255 255 255 255 255 255 255 255 255 255 255 255 255 255 255 255 255 255 255 255 255 255 255 255 255 
255 255 255 255 255 255 255 255 255 255 255 255 255 255 255 255 255 255 255 255 255 255 255 255 255 255 255 255 255 255 255 255 255 255 255 255 255 255 255 255 255 255 255 255 255 255 255 255 255 255 255 255 255 255 253 254 254 254 254 254 254 255 254 255 254 255 254 253 253 255 253 254 254 254 253 254 253 253 253 255 253 255 252 254 254 253 254 253 254 254 253 253 253 255 254 253 255 254 254 253 254 254 254 253 254 253 255 254 254 254 254 254 253 253 254 253 255 253 253 254 255 254 254 254 255 254 253 253 255 255 253 255 254 254 254 255 253 255 254 254 253 255 28 2 0 0 0 0 0 0 0 0 0 0 0 0 0 0 0 0 0 0 0 0 0 1 0 0 0 0 0 0 0 0 0 0 0 0 0 0 0 0 0 0 0 0 0 0 0 0 0 0 0 0 0 0 0 0 0 0 0 0 0 0 0 0 0 0 0 0 0 0 0 0 0 165 255 254 253 253 253 253 253 253 255 254 255 253 253 253 254 254 253 253 253 253 253 255 255 253 251 204 0 0 0 0 0 0 0 0 0 0 0 0 0 0 0 0 0 0 0 0 0 0 0 0 0 0 0 0 0 0 0 0 0 0 0 0 0 0 0 0 0 0 0 0 0 0 0 0 0 0 0 0 0 0 0 0 0 0 0 0 0 0 0 0 0 0 0 0 0 0 0 1 14 252 254 255 254 254 253 255 254 254 254 253 254 252 255 254 255 255 253 254 253 253 255 254 254 253 252 254 253 254 254 254 254 254 253 253 252 253 254 254 253 255 254 255 254 254 254 254 254 253 254 254 254 253 253 253 254 255 254 254 254 254 254 253 254 253 254 254 254 254 254 253 254 255 254 253 254 254 253 255 253 254 254 254 255 255 254 255 255 255 255 255 255 255 255 255 255 255 255 255 255 255 255 255 255 255 255 255 255 255 255 255 255 255 255 255 255 255 255 255 255 255 255 255 255 255 255 255 255 255 255 255 255 255 255 255 255 255 255 255 255 
255 255 255 255 255 255 255 255 255 255 255 255 255 255 255 255 255 255 255 255 255 255 255 255 255 255 255 255 255 255 255 255 255 255 255 255 255 255 255 255 255 255 255 255 255 255 255 255 255 255 255 255 255 255 254 255 255 253 254 253 255 253 252 254 253 254 254 255 253 255 253 253 254 254 253 254 254 254 253 254 253 253 254 253 254 253 254 255 252 253 254 253 254 255 255 253 253 254 254 254 254 254 252 253 255 253 253 254 255 255 254 254 253 254 254 254 254 253 252 253 253 255 254 254 253 253 254 255 254 255 253 255 255 254 255 254 253 254 255 254 254 243 4 0 0 0 0 0 0 0 0 0 0 0 0 0 0 0 0 0 0 0 0 0 0 0 1 0 0 0 0 0 0 0 0 0 0 0 0 0 0 0 0 0 0 0 0 0 0 0 0 0 0 0 0 0 0 0 0 0 0 0 0 0 0 0 0 0 0 0 0 0 0 0 4 244 254 254 255 253 253 254 254 253 255 254 255 254 254 253 255 255 254 254 253 255 254 254 255 253 252 228 0 0 1 0 0 0 0 0 0 0 0 0 0 0 0 0 0 0 0 0 0 0 0 0 0 0 0 0 0 0 0 0 0 0 0 0 0 0 0 0 0 0 0 0 0 0 0 0 0 0 0 1 0 0 0 0 0 0 0 0 0 0 0 0 0 0 0 0 0 0 0 1 8 247 254 254 254 255 253 254 255 253 254 253 254 253 255 253 253 254 254 254 254 254 254 253 253 253 254 254 253 254 254 254 255 255 253 254 253 254 254 255 254 252 254 255 253 255 253 254 253 253 255 254 253 254 253 254 253 254 255 254 253 254 253 254 254 254 254 255 255 254 253 254 254 254 254 253 254 253 254 254 253 254 254 255 254 254 254 255 255 255 255 255 255 255 255 255 255 255 255 255 255 255 255 255 255 255 255 255 255 255 255 255 255 255 255 255 255 255 255 255 255 255 255 255 255 255 255 255 255 255 255 255 255 255 255 255 255 255 255 255 255 
255 255 255 255 255 255 255 255 255 255 255 255 255 255 255 255 255 255 255 255 255 255 255 255 255 255 255 255 255 255 255 255 255 255 255 255 255 255 255 255 255 255 255 255 255 255 255 255 255 255 255 255 255 255 254 254 254 254 253 254 254 253 254 253 253 253 253 255 254 253 253 254 252 254 254 253 253 255 254 255 254 253 254 253 254 254 254 253 253 253 253 255 255 254 253 253 254 254 254 254 254 253 253 254 253 253 253 254 255 255 253 254 253 255 253 255 254 255 253 254 253 253 254 254 253 253 255 253 254 253 253 254 255 255 255 254 253 254 255 255 254 220 0 0 0 1 0 0 0 0 0 0 0 0 0 0 0 0 0 0 0 0 0 0 0 0 0 0 0 0 0 0 0 0 0 0 0 0 0 1 0 0 0 0 0 0 0 0 0 0 0 0 0 0 0 0 0 0 0 0 0 0 0 0 0 0 0 0 0 0 0 0 0 1 5 247 252 255 255 254 253 253 255 254 253 254 252 253 254 253 255 253 254 255 253 255 255 254 254 254 253 255 28 1 0 1 0 0 0 0 0 0 0 0 0 0 0 0 0 0 0 0 0 0 0 0 0 0 0 0 0 0 0 0 0 0 0 0 0 0 0 0 0 0 0 0 0 0 0 0 0 0 0 0 0 0 0 0 0 0 0 0 0 0 0 0 0 0 0 0 0 0 0 0 0 200 253 255 253 254 254 254 255 253 255 255 255 253 254 253 254 253 253 254 255 254 253 255 253 254 255 254 254 254 255 254 253 253 255 255 254 252 254 253 254 253 253 253 253 254 254 255 253 254 254 255 254 255 253 254 253 254 253 254 253 253 253 254 253 255 255 255 254 254 254 252 254 254 254 253 254 253 253 255 253 253 255 253 255 253 254 255 255 255 255 255 255 255 255 255 255 255 255 255 255 255 255 255 255 255 255 255 255 255 255 255 255 255 255 255 255 255 255 255 255 255 255 255 255 255 255 255 255 255 255 255 255 255 255 255 255 255 255 255 255 
255 255 255 255 255 255 255 255 255 255 255 255 255 255 255 255 255 255 255 255 255 255 255 255 255 255 255 255 255 255 255 255 255 255 255 255 255 255 255 255 255 255 255 255 255 255 255 255 255 255 255 255 255 255 253 254 253 254 254 255 254 253 255 254 253 253 253 253 254 253 253 254 253 254 254 253 253 253 254 254 254 253 253 253 253 253 254 253 255 253 253 255 253 253 253 253 255 254 254 253 255 253 253 254 253 253 255 255 255 253 253 255 254 254 253 255 254 255 255 254 254 254 253 253 255 254 255 254 253 254 254 254 253 254 252 253 255 255 253 255 255 174 0 0 0 0 0 0 0 0 0 0 0 0 0 0 0 0 0 0 0 0 0 0 0 0 0 0 0 0 0 0 0 0 0 0 0 0 0 0 0 0 0 0 0 0 0 0 0 0 0 0 0 0 0 0 0 0 0 0 0 0 0 0 0 0 0 0 0 0 0 0 0 0 45 255 253 255 254 255 253 253 253 254 253 255 253 254 253 253 254 253 253 254 253 254 254 254 253 253 255 255 26 1 0 0 0 0 0 0 0 0 0 0 0 0 0 0 0 0 0 0 0 0 0 0 0 0 0 0 0 0 0 0 0 0 0 0 0 0 0 0 0 0 0 0 0 0 0 0 0 0 0 0 0 0 0 0 0 0 0 0 0 0 0 0 0 0 0 0 0 0 0 0 0 183 253 255 255 254 255 253 254 254 254 254 253 253 255 254 254 253 253 255 254 254 253 253 255 254 253 254 254 254 253 253 254 253 254 254 255 253 253 253 253 253 253 255 255 254 254 255 253 254 254 254 253 254 253 254 254 254 253 254 254 254 254 254 253 255 254 254 254 253 255 254 253 255 254 254 253 254 253 255 254 254 254 255 255 254 254 255 255 255 255 255 255 255 255 255 255 255 255 255 255 255 255 255 255 255 255 255 255 255 255 255 255 255 255 255 255 255 255 255 255 255 255 255 255 255 255 255 255 255 255 255 255 255 255 255 255 255 255 255 255 
255 255 255 255 255 255 255 255 255 255 255 255 255 255 255 255 255 255 255 255 255 255 255 255 255 255 255 255 255 255 255 255 255 255 255 255 255 255 255 255 255 255 255 255 255 255 255 255 255 255 255 255 255 255 254 253 254 253 253 254 253 253 255 254 255 254 255 253 254 254 254 253 255 253 254 255 254 254 253 253 253 254 253 255 253 253 253 253 255 254 255 255 254 253 253 254 253 253 255 253 253 254 254 254 254 254 253 254 253 254 255 254 253 253 254 253 254 253 254 255 253 253 254 254 255 254 255 254 254 254 255 254 255 254 253 253 254 254 254 254 255 120 0 0 0 0 0 0 0 0 0 0 0 0 0 0 0 0 0 0 0 0 0 0 0 0 0 0 0 0 0 0 0 0 0 0 0 0 0 0 0 0 0 0 0 0 0 0 0 0 0 0 0 0 0 0 0 0 0 0 0 0 0 0 0 0 0 0 0 0 0 0 0 0 86 255 254 253 255 253 253 253 253 254 255 253 254 254 254 253 255 255 255 254 254 253 255 255 253 253 255 255 133 0 0 0 0 0 0 0 0 0 1 0 1 0 0 0 0 1 0 1 0 0 0 0 0 0 0 0 0 0 0 0 0 0 1 0 0 0 0 0 0 0 0 0 0 0 0 0 0 0 0 0 0 0 0 0 0 0 0 0 0 0 0 0 0 0 1 0 0 0 0 0 1 69 255 255 253 253 253 253 255 254 254 254 253 253 254 254 254 255 253 253 255 254 254 253 254 254 254 254 254 253 254 252 254 253 253 254 254 255 253 255 253 253 255 254 254 254 255 253 254 254 254 255 253 254 254 253 254 255 253 254 253 254 254 254 255 253 253 254 254 254 254 254 254 254 254 253 254 255 255 255 254 254 254 255 255 254 254 255 255 255 255 255 255 255 255 255 255 255 255 255 255 255 255 255 255 255 255 255 255 255 255 255 255 255 255 255 255 255 255 255 255 255 255 255 255 255 255 255 255 255 255 255 255 255 255 255 255 255 255 255 255 
255 255 255 255 255 255 255 255 255 255 255 255 255 255 255 255 255 255 255 255 255 255 255 255 255 255 255 255 255 255 255 255 255 255 255 255 255 255 255 255 255 255 255 255 255 255 255 255 255 255 255 255 255 255 253 254 254 254 253 255 252 253 253 254 253 253 253 253 253 253 254 253 254 255 253 253 253 253 254 253 253 253 253 255 254 253 253 255 254 254 253 253 254 253 254 254 253 254 254 254 254 253 254 254 255 254 253 254 254 255 254 254 255 253 253 253 254 254 254 254 253 253 255 253 255 253 255 253 254 253 254 254 255 254 255 254 254 254 254 254 255 39 1 0 0 0 0 0 0 0 0 0 0 0 0 0 0 0 0 0 0 0 0 0 0 0 0 0 0 0 0 0 0 0 0 0 0 0 0 0 1 0 0 0 0 0 0 0 0 0 0 0 0 0 0 0 0 0 0 0 0 0 0 0 0 0 0 0 0 0 1 0 0 0 129 255 253 255 254 254 253 253 253 254 253 253 254 254 254 253 254 253 254 253 254 253 254 254 254 252 254 255 134 0 0 0 0 0 0 0 0 0 0 0 0 0 0 0 0 0 0 0 0 0 0 0 0 0 0 0 0 0 0 0 0 0 0 0 0 0 1 0 0 0 0 0 0 0 0 0 0 0 0 0 0 0 1 0 0 0 0 0 0 0 1 0 0 0 0 0 0 0 0 0 0 35 255 254 253 254 253 254 254 254 255 254 255 254 254 254 254 255 254 254 253 255 254 255 253 254 254 255 253 255 255 254 254 254 253 254 254 253 254 253 254 253 253 253 255 255 254 253 254 253 254 254 253 255 254 253 253 255 253 254 253 254 253 253 254 253 253 254 253 254 254 253 253 253 254 254 254 253 254 255 255 255 254 255 254 255 254 255 255 255 255 255 255 255 255 255 255 255 255 255 255 255 255 255 255 255 255 255 255 255 255 255 255 255 255 255 255 255 255 255 255 255 255 255 255 255 255 255 255 255 255 255 255 255 255 255 255 255 255 255 255 
255 255 255 255 255 255 255 255 255 255 255 255 255 255 255 255 255 255 255 255 255 255 255 255 255 255 255 255 255 255 255 255 255 255 255 255 255 255 255 255 255 255 255 255 255 255 255 255 255 255 255 255 255 255 253 253 253 254 255 255 253 254 253 253 255 253 253 254 254 254 252 254 255 255 254 255 254 253 254 255 254 253 254 253 253 253 253 255 254 255 255 254 253 255 254 253 254 254 254 255 254 255 253 254 254 254 254 253 253 255 253 253 254 254 253 254 254 253 253 255 254 253 253 253 254 253 253 255 253 254 254 254 255 253 253 254 255 253 255 254 255 19 1 0 0 0 0 0 0 0 0 0 0 0 0 0 0 0 0 0 0 0 0 0 0 0 0 0 0 0 0 0 0 0 0 0 0 0 0 0 0 0 0 0 0 0 0 0 0 0 0 0 0 0 0 0 0 0 0 0 0 0 0 0 0 0 0 0 0 0 0 0 0 0 201 253 254 253 254 255 254 254 254 253 253 255 253 253 255 254 255 253 254 253 254 253 254 253 254 254 253 254 220 0 0 0 0 0 0 0 0 0 0 0 0 1 0 0 0 0 0 0 1 0 0 0 0 0 0 0 0 0 0 0 0 0 0 0 0 0 0 0 0 0 0 0 0 0 0 0 0 0 0 0 0 0 0 0 0 0 0 0 0 0 0 1 0 1 0 0 0 0 0 0 0 5 249 251 254 254 253 254 253 254 254 254 253 254 254 255 253 255 255 254 255 253 254 253 253 253 254 253 253 254 254 254 254 254 254 254 254 254 253 253 253 255 254 254 254 255 253 255 253 253 255 254 254 254 254 255 254 255 253 253 253 253 253 254 254 254 253 253 253 254 253 254 253 253 254 253 254 254 254 254 255 254 254 254 254 255 254 255 255 255 255 255 255 255 255 255 255 255 255 255 255 255 255 255 255 255 255 255 255 255 255 255 255 255 255 255 255 255 255 255 255 255 255 255 255 255 255 255 255 255 255 255 255 255 255 255 255 255 255 255 255 
255 255 255 255 255 255 255 255 255 255 255 255 255 255 255 255 255 255 255 255 255 255 255 255 255 255 255 255 255 255 255 255 255 255 255 255 255 255 255 255 255 255 255 255 255 255 255 255 255 255 255 255 255 255 255 253 254 254 255 253 253 255 255 253 255 253 253 253 254 255 253 254 255 253 254 254 254 254 253 253 254 254 254 253 253 254 253 253 253 254 253 255 254 255 254 253 253 254 254 254 253 254 253 255 255 254 255 254 254 253 253 253 254 253 255 254 254 253 253 254 253 254 254 255 254 254 254 254 253 253 253 254 254 254 253 255 255 254 254 253 211 0 1 0 0 0 0 0 0 0 0 0 0 0 0 0 0 0 0 0 0 0 0 0 0 0 0 0 0 0 0 0 0 0 0 0 0 0 0 0 0 0 0 0 0 0 0 0 0 0 0 0 0 0 0 0 0 0 0 0 0 0 0 0 0 0 0 0 0 0 0 0 0 0 221 253 254 253 255 254 254 254 253 254 254 254 254 255 254 254 254 253 254 253 253 254 254 255 254 254 253 254 220 0 1 0 0 0 0 0 1 0 0 0 0 0 0 0 0 0 0 0 1 0 0 0 0 0 0 0 0 0 0 0 0 0 0 0 0 0 0 0 0 0 0 0 0 0 0 0 0 1 0 0 0 0 0 0 0 0 0 0 0 0 0 0 0 0 0 0 0 0 0 0 0 0 204 253 254 253 253 254 254 254 254 254 255 254 254 254 253 254 253 254 255 254 254 253 254 254 253 253 255 254 255 254 254 254 254 254 253 253 253 253 253 253 255 254 254 255 253 255 253 254 254 254 254 253 253 253 253 253 254 253 255 253 253 254 253 254 253 253 254 254 253 255 254 254 254 254 253 254 253 255 254 255 254 253 254 254 254 255 255 255 255 255 255 255 255 255 255 255 255 255 255 255 255 255 255 255 255 255 255 255 255 255 255 255 255 255 255 255 255 255 255 255 255 255 255 255 255 255 255 255 255 255 255 255 255 255 255 255 255 255 255 
255 255 255 255 255 255 255 255 255 255 255 255 255 255 255 255 255 255 255 255 255 255 255 255 255 255 255 255 255 255 255 255 255 255 255 255 255 255 255 255 255 255 255 255 255 255 255 255 255 255 255 255 255 255 255 254 253 253 254 254 254 254 255 253 253 255 254 252 253 253 254 253 254 254 254 255 254 255 254 253 253 255 253 253 253 255 255 253 254 255 253 255 253 255 254 254 253 254 253 254 253 254 253 254 253 255 254 254 254 253 254 253 254 253 255 253 254 253 254 253 255 255 254 254 254 254 253 254 254 253 254 254 254 254 254 253 254 255 255 254 171 0 0 0 0 0 0 0 0 0 0 0 0 0 0 0 0 0 0 0 0 0 0 0 0 0 0 0 0 0 0 0 0 0 0 0 0 0 0 0 0 0 0 0 0 0 0 0 0 0 0 0 0 0 0 0 0 0 0 0 0 0 0 0 0 0 0 0 0 0 0 0 1 15 255 254 255 254 253 253 255 255 253 253 255 253 254 255 254 255 255 253 254 253 253 254 254 255 253 255 254 253 250 13 0 0 0 0 0 0 0 0 0 0 0 0 0 0 0 0 0 0 0 1 0 0 0 0 0 0 0 0 0 0 0 0 0 0 0 0 0 0 0 0 0 1 0 0 1 0 0 0 0 0 0 0 0 0 0 0 0 0 0 0 0 0 0 0 0 0 0 0 0 0 0 0 179 253 254 253 253 254 253 255 253 253 255 254 254 254 254 254 255 253 253 254 253 253 253 255 253 254 254 253 255 254 253 254 254 254 253 253 253 253 254 255 254 253 254 254 255 253 253 254 255 254 255 254 254 253 253 254 255 253 255 253 254 254 253 254 254 254 253 254 254 254 254 255 254 254 254 255 254 254 254 254 255 253 255 254 253 255 255 255 255 255 255 255 255 255 255 255 255 255 255 255 255 255 255 255 255 255 255 255 255 255 255 255 255 255 255 255 255 255 255 255 255 255 255 255 255 255 255 255 255 255 255 255 255 255 255 255 255 255 255 
255 255 255 255 255 255 255 255 255 255 255 255 255 255 255 255 255 255 255 255 255 255 255 255 255 255 255 255 255 255 255 255 255 255 255 255 255 255 255 255 255 255 255 255 255 255 255 255 255 255 255 255 255 255 254 253 255 254 254 253 254 254 254 253 254 253 254 253 253 254 255 254 255 255 254 255 254 253 253 253 253 254 254 253 255 255 253 253 254 253 254 255 254 254 253 255 253 254 253 254 254 255 253 255 253 254 254 254 254 253 255 254 253 253 255 254 254 255 254 254 253 254 255 253 255 253 253 254 254 254 254 254 255 254 254 254 254 254 255 255 97 1 0 0 0 0 0 0 0 0 0 0 0 0 0 0 0 0 0 0 0 0 0 0 0 0 0 0 0 0 0 0 0 0 0 0 0 0 0 0 0 0 0 0 0 0 0 0 0 0 0 0 0 0 0 0 0 0 0 0 0 0 0 0 0 0 0 0 0 0 0 0 1 21 255 254 254 254 254 253 254 254 254 254 255 254 254 253 253 253 253 255 254 255 254 255 254 255 254 255 254 254 255 35 1 0 0 0 0 0 0 0 0 0 0 0 0 0 0 0 0 0 0 0 0 0 0 0 0 0 0 0 0 0 0 0 0 0 0 0 0 0 0 0 0 0 0 0 0 0 0 0 0 0 0 0 0 0 0 0 0 0 0 0 0 0 0 0 0 0 0 0 0 0 0 1 78 255 255 254 255 254 253 253 254 253 255 255 253 253 253 253 253 254 254 254 254 254 253 255 253 253 254 253 254 253 254 255 254 253 254 254 254 253 254 254 254 253 254 254 254 253 253 253 254 255 253 254 255 254 254 254 254 254 253 255 254 254 253 254 253 254 255 253 254 254 253 254 255 255 254 254 253 254 254 253 255 255 253 253 254 255 255 255 255 255 255 255 255 255 255 255 255 255 255 255 255 255 255 255 255 255 255 255 255 255 255 255 255 255 255 255 255 255 255 255 255 255 255 255 255 255 255 255 255 255 255 255 255 255 255 255 255 255 255 
255 255 255 255 255 255 255 255 255 255 255 255 255 255 255 255 255 255 255 255 255 255 255 255 255 255 255 255 255 255 255 255 255 255 255 255 255 255 255 255 255 255 255 255 255 255 255 255 255 255 255 255 255 255 254 253 255 254 255 253 254 254 254 254 255 254 253 255 254 254 253 255 253 254 254 254 253 253 253 253 255 253 254 254 254 253 253 253 254 255 253 253 255 253 253 254 253 254 254 254 254 254 254 255 253 255 253 254 253 254 253 254 255 255 253 253 255 254 254 253 253 253 254 253 255 253 253 254 253 254 254 254 255 255 253 254 255 255 254 255 53 0 0 0 0 0 0 0 0 0 0 0 0 0 0 0 0 0 0 0 0 0 0 0 0 0 0 0 0 0 0 0 0 0 0 0 0 0 0 0 0 0 0 0 0 0 0 0 0 0 0 0 0 0 0 0 0 0 0 0 0 0 0 0 1 0 0 0 0 0 0 0 0 94 255 255 255 254 254 253 255 255 253 254 253 254 254 253 253 253 254 254 253 254 255 255 253 254 253 255 255 255 255 67 0 0 0 0 0 0 0 0 0 0 0 0 0 0 0 0 0 0 0 1 0 0 0 0 0 0 0 0 0 0 0 0 0 0 0 0 0 0 0 0 0 0 0 0 0 0 0 0 0 0 0 0 0 0 0 0 0 0 0 0 0 0 0 0 0 0 0 0 0 0 0 0 56 255 255 254 254 253 255 254 254 253 255 254 253 254 255 254 254 253 254 254 254 254 253 255 253 253 254 253 253 253 255 253 253 253 253 254 255 254 254 253 255 254 254 254 254 253 254 254 254 255 254 254 253 254 253 254 254 254 253 255 253 254 254 254 253 254 255 253 254 254 253 253 254 254 254 254 253 254 253 254 255 255 254 253 254 255 255 255 255 255 255 255 255 255 255 255 255 255 255 255 255 255 255 255 255 255 255 255 255 255 255 255 255 255 255 255 255 255 255 255 255 255 255 255 255 255 255 255 255 255 255 255 255 255 255 255 255 255 255 
255 255 255 255 255 255 255 255 255 255 255 255 255 255 255 255 255 255 255 255 255 255 255 255 255 255 255 255 255 255 255 255 255 255 255 255 255 255 255 255 255 255 255 255 255 255 255 255 255 255 255 255 255 255 255 254 254 254 253 254 255 254 254 254 253 254 254 253 255 254 253 255 254 254 253 255 254 254 254 253 255 253 254 253 254 253 253 253 254 253 254 253 254 254 253 253 255 254 254 254 253 253 254 254 253 255 253 254 253 254 253 254 254 253 254 255 253 254 253 253 255 254 254 254 253 253 253 255 254 253 254 255 254 255 254 255 254 254 253 255 12 1 0 0 0 0 0 0 0 0 0 0 1 0 0 0 0 0 0 0 0 0 0 0 0 0 0 0 0 0 0 0 0 0 0 0 0 0 0 0 0 0 0 0 0 0 0 0 0 0 0 0 0 0 0 0 0 0 0 0 0 0 0 0 0 0 0 0 0 0 0 0 0 79 255 255 255 253 254 253 254 254 254 253 253 253 254 254 254 254 254 255 254 254 254 255 254 254 253 254 255 255 255 149 0 0 0 0 0 0 0 0 0 0 0 0 0 0 0 0 0 0 0 0 0 0 0 1 0 0 0 0 0 0 0 0 0 0 0 0 0 0 0 0 0 0 0 0 0 0 0 0 0 0 0 0 0 0 0 0 0 0 0 0 0 0 0 0 0 0 0 0 0 0 0 2 4 242 254 254 254 254 253 254 254 254 253 254 253 253 255 253 254 254 254 253 254 253 254 253 254 255 253 255 254 253 255 253 253 253 253 253 254 253 253 254 254 254 254 254 254 253 254 253 254 253 254 253 253 252 254 253 253 254 253 254 253 255 255 255 253 254 254 253 254 253 253 253 255 253 254 254 253 254 254 255 253 255 254 254 254 255 255 255 255 255 255 255 255 255 255 255 255 255 255 255 255 255 255 255 255 255 255 255 255 255 255 255 255 255 255 255 255 255 255 255 255 255 255 255 255 255 255 255 255 255 255 255 255 255 255 255 255 255 255 
255 255 255 255 255 255 255 255 255 255 255 255 255 255 255 255 255 255 255 255 255 255 255 255 255 255 255 255 255 255 255 255 255 255 255 255 255 255 255 255 255 255 255 255 255 255 255 255 255 255 255 255 255 255 255 253 254 254 252 254 255 253 253 253 253 254 255 253 254 254 254 255 253 255 254 253 254 254 254 255 254 255 254 253 254 253 254 255 254 254 255 254 254 254 253 253 254 254 254 254 253 254 253 255 254 253 253 254 253 254 255 254 253 253 254 255 253 254 253 254 254 253 254 254 254 254 254 254 253 253 254 254 255 253 255 253 255 254 254 207 0 0 0 0 0 0 0 0 0 0 0 0 0 0 0 0 1 0 0 0 0 0 0 0 0 0 0 0 0 0 0 0 1 0 0 0 0 0 0 0 0 0 0 0 0 0 0 0 0 0 0 0 0 0 0 0 0 0 0 0 0 0 0 0 0 0 0 0 0 0 0 0 0 175 255 253 255 254 253 253 254 254 254 253 254 254 253 255 253 255 255 253 255 255 254 254 254 255 253 253 253 255 255 148 0 0 0 0 0 0 0 0 0 0 0 0 0 0 0 0 0 0 0 0 1 0 0 0 0 1 0 0 0 0 0 0 0 0 0 0 0 0 0 0 0 0 0 0 0 0 0 0 0 0 0 0 0 0 0 0 0 0 0 0 0 0 0 0 0 1 0 0 0 0 0 1 0 221 254 254 255 253 253 254 253 254 254 254 253 253 254 254 253 254 253 253 253 254 253 254 253 253 255 255 253 253 254 252 254 255 254 253 254 253 255 254 254 255 254 253 253 253 253 253 254 254 255 253 255 253 254 253 253 254 254 255 253 254 253 254 253 255 253 255 253 253 253 254 253 253 255 252 254 254 255 253 254 253 254 253 254 255 255 255 255 255 255 255 255 255 255 255 255 255 255 255 255 255 255 255 255 255 255 255 255 255 255 255 255 255 255 255 255 255 255 255 255 255 255 255 255 255 255 255 255 255 255 255 255 255 255 255 255 255 255 
255 255 255 255 255 255 255 255 255 255 255 255 255 255 255 255 255 255 255 255 255 255 255 255 255 255 255 255 255 255 255 255 255 255 255 255 255 255 255 255 255 255 255 255 255 255 255 255 255 255 255 255 255 255 255 253 255 254 254 255 253 252 255 253 253 254 254 253 254 255 253 254 254 254 253 253 254 253 255 255 253 254 254 253 254 253 253 254 254 253 254 254 253 255 253 254 253 255 253 253 254 255 254 254 255 252 254 254 254 254 254 253 253 254 254 253 254 253 253 254 253 254 255 253 255 254 253 254 253 254 254 254 254 254 253 254 254 253 254 199 0 0 0 0 0 0 0 0 0 0 0 0 0 0 0 0 0 0 0 0 0 0 0 0 0 0 0 0 0 0 0 0 0 0 0 0 0 0 0 0 0 0 0 0 0 0 0 0 0 0 0 0 0 0 0 0 0 0 1 0 0 0 0 0 0 0 1 0 0 0 0 0 0 206 253 254 255 255 253 254 253 254 253 255 255 254 254 253 254 254 254 253 253 254 254 252 254 254 254 255 252 254 252 239 0 0 0 0 0 0 0 0 0 0 0 0 0 0 1 0 0 0 0 0 0 0 0 1 0 0 0 0 0 0 0 0 0 0 0 0 0 0 0 0 0 0 0 0 1 0 0 0 0 0 0 0 0 0 0 0 0 0 0 0 0 0 0 0 0 0 0 0 0 0 0 0 0 155 252 254 254 254 254 253 253 254 254 253 254 253 255 254 252 254 253 254 254 255 253 255 252 253 254 253 253 254 253 255 253 255 253 254 255 254 253 255 254 255 253 253 253 254 253 254 255 254 253 254 253 254 253 253 254 253 254 254 254 254 253 254 253 254 254 255 254 255 254 254 253 254 254 254 253 255 254 253 254 254 255 253 254 255 255 255 255 255 255 255 255 255 255 255 255 255 255 255 255 255 255 255 255 255 255 255 255 255 255 255 255 255 255 255 255 255 255 255 255 255 255 255 255 255 255 255 255 255 255 255 255 255 255 255 255 255 255 
255 255 255 255 255 255 255 255 255 255 255 255 255 255 255 255 255 255 255 255 255 255 255 255 255 255 255 255 255 255 255 255 255 255 255 255 255 255 255 255 255 255 255 255 255 255 255 255 255 255 255 255 255 255 254 254 253 254 254 255 253 255 254 255 254 254 253 254 254 254 253 253 253 255 254 252 254 254 253 255 254 253 254 254 254 252 254 254 254 253 255 255 253 254 253 254 254 253 254 254 253 254 254 254 255 254 253 254 254 254 254 254 254 254 254 252 255 253 253 254 254 254 253 254 255 253 253 254 253 255 255 255 255 255 253 254 254 254 255 78 1 0 0 0 0 0 0 0 0 0 0 0 0 0 0 0 0 0 0 0 0 0 0 0 0 0 0 0 0 0 0 0 0 0 0 1 0 0 0 0 0 0 0 0 0 0 0 0 0 0 0 0 0 0 0 0 0 0 0 0 0 0 0 0 0 0 0 0 0 0 0 0 0 227 254 253 255 255 254 254 253 253 254 254 254 254 253 253 254 254 253 254 254 253 254 254 254 254 255 255 253 254 253 234 0 1 0 0 0 0 0 0 0 0 0 0 0 0 0 0 0 0 0 0 0 0 0 0 0 0 0 0 0 0 0 0 0 0 0 0 0 0 0 0 0 0 0 0 0 0 0 0 0 0 0 0 0 0 0 0 0 0 0 0 0 0 0 0 0 0 0 0 0 0 0 0 0 95 255 254 254 255 253 254 254 253 254 252 255 252 255 254 254 254 253 254 253 253 253 253 254 254 254 255 253 253 254 255 253 254 252 255 254 253 253 254 255 253 253 254 254 253 254 253 254 255 253 253 253 253 254 253 254 253 254 254 255 254 254 253 254 254 254 255 253 255 253 254 253 254 254 255 253 254 254 254 253 253 255 254 254 255 255 255 255 255 255 255 255 255 255 255 255 255 255 255 255 255 255 255 255 255 255 255 255 255 255 255 255 255 255 255 255 255 255 255 255 255 255 255 255 255 255 255 255 255 255 255 255 255 255 255 255 255 255 
255 255 255 255 255 255 255 255 255 255 255 255 255 255 255 255 255 255 255 255 255 255 255 255 255 255 255 255 255 255 255 255 255 255 255 255 255 255 255 255 255 255 255 255 255 255 255 255 255 255 255 255 255 255 254 254 254 253 255 254 254 253 254 253 255 254 254 255 253 253 254 254 253 254 254 253 254 255 254 254 254 253 253 255 254 254 254 253 254 254 254 254 254 252 254 254 254 253 255 255 253 253 253 254 254 254 253 253 254 254 253 254 255 253 253 253 253 254 254 254 254 254 253 254 255 253 254 254 254 255 254 255 253 255 254 253 253 255 255 63 0 0 0 0 0 0 0 0 0 0 0 0 0 0 0 0 0 0 0 0 0 0 0 0 0 0 0 0 0 0 0 0 0 0 0 0 0 0 0 0 0 0 0 0 0 0 0 0 0 0 0 0 0 0 0 0 0 0 0 0 0 0 0 0 0 0 0 0 0 0 0 0 20 255 252 254 254 255 253 253 255 253 254 254 253 253 254 254 253 253 254 254 253 252 254 253 255 255 255 255 254 253 254 255 38 1 0 0 0 0 0 0 0 0 0 0 0 0 0 0 0 0 0 0 0 0 0 0 0 0 0 0 0 0 0 0 0 0 0 0 0 0 0 0 0 0 0 0 0 0 0 0 0 0 0 0 0 0 0 0 0 0 0 0 0 0 0 0 0 0 0 0 0 0 0 0 1 47 255 255 254 255 254 255 253 254 253 254 253 253 255 253 255 254 253 254 253 254 253 252 254 255 253 254 253 253 254 254 253 252 254 254 253 254 254 253 254 254 253 254 254 254 255 253 254 253 254 254 253 254 254 254 252 254 253 255 254 254 254 253 254 254 253 254 254 253 254 254 254 254 254 254 254 253 254 254 254 254 254 253 255 255 255 255 255 255 255 255 255 255 255 255 255 255 255 255 255 255 255 255 255 255 255 255 255 255 255 255 255 255 255 255 255 255 255 255 255 255 255 255 255 255 255 255 255 255 255 255 255 255 255 255 255 255 255 
255 255 255 255 255 255 255 255 255 255 255 255 255 255 255 255 255 255 255 255 255 255 255 255 255 255 255 255 255 255 255 255 255 255 255 255 255 255 255 255 255 255 255 255 255 255 255 255 255 255 255 255 255 255 255 255 254 253 254 253 255 253 255 253 254 254 255 253 254 253 254 254 255 253 253 254 254 253 255 253 253 254 254 253 254 254 253 253 254 253 254 253 254 253 254 254 255 253 254 254 254 254 253 254 254 253 253 255 254 255 254 253 254 254 254 253 253 254 255 253 254 254 254 254 253 254 253 253 254 254 254 253 254 255 254 254 254 253 247 7 3 0 0 0 0 0 0 0 0 0 0 0 0 0 0 0 0 0 0 0 0 0 0 0 0 0 0 0 0 0 0 0 0 0 0 0 0 0 0 0 0 0 0 0 0 0 0 0 0 0 0 0 0 0 0 0 0 0 0 1 0 1 0 0 0 0 0 0 0 0 0 0 30 255 253 253 254 255 253 254 254 253 254 253 253 253 255 254 254 253 255 255 253 254 254 254 254 255 254 255 254 253 254 255 38 1 0 0 0 0 0 0 0 0 0 0 0 0 0 0 0 0 0 0 0 0 0 0 0 0 0 0 0 0 0 0 0 0 0 0 0 0 0 0 0 0 0 0 0 0 0 0 0 0 0 0 0 0 0 0 0 0 0 0 0 0 0 1 0 0 0 0 0 0 0 0 1 4 243 254 254 253 255 254 254 254 253 255 253 255 253 253 254 253 254 254 254 255 253 254 254 254 254 254 254 253 254 254 253 254 253 254 253 254 254 254 253 254 253 253 254 254 253 255 253 253 255 254 253 255 253 255 253 254 253 253 254 253 253 253 253 254 253 254 253 254 255 254 254 253 255 254 255 254 254 255 253 254 254 253 254 255 255 255 255 255 255 255 255 255 255 255 255 255 255 255 255 255 255 255 255 255 255 255 255 255 255 255 255 255 255 255 255 255 255 255 255 255 255 255 255 255 255 255 255 255 255 255 255 255 255 255 255 255 255 
255 255 255 255 255 255 255 255 255 255 255 255 255 255 255 255 255 255 255 255 255 255 255 255 255 255 255 255 255 255 255 255 255 255 255 255 255 255 255 255 255 255 255 255 255 255 255 255 255 255 255 255 255 255 254 254 255 255 253 253 254 255 255 255 253 254 255 254 254 254 254 253 254 254 253 253 254 253 254 254 255 253 255 253 254 253 253 253 255 253 254 254 254 254 254 253 254 254 254 254 254 255 253 255 254 252 254 253 254 254 255 254 254 254 255 254 254 254 254 254 255 254 253 254 254 254 253 254 253 253 254 253 255 253 253 255 254 254 227 0 1 0 0 0 0 0 0 0 0 0 0 0 0 0 0 0 0 0 0 0 0 0 0 0 0 0 0 0 0 0 0 0 0 0 0 0 0 0 0 0 0 0 0 0 0 0 0 0 0 0 0 0 0 0 1 0 0 0 0 0 0 0 0 0 0 0 0 0 0 0 0 0 84 255 255 254 253 254 254 253 254 254 255 254 254 253 254 254 254 254 254 254 254 254 253 253 255 254 255 254 253 253 254 255 95 0 0 0 0 0 1 0 0 0 0 0 0 0 0 0 0 0 0 0 0 0 0 0 0 0 0 0 0 0 0 0 0 0 0 0 1 0 0 1 0 0 0 0 0 0 0 1 0 0 0 0 0 0 0 0 0 0 0 0 0 0 0 0 0 0 0 0 0 0 0 0 0 0 239 253 255 254 254 253 254 254 254 254 255 254 254 254 253 253 254 254 254 253 253 253 253 253 254 254 254 253 253 255 253 255 254 254 255 253 253 254 253 254 254 254 254 254 252 254 254 254 255 253 254 253 253 255 253 253 253 253 254 254 254 254 254 254 254 255 254 253 254 254 253 253 253 254 253 254 254 255 254 254 254 254 254 255 255 255 255 255 255 255 255 255 255 255 255 255 255 255 255 255 255 255 255 255 255 255 255 255 255 255 255 255 255 255 255 255 255 255 255 255 255 255 255 255 255 255 255 255 255 255 255 255 255 255 255 255 255 
255 255 255 255 255 255 255 255 255 255 255 255 255 255 255 255 255 255 255 255 255 255 255 255 255 255 255 255 255 255 255 255 255 255 255 255 255 255 255 255 255 255 255 255 255 255 255 255 255 255 255 255 255 255 255 255 253 254 254 255 253 254 253 254 254 253 254 255 253 254 253 254 254 255 253 254 254 254 253 253 254 254 255 254 254 253 254 253 254 253 255 255 253 253 255 253 253 255 254 254 253 253 253 253 254 254 254 253 255 254 254 254 255 253 255 255 253 255 254 255 254 253 253 253 255 254 254 254 254 254 254 255 254 254 253 255 254 253 187 0 0 0 0 0 0 0 0 0 0 0 0 0 0 0 0 0 0 0 0 0 0 0 0 0 0 0 0 0 0 0 0 0 1 0 1 0 0 0 0 0 0 0 0 0 1 0 0 0 0 0 0 0 0 0 0 0 0 0 0 0 0 0 0 0 0 0 0 0 0 0 0 1 79 255 255 254 253 254 253 253 254 254 254 254 253 253 253 254 253 254 253 254 254 254 254 253 255 254 254 253 253 254 255 255 135 0 0 0 0 0 0 0 0 0 0 0 0 0 0 0 0 0 1 0 0 0 0 0 0 0 0 1 0 0 0 0 0 0 0 0 0 0 0 0 0 0 0 0 0 0 0 0 0 0 0 0 0 0 0 0 0 0 0 0 0 0 0 0 0 0 0 0 0 0 0 0 0 0 140 255 255 255 253 253 254 254 253 253 254 253 254 254 253 254 254 253 253 253 253 254 254 253 253 254 254 254 254 253 254 254 255 253 255 253 254 254 253 253 254 255 254 254 254 253 254 253 254 253 255 253 254 254 253 254 253 254 253 254 254 254 254 254 253 254 254 254 255 254 253 255 254 253 253 253 254 253 255 254 255 254 253 255 255 255 255 255 255 255 255 255 255 255 255 255 255 255 255 255 255 255 255 255 255 255 255 255 255 255 255 255 255 255 255 255 255 255 255 255 255 255 255 255 255 255 255 255 255 255 255 255 255 255 255 255 255 
255 255 255 255 255 255 255 255 255 255 255 255 255 255 255 255 255 255 255 255 255 255 255 255 255 255 255 255 255 255 255 255 255 255 255 255 255 255 255 255 255 255 255 255 255 255 255 255 255 255 255 255 255 255 254 254 254 253 254 255 254 254 254 253 254 254 253 254 253 253 253 254 254 254 253 255 254 253 254 254 254 254 253 255 254 253 254 254 254 253 254 253 253 253 255 254 254 254 254 253 254 253 254 253 254 255 254 255 255 254 253 253 255 254 255 253 253 255 254 252 254 253 254 254 255 254 254 254 254 255 254 254 253 254 254 255 254 255 112 0 0 1 0 0 0 0 0 0 0 0 0 0 0 0 0 0 0 0 0 0 0 0 0 0 0 0 0 0 0 0 0 0 0 0 0 0 0 0 0 0 0 0 0 0 0 0 0 0 0 0 0 0 0 0 0 0 0 0 0 0 0 0 0 0 0 0 0 0 0 0 0 0 176 255 255 255 253 254 253 254 254 254 254 253 254 253 253 254 253 253 254 253 253 254 254 254 253 255 253 253 254 255 255 255 138 0 0 0 0 0 0 0 0 0 0 0 0 0 0 0 0 0 0 0 0 0 0 0 0 0 0 0 0 0 0 0 0 0 0 0 0 0 0 0 0 0 0 0 0 0 0 0 0 0 0 0 0 0 0 0 0 0 0 0 0 0 0 0 0 0 0 0 0 0 0 0 0 0 125 255 255 255 254 253 254 254 254 253 254 253 253 253 255 254 255 254 253 253 254 254 254 253 254 253 253 255 254 253 254 254 254 254 254 254 254 255 254 254 253 255 253 254 255 254 253 255 253 254 253 253 255 253 252 254 253 253 254 254 253 253 254 255 254 254 252 255 254 254 255 254 254 253 254 253 255 253 254 254 254 255 253 255 255 255 255 255 255 255 255 255 255 255 255 255 255 255 255 255 255 255 255 255 255 255 255 255 255 255 255 255 255 255 255 255 255 255 255 255 255 255 255 255 255 255 255 255 255 255 255 255 255 255 255 255 255 
255 255 255 255 255 255 255 255 255 255 255 255 255 255 255 255 255 255 255 255 255 255 255 255 255 255 255 255 255 255 255 255 255 255 255 255 255 255 255 255 255 255 255 255 255 255 255 255 255 255 255 255 255 255 253 254 255 253 254 253 255 254 255 253 254 254 254 254 253 254 254 253 254 253 254 254 254 252 254 254 254 253 252 254 253 254 254 254 254 253 254 253 255 254 255 254 254 254 253 253 255 254 254 253 254 253 255 254 254 254 254 253 254 254 253 253 255 254 255 254 254 253 253 254 254 254 253 254 254 253 254 255 254 254 254 253 254 255 68 1 0 0 0 0 0 0 0 0 0 0 0 0 0 0 0 0 0 0 0 0 0 0 0 0 0 0 0 0 0 0 0 0 0 0 0 0 0 0 0 0 0 0 0 0 0 0 0 0 0 0 0 0 0 0 0 0 0 0 0 0 0 0 0 0 0 0 0 0 0 0 0 0 193 255 255 255 254 254 253 253 254 255 253 254 254 254 253 255 254 254 253 254 254 255 254 253 254 254 253 254 254 255 255 254 234 0 1 0 0 0 0 1 0 0 0 0 0 0 0 1 0 0 0 0 0 0 0 0 0 0 0 0 0 0 0 0 0 0 0 0 0 0 0 0 0 0 0 0 0 0 0 0 0 0 0 0 1 0 0 0 0 0 0 0 0 0 0 1 0 0 0 0 0 0 0 0 0 1 35 255 255 255 254 254 253 254 254 254 253 253 254 254 254 254 253 255 253 254 254 253 253 253 254 253 253 255 254 254 253 253 253 255 254 255 253 254 254 253 253 254 253 255 253 254 254 253 254 254 252 254 255 255 254 253 253 254 254 254 253 254 253 253 255 253 253 255 253 254 254 253 253 254 255 254 254 254 255 254 254 254 254 255 255 255 255 255 255 255 255 255 255 255 255 255 255 255 255 255 255 255 255 255 255 255 255 255 255 255 255 255 255 255 255 255 255 255 255 255 255 255 255 255 255 255 255 255 255 255 255 255 255 255 255 255 255 
255 255 255 255 255 255 255 255 255 255 255 255 255 255 255 255 255 255 255 255 255 255 255 255 255 255 255 255 255 255 255 255 255 255 255 255 255 255 255 255 255 255 255 255 255 255 255 255 255 255 255 255 255 255 254 254 255 253 255 254 253 253 254 254 253 253 254 254 253 255 254 253 254 254 254 255 254 252 254 254 253 253 254 254 253 255 254 254 253 253 253 254 255 255 253 255 253 253 254 253 253 254 254 253 255 254 253 255 253 254 254 254 254 252 253 253 255 253 254 255 255 253 254 254 254 255 253 253 255 254 255 255 254 254 255 254 252 249 6 0 1 0 0 0 0 0 0 1 0 0 1 0 0 0 0 0 0 0 0 0 0 0 0 0 0 0 0 0 0 0 0 0 0 0 0 0 0 0 0 0 0 0 0 0 0 0 0 0 0 0 1 0 0 0 0 0 0 1 0 0 0 0 0 1 0 0 0 0 0 0 0 0 219 253 254 254 255 253 254 254 254 253 253 255 253 255 253 253 255 254 253 254 254 253 253 254 253 255 253 255 254 255 254 255 225 0 1 0 0 0 0 0 0 0 0 0 0 0 0 0 0 0 0 1 0 0 0 0 0 0 0 0 0 0 0 0 0 0 0 0 0 0 0 0 0 0 0 0 0 0 0 0 0 0 0 0 0 0 0 0 0 0 0 0 1 0 0 0 0 0 0 0 0 0 0 0 0 1 12 247 255 255 253 255 254 254 252 254 253 255 254 255 254 253 253 254 254 255 253 254 254 254 254 253 253 255 255 254 253 253 253 255 253 254 254 252 254 254 254 254 255 254 253 254 255 252 253 254 254 254 254 255 253 254 253 255 253 254 253 254 254 254 255 253 255 255 253 254 254 252 254 254 254 255 253 254 254 254 255 253 253 255 255 255 255 255 255 255 255 255 255 255 255 255 255 255 255 255 255 255 255 255 255 255 255 255 255 255 255 255 255 255 255 255 255 255 255 255 255 255 255 255 255 255 255 255 255 255 255 255 255 255 255 255 255 
255 255 255 255 255 255 255 255 255 255 255 255 255 255 255 255 255 255 255 255 255 255 255 255 255 255 255 255 255 255 255 255 255 255 255 255 255 255 255 255 255 255 255 255 255 255 255 255 255 255 255 255 255 255 255 254 255 254 254 255 254 254 254 253 254 255 253 255 254 253 255 253 253 255 254 254 254 253 253 255 253 254 254 253 255 254 253 254 254 254 253 254 254 255 254 252 254 253 255 253 253 254 254 254 254 252 253 254 254 253 253 255 255 254 253 254 253 254 253 255 255 254 254 254 253 253 254 253 255 254 255 254 255 253 253 255 253 228 0 0 0 0 0 0 0 0 0 0 0 0 0 0 0 0 0 0 0 0 0 0 0 0 0 0 0 0 0 0 0 0 0 0 0 0 0 0 0 0 0 0 0 2 0 0 0 0 0 0 0 0 0 0 0 0 0 0 0 0 0 0 0 0 0 0 0 0 0 0 0 0 1 17 255 251 255 254 255 253 254 254 254 253 254 253 254 255 252 254 254 254 254 254 253 253 254 254 253 255 254 254 254 255 254 254 251 21 0 0 0 0 0 0 0 0 0 0 0 0 0 0 0 0 1 0 0 0 1 0 0 0 0 0 0 0 0 0 0 0 0 0 0 0 0 0 0 0 0 0 0 0 0 0 0 0 0 0 0 0 0 0 0 0 0 0 0 0 0 0 0 0 0 0 0 0 0 0 0 1 0 230 253 255 255 253 253 255 254 254 253 255 253 254 255 254 254 254 255 254 253 255 254 254 254 253 253 254 255 254 254 253 254 253 253 255 254 253 253 253 254 254 255 253 255 254 255 253 254 255 253 255 253 254 253 254 254 253 253 254 254 254 254 254 253 253 255 254 253 255 254 253 253 253 253 254 254 254 254 254 254 254 254 255 255 255 255 255 255 255 255 255 255 255 255 255 255 255 255 255 255 255 255 255 255 255 255 255 255 255 255 255 255 255 255 255 255 255 255 255 255 255 255 255 255 255 255 255 255 255 255 255 255 255 255 255 255 
255 255 255 255 255 255 255 255 255 255 255 255 255 255 255 255 255 255 255 255 255 255 255 255 255 255 255 255 255 255 255 255 255 255 255 255 255 255 255 255 255 255 255 255 255 255 255 255 255 255 255 255 255 255 254 254 254 253 254 254 254 254 254 253 254 254 253 255 254 255 254 253 253 254 254 255 253 254 253 254 254 254 253 254 254 254 252 254 254 254 254 254 255 254 255 254 253 254 252 254 253 254 254 254 255 253 253 253 254 254 254 254 253 253 253 253 253 254 254 254 253 255 254 254 253 255 253 255 255 254 255 254 254 253 254 254 254 167 0 0 1 0 0 0 0 0 0 0 0 0 1 0 0 0 0 0 0 0 0 0 0 0 0 0 0 0 0 0 0 0 0 0 0 0 0 0 0 0 0 0 0 0 1 0 0 0 0 0 0 0 0 1 0 0 0 0 0 0 0 0 0 0 0 0 0 0 0 0 0 0 1 18 255 251 253 255 254 254 253 254 254 253 254 253 254 253 253 253 255 254 255 253 254 254 254 253 255 253 255 253 255 253 254 252 255 49 1 0 0 0 0 0 0 0 0 0 0 0 0 0 0 0 0 0 0 0 0 0 0 0 0 0 1 0 0 0 0 0 0 0 0 0 0 0 0 0 0 0 0 0 0 0 0 0 0 0 0 1 0 0 0 0 0 0 0 0 0 0 0 0 0 0 0 0 0 0 0 0 0 140 254 255 253 253 253 254 255 254 253 253 253 252 253 255 253 253 253 254 254 253 253 254 253 254 254 253 254 255 255 252 254 254 253 255 254 253 253 254 254 253 254 253 253 253 254 254 254 254 253 255 254 254 255 253 254 254 252 254 255 254 254 254 253 254 253 254 253 254 254 254 254 253 254 254 254 254 253 254 254 253 254 255 255 255 255 255 255 255 255 255 255 255 255 255 255 255 255 255 255 255 255 255 255 255 255 255 255 255 255 255 255 255 255 255 255 255 255 255 255 255 255 255 255 255 255 255 255 255 255 255 255 255 255 255 255 
255 255 255 255 255 255 255 255 255 255 255 255 255 255 255 255 255 255 255 255 255 255 255 255 255 255 255 255 255 255 255 255 255 255 255 255 255 255 255 255 255 255 255 255 255 255 255 255 255 255 255 255 255 255 253 253 255 253 254 254 253 253 255 253 253 255 254 254 253 255 254 254 253 254 254 255 254 255 254 253 255 254 255 253 254 254 253 253 254 253 254 254 254 254 255 254 253 253 254 253 254 253 252 253 254 254 254 254 254 254 254 254 255 253 255 253 254 254 255 253 254 254 254 255 255 255 253 254 254 254 253 254 254 254 255 254 255 106 0 0 0 0 0 0 0 0 0 0 0 0 0 0 0 0 0 0 0 0 0 0 0 0 0 0 0 0 0 0 0 0 0 0 0 0 0 0 1 0 0 0 0 0 1 0 0 0 0 0 0 0 0 0 0 0 0 0 0 0 0 0 0 0 0 0 0 0 0 0 0 0 0 83 255 254 253 255 255 254 255 254 254 253 254 254 254 253 254 253 253 254 254 253 253 254 254 254 253 254 255 253 255 253 253 253 255 39 1 0 0 0 0 0 0 0 0 0 0 0 0 0 1 0 0 0 0 0 0 0 0 0 0 0 0 0 0 0 0 0 0 0 0 0 0 0 0 0 0 0 0 0 0 0 0 0 0 0 0 0 1 0 0 0 0 0 0 0 0 0 0 0 0 0 0 0 0 0 0 0 0 123 254 255 253 254 255 254 253 253 254 253 254 253 254 254 254 254 254 252 252 254 252 254 254 254 254 253 253 255 255 253 254 254 253 255 254 253 253 255 254 255 254 255 253 254 253 255 254 254 254 253 254 255 254 254 254 254 254 253 254 255 254 255 253 254 254 255 253 253 255 254 254 253 255 254 254 254 253 254 255 254 253 255 255 255 255 255 255 255 255 255 255 255 255 255 255 255 255 255 255 255 255 255 255 255 255 255 255 255 255 255 255 255 255 255 255 255 255 255 255 255 255 255 255 255 255 255 255 255 255 255 255 255 255 255 255 
255 255 255 255 255 255 255 255 255 255 255 255 255 255 255 255 255 255 255 255 255 255 255 255 255 255 255 255 255 255 255 255 255 255 255 255 255 255 255 255 255 255 255 255 255 255 255 255 255 255 255 255 255 255 253 254 253 254 254 254 253 254 253 254 254 253 254 254 253 253 254 254 253 254 253 253 254 255 254 254 254 254 255 254 254 255 254 253 253 253 254 255 254 254 253 253 253 254 253 253 255 253 253 254 253 254 254 254 254 254 255 254 255 255 254 255 253 254 254 253 255 253 253 253 254 253 254 253 254 252 253 254 254 255 254 255 255 63 0 0 0 0 0 0 1 0 0 0 0 0 0 0 0 0 0 0 0 0 0 0 0 0 0 0 0 0 0 0 0 0 0 0 0 0 0 0 0 0 0 0 0 0 0 0 1 0 0 0 0 0 0 0 0 0 0 0 0 0 0 0 0 0 0 0 0 0 0 0 0 0 0 100 255 255 253 254 255 254 252 253 253 253 254 254 254 255 254 254 253 254 253 253 254 254 254 254 252 255 253 255 253 253 253 254 255 141 0 0 0 0 0 0 0 0 0 0 0 0 0 0 0 0 0 0 0 0 0 0 0 0 0 0 0 0 0 0 0 0 1 0 0 0 0 0 0 0 0 0 0 0 0 0 0 0 0 0 0 0 0 0 0 0 0 0 0 0 0 0 1 0 0 0 0 0 0 0 0 0 2 28 255 255 254 254 253 254 255 253 254 255 254 253 255 254 254 254 255 253 253 253 253 255 254 252 254 254 254 254 254 254 255 254 253 253 254 254 253 254 253 253 255 252 255 253 254 253 254 253 254 254 253 254 253 255 254 254 255 254 255 254 254 253 254 254 254 253 253 254 254 254 255 253 253 255 255 255 254 255 254 254 253 255 255 255 255 255 255 255 255 255 255 255 255 255 255 255 255 255 255 255 255 255 255 255 255 255 255 255 255 255 255 255 255 255 255 255 255 255 255 255 255 255 255 255 255 255 255 255 255 255 255 255 255 255 255 
255 255 255 255 255 255 255 255 255 255 255 255 255 255 255 255 255 255 255 255 255 255 255 255 255 255 255 255 255 255 255 255 255 255 255 255 255 255 255 255 255 255 255 255 255 255 255 255 255 255 255 255 255 255 255 254 253 254 254 255 254 255 254 255 253 254 253 254 253 253 255 253 255 254 253 254 255 254 254 254 254 253 254 255 253 255 254 254 253 255 255 255 254 253 253 254 253 253 254 254 253 253 253 254 253 254 254 254 253 254 254 255 254 253 254 254 253 254 254 254 253 253 253 254 254 254 254 254 254 253 254 255 254 253 255 254 247 7 2 0 0 0 0 0 0 0 0 0 0 0 0 0 1 0 0 0 0 0 0 0 0 0 0 0 0 0 0 0 0 0 0 0 0 1 0 0 0 0 0 0 0 0 0 0 0 0 0 0 1 0 0 0 0 0 0 0 0 0 0 0 0 0 0 0 0 0 0 0 0 0 0 123 255 255 253 253 253 253 254 254 254 253 254 254 253 255 255 254 255 253 252 254 255 255 254 254 253 254 254 255 253 253 253 254 255 151 0 0 0 0 0 0 0 0 0 0 0 0 0 0 0 0 0 0 0 1 0 0 0 0 0 0 0 0 0 0 0 0 0 0 0 0 0 0 0 0 0 0 0 0 0 0 0 0 0 0 0 0 0 1 0 0 0 0 0 0 0 0 0 0 0 0 0 0 0 0 0 0 1 11 249 254 254 255 255 254 253 255 255 253 254 254 253 254 255 253 255 254 253 254 254 254 253 253 254 254 254 254 254 254 253 253 254 254 255 255 253 254 254 253 255 253 255 253 254 253 253 255 253 255 253 254 254 254 254 254 254 254 253 255 255 253 253 255 253 253 254 255 253 253 255 254 253 255 254 254 254 254 253 254 254 255 255 255 255 255 255 255 255 255 255 255 255 255 255 255 255 255 255 255 255 255 255 255 255 255 255 255 255 255 255 255 255 255 255 255 255 255 255 255 255 255 255 255 255 255 255 255 255 255 255 255 255 255 255 
255 255 255 255 255 255 255 255 255 255 255 255 255 255 255 255 255 255 255 255 255 255 255 255 255 255 255 255 255 255 255 255 255 255 255 255 255 255 255 255 255 255 255 255 255 255 255 255 255 255 255 255 255 255 255 253 255 253 255 254 254 255 254 253 253 255 255 254 254 255 255 253 254 254 255 254 254 254 254 252 254 254 254 254 253 255 255 253 254 254 253 255 253 253 255 254 254 253 255 254 253 253 254 255 253 254 253 254 254 254 253 254 254 253 254 253 254 253 254 254 254 254 254 253 254 254 255 254 255 254 255 255 254 254 253 254 238 1 1 0 0 0 0 0 0 0 0 0 0 0 0 0 0 0 0 0 0 0 0 0 0 0 0 0 0 0 0 0 0 0 0 0 0 0 0 0 0 0 0 0 0 1 0 0 0 0 0 0 0 0 0 0 0 0 0 0 0 0 0 0 0 0 0 0 0 0 0 0 0 0 0 199 255 255 255 253 254 253 254 254 253 252 254 255 254 252 254 254 253 254 254 253 255 253 254 254 254 254 254 254 253 255 255 254 255 181 0 0 0 0 0 0 0 0 0 0 0 0 0 0 0 0 1 0 0 0 0 0 0 0 0 0 0 0 0 0 0 0 0 0 0 0 0 0 0 0 0 0 0 0 0 0 0 0 0 0 0 0 0 0 0 0 0 0 0 0 0 0 0 0 0 0 0 0 0 0 0 0 0 0 230 252 255 254 254 255 253 253 253 253 254 253 253 255 254 255 254 254 253 253 253 255 253 255 253 253 254 253 254 255 253 254 255 253 254 255 255 255 255 253 254 254 254 255 254 253 253 254 253 254 254 253 254 253 253 253 254 254 254 254 254 254 254 253 254 254 253 254 253 254 254 254 254 254 254 254 253 254 254 255 255 255 255 255 255 255 255 255 255 255 255 255 255 255 255 255 255 255 255 255 255 255 255 255 255 255 255 255 255 255 255 255 255 255 255 255 255 255 255 255 255 255 255 255 255 255 255 255 255 255 255 255 255 255 255 
255 255 255 255 255 255 255 255 255 255 255 255 255 255 255 255 255 255 255 255 255 255 255 255 255 255 255 255 255 255 255 255 255 255 255 255 255 255 255 255 255 255 255 255 255 255 255 255 255 255 255 255 255 255 254 254 255 255 253 255 254 254 253 254 255 253 255 254 254 254 253 254 254 254 254 254 253 253 253 253 254 254 254 255 253 254 254 255 253 254 254 254 253 253 253 254 253 254 254 254 254 254 255 254 254 254 255 253 253 254 254 254 254 253 253 253 254 253 255 255 253 252 254 254 255 254 254 253 253 254 254 254 254 254 255 254 159 0 0 0 0 0 0 0 0 0 0 0 0 0 0 0 0 0 0 0 0 0 0 0 0 0 0 0 0 0 0 0 0 0 1 0 0 0 0 0 0 0 0 0 0 0 0 0 0 0 0 0 0 0 0 0 0 0 1 0 0 0 0 0 0 0 0 0 0 1 0 0 0 0 0 202 255 255 254 255 253 254 254 254 253 254 253 253 255 254 253 253 254 254 254 255 254 254 254 254 255 254 255 253 254 254 255 255 253 247 4 0 0 0 0 0 0 0 0 0 0 0 0 0 0 0 0 0 0 0 0 0 0 0 0 0 0 0 0 0 0 0 0 0 0 0 0 0 0 0 0 0 0 0 0 0 0 0 0 0 0 0 0 0 0 0 0 0 0 0 0 0 0 1 0 0 0 0 0 0 0 0 0 0 141 255 255 254 254 255 253 254 254 253 255 254 255 253 252 253 253 254 255 253 255 253 253 255 254 255 254 253 253 254 254 254 255 255 253 253 255 254 255 253 255 253 253 254 254 254 253 254 253 255 255 253 253 253 253 253 253 254 255 253 254 254 255 254 254 254 253 254 255 255 253 253 255 255 255 254 254 254 254 255 255 255 255 255 255 255 255 255 255 255 255 255 255 255 255 255 255 255 255 255 255 255 255 255 255 255 255 255 255 255 255 255 255 255 255 255 255 255 255 255 255 255 255 255 255 255 255 255 255 255 255 255 255 255 255 
255 255 255 255 255 255 255 255 255 255 255 255 255 255 255 255 255 255 255 255 255 255 255 255 255 255 255 255 255 255 255 255 255 255 255 255 255 255 255 255 255 255 255 255 255 255 255 255 255 255 255 255 255 255 254 254 254 253 253 254 255 254 254 254 255 253 253 254 253 254 254 254 254 253 254 255 254 254 253 254 254 254 254 253 253 255 254 255 254 254 255 254 254 253 253 254 253 254 254 253 253 253 254 254 253 254 254 253 254 255 254 253 254 255 254 253 254 254 253 255 254 253 254 254 253 253 254 253 254 255 253 254 255 254 254 255 128 0 0 1 0 0 0 1 0 0 0 0 0 0 0 0 0 0 0 0 0 0 0 0 0 0 0 0 0 0 0 0 0 0 0 0 0 0 0 0 0 0 0 0 0 0 0 0 1 1 0 0 0 0 0 0 0 0 0 0 0 0 0 0 0 0 0 0 0 0 0 0 0 0 0 230 255 255 255 254 254 253 253 255 255 254 254 253 253 254 254 253 253 253 253 255 255 253 254 255 253 254 255 254 254 254 255 255 254 242 0 1 0 0 0 0 0 0 0 0 0 0 0 0 0 0 0 0 0 0 0 0 0 0 0 0 0 0 0 1 0 0 0 0 0 0 0 0 0 0 0 0 0 0 0 0 0 0 0 0 0 0 0 0 0 0 0 0 0 0 0 0 0 0 0 0 0 0 0 0 0 0 0 0 112 255 255 255 254 253 253 254 254 252 253 254 255 254 253 253 253 254 253 254 254 253 254 255 254 255 255 254 253 253 254 254 253 253 254 254 254 254 254 254 255 253 253 254 254 254 253 254 254 253 253 255 253 253 253 255 254 254 252 253 253 254 253 253 254 253 253 254 253 254 253 254 253 253 253 254 254 255 253 254 254 255 255 255 255 255 255 255 255 255 255 255 255 255 255 255 255 255 255 255 255 255 255 255 255 255 255 255 255 255 255 255 255 255 255 255 255 255 255 255 255 255 255 255 255 255 255 255 255 255 255 255 255 255 255 
255 255 255 255 255 255 255 255 255 255 255 255 255 255 255 255 255 255 255 255 255 255 255 255 255 255 255 255 255 255 255 255 255 255 255 255 255 255 255 255 255 255 255 255 255 255 255 255 255 255 255 255 255 255 254 254 253 254 255 254 253 254 253 253 253 253 255 255 253 255 252 255 255 254 255 253 255 254 254 254 254 253 253 253 253 254 254 253 254 254 255 253 254 254 255 253 254 254 253 253 254 255 254 254 254 253 253 255 253 253 253 255 253 253 253 255 254 255 253 254 254 255 254 255 254 254 253 255 255 254 255 254 253 254 255 255 42 2 0 0 0 0 0 0 0 0 0 0 0 0 0 0 0 0 0 0 0 0 0 0 0 0 0 0 0 0 0 0 0 0 0 0 0 0 0 0 0 0 0 0 0 0 0 0 0 0 0 0 0 0 0 0 0 0 0 0 0 0 0 0 0 0 0 0 0 0 0 0 0 0 19 255 252 254 253 254 253 254 253 254 253 254 255 255 253 254 253 255 253 254 254 254 253 254 254 255 254 253 253 254 254 254 255 255 255 255 49 1 0 0 0 0 0 0 0 0 1 0 0 0 0 0 0 0 0 0 0 0 0 0 0 0 0 0 0 0 0 0 0 0 0 0 0 0 0 0 0 0 0 0 0 0 0 0 0 0 0 0 0 0 0 0 0 0 0 0 0 0 0 0 0 0 0 0 0 0 0 0 0 1 17 255 255 254 255 254 255 254 253 253 253 253 254 254 255 253 254 255 254 255 253 254 253 254 254 253 254 253 254 253 254 254 254 253 253 253 254 253 253 254 253 253 255 255 253 255 254 255 253 254 254 253 254 253 253 254 253 254 253 253 253 254 254 254 253 254 252 254 255 254 255 255 253 255 253 253 255 253 254 253 254 255 255 255 255 255 255 255 255 255 255 255 255 255 255 255 255 255 255 255 255 255 255 255 255 255 255 255 255 255 255 255 255 255 255 255 255 255 255 255 255 255 255 255 255 255 255 255 255 255 255 255 255 255 255 
255 255 255 255 255 255 255 255 255 255 255 255 255 255 255 255 255 255 255 255 255 255 255 255 255 255 255 255 255 255 255 255 255 255 255 255 255 255 255 255 255 255 255 255 255 255 255 255 255 255 255 255 255 255 254 254 254 254 254 255 253 254 254 254 253 254 253 254 253 254 252 255 253 253 254 255 254 254 254 253 254 254 253 253 254 254 254 254 254 253 253 254 254 254 254 254 253 254 255 254 255 253 254 254 255 253 253 254 255 253 253 254 254 254 254 255 253 255 255 253 255 254 254 253 253 254 254 255 254 253 253 254 255 254 253 250 10 0 0 0 0 0 0 0 0 0 0 0 0 0 0 0 0 0 0 0 0 0 0 0 0 0 0 0 0 0 0 0 0 0 0 0 0 0 0 0 0 0 0 0 0 0 0 0 0 0 0 0 0 0 0 0 0 0 0 0 0 0 0 0 1 0 0 0 0 0 0 0 0 0 22 255 252 254 253 254 253 254 254 254 253 254 253 253 253 253 255 253 254 253 254 255 253 254 253 255 253 253 253 254 253 255 255 254 253 255 61 3 1 0 0 0 0 0 0 0 0 0 0 0 0 0 0 0 0 0 0 0 0 0 0 0 0 0 0 0 0 0 0 0 0 0 0 0 0 0 0 0 0 0 0 0 0 0 0 0 0 0 0 0 0 0 0 0 0 0 0 0 0 0 0 0 0 0 0 0 0 0 0 0 10 247 254 254 254 254 253 254 253 254 254 254 254 253 255 254 255 253 254 255 253 253 253 254 254 255 254 254 253 254 253 253 253 254 253 255 253 254 253 254 253 254 253 254 253 254 255 254 253 253 254 253 254 254 255 254 253 254 254 254 253 254 254 253 253 255 253 254 255 255 254 254 253 253 255 253 255 254 254 253 254 255 255 255 255 255 255 255 255 255 255 255 255 255 255 255 255 255 255 255 255 255 255 255 255 255 255 255 255 255 255 255 255 255 255 255 255 255 255 255 255 255 255 255 255 255 255 255 255 255 255 255 255 255 255 
255 255 255 255 255 255 255 255 255 255 255 255 255 255 255 255 255 255 255 255 255 255 255 255 255 255 255 255 255 255 255 255 255 255 255 255 255 255 255 255 255 255 255 255 255 255 255 255 255 255 255 255 255 255 254 254 253 255 253 255 254 254 254 254 254 253 254 255 253 254 254 253 254 254 254 254 253 254 253 253 254 253 253 254 254 255 253 254 253 253 253 254 255 254 254 254 253 253 254 253 253 254 255 254 253 253 254 253 253 255 255 253 254 253 254 255 253 253 254 253 253 253 254 253 253 254 253 254 254 254 254 254 254 254 251 234 0 0 1 0 0 0 0 0 0 0 0 0 0 0 0 0 0 0 0 0 0 0 0 0 0 0 0 0 0 0 0 0 0 0 0 0 0 0 0 0 0 0 0 0 0 0 0 0 0 0 0 0 0 0 0 0 0 0 0 0 1 0 0 0 0 0 0 0 0 0 0 0 0 0 93 255 254 254 253 255 253 255 253 254 254 254 253 253 254 253 253 253 253 254 253 254 253 255 254 253 253 253 254 255 254 253 254 253 253 255 104 0 0 0 0 0 0 0 0 0 0 0 0 0 0 0 0 0 0 0 0 0 0 0 0 0 0 0 0 0 0 0 0 0 0 0 0 0 0 1 0 0 0 0 0 0 0 0 0 0 0 0 0 0 0 0 0 0 0 0 0 0 0 0 0 0 1 0 0 0 0 0 0 0 0 200 253 254 253 254 253 255 254 254 254 253 254 254 253 253 254 254 255 254 254 253 254 255 253 254 254 253 254 253 253 253 253 255 254 254 254 254 254 255 254 254 253 254 254 253 254 254 253 254 253 253 253 253 253 255 253 254 253 253 253 253 254 253 254 254 254 254 254 253 254 255 253 254 253 253 253 254 255 254 254 255 255 255 255 255 255 255 255 255 255 255 255 255 255 255 255 255 255 255 255 255 255 255 255 255 255 255 255 255 255 255 255 255 255 255 255 255 255 255 255 255 255 255 255 255 255 255 255 255 255 255 255 255 255 
255 255 255 255 255 255 255 255 255 255 255 255 255 255 255 255 255 255 255 255 255 255 255 255 255 255 255 255 255 255 255 255 255 255 255 255 255 255 255 255 255 255 255 255 255 255 255 255 255 255 255 255 255 255 253 255 254 255 253 253 255 255 253 253 253 254 254 255 254 255 254 254 254 254 254 254 254 253 254 254 255 253 253 255 255 254 254 252 253 254 253 254 253 254 255 254 254 253 255 255 253 254 254 254 253 254 254 253 253 255 253 254 254 254 255 254 253 254 254 255 253 254 254 254 253 254 255 254 254 253 255 253 254 255 254 138 0 0 0 0 0 0 0 0 0 0 0 0 0 0 0 0 0 0 0 0 0 0 1 0 0 0 0 0 0 0 0 0 0 1 0 0 0 0 0 0 0 0 0 0 0 0 0 0 0 0 0 0 0 0 0 0 0 0 0 1 0 0 0 0 0 0 0 0 0 1 0 0 0 0 96 255 255 254 254 254 253 255 254 253 254 254 255 253 253 253 252 254 253 254 253 253 253 254 254 252 253 253 254 253 255 253 254 253 252 254 203 0 0 0 0 0 0 0 0 0 0 0 0 0 0 0 0 0 0 0 0 0 0 0 0 0 0 0 0 0 0 0 0 0 0 0 0 0 0 0 0 0 0 1 0 0 0 0 0 0 0 0 0 0 0 0 0 0 0 0 0 0 0 0 0 0 0 1 0 0 0 0 0 0 0 125 255 255 254 254 254 253 255 254 254 255 254 254 254 254 253 254 255 252 254 255 253 254 253 255 254 254 254 254 253 253 253 255 254 255 253 254 254 254 253 253 253 254 255 254 253 254 254 253 252 254 253 253 253 254 253 253 254 253 253 255 253 254 253 254 255 254 253 253 253 254 253 255 253 255 254 254 255 254 255 255 255 255 255 255 255 255 255 255 255 255 255 255 255 255 255 255 255 255 255 255 255 255 255 255 255 255 255 255 255 255 255 255 255 255 255 255 255 255 255 255 255 255 255 255 255 255 255 255 255 255 255 255 255 
255 255 255 255 255 255 255 255 255 255 255 255 255 255 255 255 255 255 255 255 255 255 255 255 255 255 255 255 255 255 255 255 255 255 255 255 255 255 255 255 255 255 255 255 255 255 255 255 255 255 255 255 255 255 254 253 255 255 254 254 253 253 255 254 254 253 253 253 255 255 253 254 254 255 255 255 254 254 253 253 254 254 253 254 254 253 254 253 255 253 253 254 253 254 255 254 255 253 254 254 255 254 253 254 253 253 252 254 253 253 253 254 254 255 253 254 253 253 254 254 253 254 254 253 254 253 254 255 255 253 254 254 253 255 255 65 0 0 0 0 0 0 0 0 0 0 0 0 0 0 0 0 0 1 0 0 0 0 0 0 0 0 0 0 0 0 0 0 0 0 0 1 0 0 0 0 0 0 0 0 0 0 0 0 0 0 0 0 0 0 0 0 0 0 0 0 0 0 0 0 0 0 0 0 0 0 0 0 0 0 157 255 255 254 253 254 253 255 253 253 254 254 253 254 254 253 253 253 255 254 255 253 253 253 254 255 254 253 254 253 254 254 253 253 255 255 188 0 0 0 1 0 0 0 0 0 0 0 1 0 0 0 0 0 0 0 0 0 0 0 0 0 0 0 0 0 0 0 0 1 0 0 0 0 0 0 0 0 1 0 0 0 0 0 0 0 0 0 0 0 0 0 0 0 0 0 0 0 0 0 0 0 1 0 0 0 0 0 0 0 0 72 255 255 254 255 254 254 254 253 254 253 254 254 254 254 253 254 254 255 254 255 253 253 253 255 254 253 253 253 255 255 253 255 254 254 254 253 255 253 255 254 253 253 255 253 252 254 253 253 255 253 254 254 253 253 254 253 253 254 254 253 254 254 255 254 253 254 254 253 254 253 253 254 254 254 254 255 253 255 254 255 255 255 255 255 255 255 255 255 255 255 255 255 255 255 255 255 255 255 255 255 255 255 255 255 255 255 255 255 255 255 255 255 255 255 255 255 255 255 255 255 255 255 255 255 255 255 255 255 255 255 255 255 255 
255 255 255 255 255 255 255 255 255 255 255 255 255 255 255 255 255 255 255 255 255 255 255 255 255 255 255 255 255 255 255 255 255 255 255 255 255 255 255 255 255 255 255 255 255 255 255 255 255 255 255 255 255 255 253 254 254 254 255 254 254 253 254 255 255 254 254 254 253 254 253 253 254 253 254 254 253 254 254 254 254 254 254 252 253 253 254 254 255 253 253 253 254 255 253 254 255 254 255 253 254 253 254 254 253 255 253 254 254 253 253 253 254 255 253 254 254 254 253 253 254 255 254 254 255 253 255 254 255 254 253 254 254 254 255 29 0 0 0 0 0 0 0 0 0 0 0 0 0 0 0 0 0 0 0 0 0 0 0 0 0 0 0 0 0 0 0 0 0 0 0 0 1 0 0 0 0 0 0 0 0 0 0 0 0 0 0 0 0 0 0 0 0 0 0 0 0 0 0 0 0 0 0 0 0 0 0 0 0 0 218 253 254 255 254 253 253 254 253 254 254 253 253 255 255 254 254 252 254 254 255 253 254 254 254 253 254 255 254 254 253 253 253 253 255 254 243 5 1 0 0 0 0 0 0 0 0 0 0 1 0 0 0 0 0 0 0 0 0 0 0 0 0 0 0 0 0 0 0 0 0 0 0 0 0 0 0 0 0 0 0 0 0 0 0 0 0 0 0 0 0 0 0 0 0 0 0 0 0 0 0 0 0 0 0 0 0 0 0 0 2 9 255 254 255 253 255 253 255 254 254 254 254 255 253 253 253 253 254 255 254 253 253 255 254 253 254 253 253 254 254 254 254 253 253 253 255 254 254 254 253 255 254 253 254 253 254 253 255 253 254 253 254 254 254 253 253 254 254 254 254 254 254 254 255 254 253 253 254 253 254 253 254 254 255 253 253 254 253 254 254 255 255 255 255 255 255 255 255 255 255 255 255 255 255 255 255 255 255 255 255 255 255 255 255 255 255 255 255 255 255 255 255 255 255 255 255 255 255 255 255 255 255 255 255 255 255 255 255 255 255 255 255 255 255 
255 255 255 255 255 255 255 255 255 255 255 255 255 255 255 255 255 255 255 255 255 255 255 255 255 255 255 255 255 255 255 255 255 255 255 255 255 255 255 255 255 255 255 255 255 255 255 255 255 255 255 255 255 255 254 254 253 254 254 253 255 254 253 254 254 254 254 254 253 252 254 254 254 253 253 254 254 255 253 254 255 253 254 254 254 253 254 254 254 255 253 253 253 255 253 255 255 254 254 254 253 252 254 254 254 253 254 253 253 254 255 253 254 254 253 254 254 255 253 253 254 253 254 253 253 254 255 254 253 253 254 254 255 253 226 0 1 0 0 0 0 0 0 0 0 0 0 0 0 0 0 0 0 0 0 0 0 0 0 0 0 0 0 0 0 0 0 0 0 0 0 0 1 0 0 0 0 0 0 0 0 0 0 0 0 0 0 0 0 0 0 0 0 0 0 0 0 0 0 0 0 0 0 0 0 0 0 0 0 0 213 254 254 255 254 254 254 254 254 254 253 253 254 254 254 253 253 254 255 255 253 253 254 253 253 253 255 253 253 254 253 253 253 254 254 255 242 3 1 0 0 0 0 0 0 0 0 0 0 0 0 0 1 0 0 0 0 0 0 0 0 0 0 0 0 0 0 0 0 0 0 0 0 0 0 0 0 1 0 0 1 0 0 0 0 0 0 0 0 0 0 0 0 0 0 0 0 0 0 0 0 0 1 0 0 0 0 0 0 0 1 0 225 254 254 253 254 253 254 254 253 254 253 253 254 254 254 254 253 254 255 254 254 253 253 252 253 255 252 254 255 253 254 253 255 254 254 253 255 254 253 254 253 253 253 254 252 253 254 254 253 253 253 253 253 254 254 254 255 254 254 253 254 253 254 253 253 254 253 254 254 254 253 253 254 254 253 254 254 254 254 255 255 255 255 255 255 255 255 255 255 255 255 255 255 255 255 255 255 255 255 255 255 255 255 255 255 255 255 255 255 255 255 255 255 255 255 255 255 255 255 255 255 255 255 255 255 255 255 255 255 255 255 255 255 
255 255 255 255 255 255 255 255 255 255 255 255 255 255 255 255 255 255 255 255 255 255 255 255 255 255 255 255 255 255 255 255 255 255 255 255 255 255 255 255 255 255 255 255 255 255 255 255 255 255 255 255 255 255 255 254 254 254 254 254 254 254 254 254 253 254 254 253 254 254 253 254 254 252 254 254 254 255 253 254 253 253 253 254 254 254 254 253 254 253 255 255 253 254 254 253 255 254 254 254 253 254 253 253 254 254 254 254 252 253 253 254 254 254 252 255 254 253 255 253 254 254 254 253 253 255 253 255 254 254 254 255 255 254 174 0 0 1 0 0 1 0 0 0 0 0 0 0 0 0 0 0 0 0 0 0 0 0 0 0 0 0 0 0 0 0 0 0 0 0 0 0 0 0 0 0 0 0 0 0 0 0 0 1 0 0 0 0 1 0 0 0 0 0 0 0 0 0 0 0 0 0 0 0 0 0 0 0 0 16 254 254 254 254 255 254 253 254 254 253 252 253 254 254 253 254 254 254 254 254 253 253 254 254 254 254 255 253 254 253 253 254 253 254 255 255 254 26 0 0 0 0 0 0 0 0 0 0 0 0 0 0 0 0 0 0 0 0 0 0 0 0 0 0 0 0 0 0 0 0 0 0 0 0 0 0 0 0 0 0 1 0 0 0 0 0 0 0 0 0 0 0 0 1 0 0 0 0 0 0 0 0 0 0 0 0 0 0 0 0 0 0 194 254 254 254 254 254 253 254 252 255 254 254 255 255 255 253 253 255 255 254 253 254 254 255 253 254 254 253 254 253 254 254 253 254 254 254 254 254 254 255 253 253 254 253 254 254 255 253 254 254 253 254 253 254 254 253 254 254 253 253 254 253 254 254 254 255 253 254 254 254 253 253 255 254 254 253 254 254 254 255 255 255 255 255 255 255 255 255 255 255 255 255 255 255 255 255 255 255 255 255 255 255 255 255 255 255 255 255 255 255 255 255 255 255 255 255 255 255 255 255 255 255 255 255 255 255 255 255 255 255 255 255 255 
255 255 255 255 255 255 255 255 255 255 255 255 255 255 255 255 255 255 255 255 255 255 255 255 255 255 255 255 255 255 255 255 255 255 255 255 255 255 255 255 255 255 255 255 255 255 255 255 255 255 255 255 255 255 254 253 255 253 253 253 255 253 255 254 253 255 255 253 253 255 254 253 253 253 254 254 253 254 254 254 253 254 253 254 253 254 254 254 253 253 255 255 253 255 254 254 253 255 254 255 253 254 253 254 253 255 254 254 254 254 253 254 253 255 253 255 254 253 254 253 254 254 254 254 253 254 254 253 254 255 254 255 255 255 109 0 0 0 0 0 0 0 0 0 0 0 0 0 0 1 0 0 0 0 0 0 0 0 0 0 0 0 0 0 0 0 0 0 0 0 0 0 0 0 0 0 0 0 0 0 0 0 0 0 0 0 0 0 0 0 0 0 0 1 0 0 0 0 0 0 0 0 0 0 0 0 0 0 1 16 254 254 255 255 255 253 253 254 254 253 255 253 255 254 254 254 254 252 254 253 253 253 254 255 255 255 254 254 253 254 253 255 254 254 255 253 255 71 0 0 0 1 0 0 0 0 0 0 0 0 0 0 0 0 0 0 0 0 0 0 0 0 0 0 0 0 0 0 0 0 0 0 0 0 0 0 0 0 0 0 1 0 0 0 0 0 0 0 0 0 0 0 0 0 0 0 0 0 0 0 0 0 0 0 0 0 0 0 0 0 0 0 106 255 255 254 255 254 254 254 254 253 254 254 254 253 253 253 254 253 253 255 254 254 254 254 254 253 255 254 254 254 253 253 253 253 254 253 253 253 254 254 254 253 255 252 255 254 255 254 254 253 254 253 253 253 253 254 254 254 253 254 253 252 254 254 254 255 254 253 254 253 253 252 255 253 255 253 253 255 254 255 255 255 255 255 255 255 255 255 255 255 255 255 255 255 255 255 255 255 255 255 255 255 255 255 255 255 255 255 255 255 255 255 255 255 255 255 255 255 255 255 255 255 255 255 255 255 255 255 255 255 255 255 255 
255 255 255 255 255 255 255 255 255 255 255 255 255 255 255 255 255 255 255 255 255 255 255 255 255 255 255 255 255 255 255 255 255 255 255 255 255 255 255 255 255 255 255 255 255 255 255 255 255 255 255 255 255 255 253 254 254 254 254 253 255 253 254 254 254 253 254 253 254 254 255 253 253 254 254 254 253 255 255 253 255 254 254 255 253 253 254 253 254 253 254 254 253 255 253 255 254 254 253 254 254 253 253 254 253 253 253 254 253 255 253 254 253 254 254 253 254 254 253 253 253 254 253 253 254 253 254 254 254 254 254 255 254 255 25 1 0 0 0 0 0 0 0 0 0 0 1 0 0 0 0 0 0 0 0 0 0 0 0 0 0 0 0 0 0 0 0 1 1 0 0 0 0 0 0 0 0 0 1 0 0 0 0 0 1 0 0 0 0 0 0 0 0 0 0 0 0 0 0 0 0 0 0 0 0 0 0 0 1 45 255 255 255 254 253 254 253 254 254 254 254 254 253 254 255 253 254 254 254 253 254 254 253 253 255 254 253 255 254 254 254 255 255 253 255 252 255 65 2 0 1 0 0 0 0 0 0 0 0 0 0 0 0 0 0 0 0 0 0 0 0 0 0 0 0 0 0 0 0 0 0 0 0 0 0 0 0 0 0 0 0 0 1 0 0 0 1 0 0 0 0 0 0 0 0 0 0 0 0 0 0 0 0 0 0 0 0 0 0 0 0 0 37 255 254 254 254 253 255 253 255 252 254 254 253 254 253 254 253 254 253 254 254 254 253 254 254 253 254 254 255 255 253 253 255 254 255 253 254 253 253 254 255 254 254 253 254 254 253 254 253 254 253 253 253 254 253 255 254 255 253 254 254 254 253 253 255 253 254 253 254 254 254 254 254 254 254 255 254 253 254 255 255 255 255 255 255 255 255 255 255 255 255 255 255 255 255 255 255 255 255 255 255 255 255 255 255 255 255 255 255 255 255 255 255 255 255 255 255 255 255 255 255 255 255 255 255 255 255 255 255 255 255 255 255 
255 255 255 255 255 255 255 255 255 255 255 255 255 255 255 255 255 255 255 255 255 255 255 255 255 255 255 255 255 255 255 255 255 255 255 255 255 255 255 255 255 255 255 255 255 255 255 255 255 255 255 255 255 255 253 255 254 255 254 254 254 253 254 254 253 254 253 255 254 255 255 253 253 254 254 252 254 253 254 254 253 254 253 253 255 253 254 254 254 253 254 253 254 255 254 253 254 254 254 254 255 253 253 254 253 253 253 254 254 254 254 254 253 254 253 253 253 254 254 254 254 253 253 254 254 254 254 255 254 254 254 255 253 233 0 1 0 0 0 0 0 1 0 0 0 0 0 0 0 0 0 0 0 0 0 0 0 0 0 0 0 0 0 0 1 0 0 0 0 0 0 0 0 0 0 0 0 0 0 0 0 0 1 0 0 0 0 0 0 0 0 0 0 0 0 0 0 0 1 0 0 0 0 0 0 0 0 0 0 121 255 255 253 254 253 254 253 253 253 255 253 254 254 255 253 253 255 253 253 253 254 254 254 254 253 254 254 254 254 254 255 253 255 254 253 253 254 158 0 0 0 0 0 0 0 0 0 0 0 0 0 0 0 1 0 0 0 0 0 0 0 0 0 0 0 0 0 0 0 0 0 0 0 0 0 0 0 0 0 0 0 0 0 0 0 1 0 0 0 0 0 0 0 0 1 0 0 0 0 0 0 0 0 0 0 0 0 0 0 0 0 0 4 242 255 255 255 253 254 253 253 254 253 253 254 254 253 255 254 253 254 253 253 254 253 255 254 254 254 253 254 253 254 253 255 254 254 253 254 254 253 255 254 255 254 253 253 254 253 254 254 255 253 254 254 254 252 254 254 253 254 253 254 255 254 254 253 254 254 253 254 254 254 255 253 254 253 254 254 253 254 255 255 255 255 255 255 255 255 255 255 255 255 255 255 255 255 255 255 255 255 255 255 255 255 255 255 255 255 255 255 255 255 255 255 255 255 255 255 255 255 255 255 255 255 255 255 255 255 255 255 255 255 255 255 
255 255 255 255 255 255 255 255 255 255 255 255 255 255 255 255 255 255 255 255 255 255 255 255 255 255 255 255 255 255 255 255 255 255 255 255 255 255 255 255 255 255 255 255 255 255 255 255 255 255 255 255 255 255 253 254 254 255 253 254 255 252 253 254 253 254 253 254 255 253 254 254 254 253 253 253 254 254 254 253 253 255 254 253 254 254 253 254 253 254 254 253 255 253 255 253 253 254 254 253 253 253 254 254 253 254 254 254 254 254 254 255 254 254 253 254 254 255 255 253 255 254 254 255 254 255 253 253 253 253 254 254 255 171 0 1 0 0 0 0 0 0 1 0 0 0 0 0 0 0 0 0 0 0 0 0 0 0 0 0 0 0 1 0 0 0 0 0 0 0 0 0 0 0 0 1 0 0 0 0 0 0 0 0 0 0 0 0 0 0 0 1 0 0 0 0 0 0 0 0 0 0 0 0 0 0 0 0 0 127 255 255 252 254 254 254 254 254 253 253 253 253 254 255 253 253 255 254 253 253 253 254 253 255 253 255 255 254 254 255 255 255 255 254 254 252 254 180 0 0 0 0 0 0 0 0 0 0 0 0 0 0 0 0 0 1 0 0 0 0 0 0 0 0 0 0 0 0 0 0 0 0 0 0 0 1 0 0 0 0 0 0 0 0 0 0 0 0 0 0 0 0 0 0 0 0 0 0 0 0 0 0 0 0 1 0 0 0 0 0 0 0 0 199 253 255 253 255 255 253 253 252 254 253 255 254 254 253 255 253 254 254 253 255 254 253 254 255 253 253 255 253 254 253 254 253 253 253 254 253 253 254 253 255 253 253 253 253 253 254 255 252 253 254 254 253 253 254 253 254 255 254 253 253 253 255 252 255 253 254 254 253 254 253 253 254 254 254 253 254 254 255 255 255 255 255 255 255 255 255 255 255 255 255 255 255 255 255 255 255 255 255 255 255 255 255 255 255 255 255 255 255 255 255 255 255 255 255 255 255 255 255 255 255 255 255 255 255 255 255 255 255 255 255 255 
255 255 255 255 255 255 255 255 255 255 255 255 255 255 255 255 255 255 255 255 255 255 255 255 255 255 255 255 255 255 255 255 255 255 255 255 255 255 255 255 255 255 255 255 255 255 255 255 255 255 255 255 255 255 254 254 253 254 253 253 254 254 254 254 253 254 254 253 255 253 254 255 254 253 253 253 253 255 254 253 254 253 255 254 253 253 254 254 253 255 254 253 253 253 255 253 253 254 253 253 253 253 255 254 254 254 254 255 254 254 253 254 254 254 253 253 255 254 255 253 253 254 254 254 253 253 254 253 254 253 252 254 255 89 0 1 0 0 0 0 0 0 0 0 0 0 0 0 0 0 0 0 0 0 0 0 0 0 0 0 0 0 0 0 0 0 0 0 0 0 0 0 0 0 0 0 0 0 0 0 1 0 0 0 0 0 0 0 0 0 0 0 0 0 0 1 0 0 0 0 0 0 0 0 0 0 0 0 0 220 254 254 254 253 253 254 253 255 253 254 254 254 253 255 253 253 254 254 254 254 254 255 253 254 253 255 254 253 255 255 255 254 254 253 254 253 252 218 0 2 0 0 0 0 0 0 0 0 0 0 0 0 0 0 0 0 0 0 0 0 0 0 0 0 0 0 0 0 0 0 0 0 0 0 0 0 0 0 0 1 0 1 0 0 0 0 0 0 0 0 0 0 0 0 0 0 0 0 0 0 0 0 0 0 0 1 0 0 0 0 1 0 0 102 255 254 253 253 255 254 254 254 253 253 255 254 255 253 254 253 253 255 253 254 254 254 254 255 254 254 254 253 254 253 255 253 253 253 253 253 254 254 254 254 254 255 253 254 253 254 253 253 253 254 253 254 254 253 254 254 254 255 253 253 254 255 253 254 254 254 254 254 254 254 254 255 255 254 254 254 254 255 255 255 255 255 255 255 255 255 255 255 255 255 255 255 255 255 255 255 255 255 255 255 255 255 255 255 255 255 255 255 255 255 255 255 255 255 255 255 255 255 255 255 255 255 255 255 255 255 255 255 255 255 255 
255 255 255 255 255 255 255 255 255 255 255 255 255 255 255 255 255 255 255 255 255 255 255 255 255 255 255 255 255 255 255 255 255 255 255 255 255 255 255 255 255 255 255 255 255 255 255 255 255 255 255 255 255 255 254 254 254 253 253 254 254 254 255 253 253 254 255 253 253 255 255 253 254 254 254 254 253 253 253 254 254 254 254 255 254 254 254 254 254 255 254 253 253 254 255 253 254 255 254 254 254 253 254 254 255 252 253 254 253 255 253 253 255 254 253 253 255 252 254 253 254 254 255 254 253 254 253 253 254 254 252 252 255 19 3 0 0 0 0 0 0 0 0 0 0 0 0 1 0 0 0 0 0 0 0 0 0 0 0 0 0 0 0 0 0 0 0 0 0 0 0 0 0 0 0 0 0 0 0 0 0 0 0 0 0 0 0 0 0 0 0 0 0 0 0 0 0 0 0 0 0 0 0 0 0 0 0 2 0 229 255 253 254 253 253 253 253 253 253 254 254 254 253 253 254 253 255 254 254 254 254 255 253 253 254 254 253 253 254 255 253 254 253 254 254 253 251 252 10 1 0 0 0 0 0 0 0 0 0 0 0 0 0 0 0 0 0 0 0 0 0 0 0 0 0 0 0 0 0 0 0 0 0 0 0 0 0 0 0 0 0 0 0 0 0 0 0 0 0 0 0 0 0 0 0 0 0 0 0 0 0 0 0 0 0 0 0 0 0 0 0 0 1 32 255 251 253 253 254 254 254 254 254 253 253 253 255 253 255 252 253 252 253 252 254 254 254 254 254 253 253 254 253 254 254 254 254 254 254 253 253 254 254 254 254 254 254 254 253 254 254 254 254 254 253 253 254 253 255 253 254 253 253 254 254 254 255 253 253 253 252 254 253 255 253 254 254 253 254 254 254 255 255 255 255 255 255 255 255 255 255 255 255 255 255 255 255 255 255 255 255 255 255 255 255 255 255 255 255 255 255 255 255 255 255 255 255 255 255 255 255 255 255 255 255 255 255 255 255 255 255 255 255 255 255 
255 255 255 255 255 255 255 255 255 255 255 255 255 255 255 255 255 255 255 255 255 255 255 255 255 255 255 255 255 255 255 255 255 255 255 255 255 255 255 255 255 255 255 255 255 255 255 255 255 255 255 255 255 255 253 253 254 253 253 255 254 254 254 253 254 254 254 254 254 254 255 254 255 255 254 255 253 253 254 253 253 253 254 255 253 254 254 254 255 253 254 254 254 253 255 254 255 254 255 254 254 254 255 253 255 253 253 254 254 254 253 253 254 254 254 255 254 253 254 253 254 254 254 255 254 254 254 255 254 254 252 250 219 0 2 1 0 0 0 0 0 0 0 0 0 0 0 0 0 0 0 0 0 0 0 0 0 0 0 0 0 0 0 0 0 0 0 0 0 0 1 0 0 0 0 0 0 0 0 0 0 0 0 0 0 0 0 0 0 0 0 0 0 0 0 0 0 0 0 0 0 0 0 0 0 0 1 2 7 242 255 253 253 254 253 252 255 253 253 254 254 254 253 253 255 253 254 255 253 254 254 253 254 253 255 255 253 254 255 254 254 254 253 254 252 254 253 251 10 3 0 0 0 0 0 0 0 0 0 0 0 0 1 0 0 0 0 0 0 0 0 0 0 0 0 0 0 0 0 0 0 0 0 0 0 0 0 1 0 0 0 0 0 0 0 0 0 0 0 0 0 0 0 0 0 0 0 0 0 0 0 0 0 0 0 0 1 0 0 1 0 0 1 2 236 253 253 253 253 255 254 255 254 254 253 253 253 254 254 254 253 253 254 254 253 253 254 254 253 254 254 255 253 255 253 255 254 254 254 253 254 253 253 254 254 253 255 253 253 253 254 255 255 254 253 254 255 254 252 254 254 254 254 254 254 253 254 253 254 254 254 253 253 254 254 252 254 254 253 255 255 255 255 255 255 255 255 255 255 255 255 255 255 255 255 255 255 255 255 255 255 255 255 255 255 255 255 255 255 255 255 255 255 255 255 255 255 255 255 255 255 255 255 255 255 255 255 255 255 255 255 255 255 255 255 
255 255 255 255 255 255 255 255 255 255 255 255 255 255 255 255 255 255 255 255 255 255 255 255 255 255 255 255 255 255 255 255 255 255 255 255 255 255 255 255 255 255 255 255 255 255 255 255 255 255 255 255 255 255 254 253 254 254 254 253 254 254 255 253 255 255 254 254 254 255 255 253 254 254 253 253 254 254 254 254 254 253 255 254 253 254 254 253 253 253 255 253 254 254 252 254 255 254 252 254 254 255 255 254 254 253 253 253 255 254 253 254 253 253 254 255 252 254 253 253 253 254 254 254 254 254 254 254 254 253 251 254 144 0 0 0 0 0 0 1 0 0 0 0 0 0 1 0 0 0 0 0 0 0 0 0 0 0 0 0 0 0 0 0 0 0 0 0 0 0 0 0 0 0 0 0 0 0 0 0 0 0 0 0 0 0 1 0 0 1 0 0 0 0 0 0 0 0 0 0 0 0 0 0 0 0 0 1 46 255 254 254 253 253 253 253 254 254 254 254 253 253 254 253 254 255 253 254 254 255 253 253 254 253 253 255 253 255 255 254 255 253 253 253 254 254 255 255 59 2 2 0 0 0 0 0 0 0 0 0 0 0 0 0 0 1 1 0 0 0 0 0 0 1 0 0 0 0 0 0 0 0 0 0 0 0 0 0 0 0 0 1 0 0 0 0 0 0 0 0 0 0 1 0 0 0 0 0 0 0 0 0 0 1 0 0 0 0 0 0 1 0 0 0 165 254 252 253 253 253 255 254 255 254 254 254 253 255 254 255 253 254 254 254 254 254 255 254 254 255 253 253 254 253 254 252 254 253 254 254 254 254 254 253 255 254 252 253 255 254 254 254 255 252 253 252 255 254 252 254 254 253 254 253 254 253 254 254 255 255 254 254 253 254 255 253 254 254 253 254 253 255 255 255 255 255 255 255 255 255 255 255 255 255 255 255 255 255 255 255 255 255 255 255 255 255 255 255 255 255 255 255 255 255 255 255 255 255 255 255 255 255 255 255 255 255 255 255 255 255 255 255 255 255 255 
255 255 255 255 255 255 255 255 255 255 255 255 255 255 255 255 255 255 255 255 255 255 255 255 255 255 255 255 255 255 255 255 255 255 255 255 255 255 255 255 255 255 255 255 255 255 255 255 255 255 255 255 255 255 255 254 253 255 254 253 255 253 254 253 253 253 254 254 254 255 253 253 253 254 253 253 253 254 254 253 253 253 254 254 255 254 255 254 254 253 253 254 253 253 254 253 254 253 254 253 254 254 253 254 253 254 255 253 254 253 254 254 254 253 253 253 254 253 254 255 254 254 254 254 255 255 253 254 255 254 253 255 49 1 0 0 0 0 0 0 0 0 0 0 0 0 0 0 0 0 1 0 0 0 0 0 0 0 0 0 0 0 0 0 0 0 0 0 0 0 0 0 0 0 0 0 0 0 0 0 0 0 0 0 0 0 0 0 0 0 0 0 0 0 0 0 0 0 0 0 0 0 0 0 0 1 0 1 33 255 252 255 254 253 253 253 253 253 255 254 254 252 254 255 254 254 253 255 255 254 254 254 254 253 253 254 253 254 254 255 253 254 253 253 254 254 255 255 99 1 1 0 0 0 0 0 0 0 0 0 1 0 0 0 0 0 0 1 0 1 0 0 0 0 0 0 0 0 0 0 0 0 0 0 0 0 0 0 0 0 0 0 0 0 0 0 0 0 0 0 0 0 0 0 0 0 0 0 0 0 0 0 1 0 0 0 0 0 0 0 0 0 0 1 69 255 253 253 253 253 254 255 254 253 255 254 254 253 254 255 254 254 255 253 253 255 254 253 255 252 254 253 254 253 253 253 254 254 254 254 255 253 254 255 254 253 254 253 254 253 255 253 253 254 253 253 255 254 253 253 255 253 254 253 253 254 255 253 254 254 254 254 254 254 255 255 253 254 254 254 253 255 255 255 255 255 255 255 255 255 255 255 255 255 255 255 255 255 255 255 255 255 255 255 255 255 255 255 255 255 255 255 255 255 255 255 255 255 255 255 255 255 255 255 255 255 255 255 255 255 255 255 255 255 255 
255 255 255 255 255 255 255 255 255 255 255 255 255 255 255 255 255 255 255 255 255 255 255 255 255 255 255 255 255 255 255 255 255 255 255 255 255 255 255 255 255 255 255 255 255 255 255 255 255 255 255 255 255 255 254 254 253 254 253 253 254 254 254 254 254 254 253 253 254 254 253 255 253 254 254 253 254 253 253 254 254 254 254 255 254 254 254 254 254 255 253 254 254 253 254 253 254 253 254 253 254 253 253 254 254 255 255 253 254 253 255 253 253 254 253 254 255 253 254 253 254 255 253 254 255 255 254 255 254 255 253 238 0 1 0 0 0 0 0 0 0 0 0 0 0 0 0 0 0 0 0 0 0 1 0 0 0 0 0 0 0 0 0 0 0 0 0 0 0 0 0 0 0 0 0 0 0 0 0 0 0 0 0 0 0 0 0 0 0 1 0 0 0 0 0 0 0 0 0 0 1 0 0 0 0 0 0 0 128 255 252 255 254 255 254 253 253 254 254 254 253 253 253 254 255 253 255 253 253 254 254 253 253 255 255 254 254 255 253 255 252 254 254 253 253 255 255 255 112 0 0 0 0 0 0 0 0 0 0 0 0 0 0 0 1 0 0 0 0 0 0 0 0 0 0 0 0 0 0 0 0 0 0 0 0 0 0 0 0 0 0 0 0 0 0 0 0 0 0 0 0 0 0 0 0 0 0 0 0 0 0 0 0 0 0 0 0 0 0 0 0 0 0 1 9 252 251 254 253 254 255 255 254 255 253 254 255 253 254 255 254 253 254 253 254 253 253 253 253 253 254 253 253 254 254 253 253 253 255 253 254 254 254 253 254 253 255 255 253 253 254 254 254 253 253 254 253 254 254 253 254 254 253 254 253 254 254 254 254 255 254 253 255 253 255 254 253 255 253 254 254 255 255 255 255 255 255 255 255 255 255 255 255 255 255 255 255 255 255 255 255 255 255 255 255 255 255 255 255 255 255 255 255 255 255 255 255 255 255 255 255 255 255 255 255 255 255 255 255 255 255 255 255 255 255 
255 255 255 255 255 255 255 255 255 255 255 255 255 255 255 255 255 255 255 255 255 255 255 255 255 255 255 255 255 255 255 255 255 255 255 255 255 255 255 255 255 255 255 255 255 255 255 255 255 255 255 255 255 255 253 254 254 254 254 254 254 254 254 253 254 254 253 253 254 253 253 255 255 253 255 253 254 253 253 254 254 254 254 255 255 253 253 253 254 253 253 253 254 253 254 253 254 255 254 254 254 254 252 254 255 254 253 254 255 253 253 253 253 253 253 254 254 254 253 254 253 253 254 254 255 255 254 254 255 254 255 157 0 0 0 0 0 0 0 0 0 0 0 0 0 0 1 0 0 0 0 0 0 0 0 0 0 0 0 0 0 1 1 0 0 0 0 0 0 0 0 0 0 0 0 0 0 0 0 0 0 0 0 0 0 0 0 0 0 0 0 0 0 0 0 0 0 0 0 0 0 1 0 0 0 0 0 0 129 255 253 254 255 255 255 253 254 253 253 253 254 253 254 253 254 253 254 253 253 254 254 253 254 253 255 254 253 253 253 254 253 253 253 254 254 254 255 254 211 0 0 0 0 0 0 0 0 0 0 0 0 0 0 0 0 0 0 0 0 0 0 0 0 0 0 0 0 0 0 0 0 0 0 0 0 0 0 0 0 0 0 0 0 0 0 0 1 0 0 0 0 0 0 0 0 0 0 0 0 0 0 0 0 0 0 0 0 1 0 0 0 0 0 0 0 194 253 255 254 254 254 254 255 253 254 254 253 254 255 254 255 254 253 254 254 253 253 253 253 254 253 253 253 255 254 253 253 253 253 253 255 254 253 254 253 254 254 255 254 255 253 254 254 252 253 254 253 255 254 255 255 253 255 254 253 254 254 254 253 253 254 253 254 254 254 254 253 254 254 254 254 255 255 255 255 255 255 255 255 255 255 255 255 255 255 255 255 255 255 255 255 255 255 255 255 255 255 255 255 255 255 255 255 255 255 255 255 255 255 255 255 255 255 255 255 255 255 255 255 255 255 255 255 255 255 
255 255 255 255 255 255 255 255 255 255 255 255 255 255 255 255 255 255 255 255 255 255 255 255 255 255 255 255 255 255 255 255 255 255 255 255 255 255 255 255 255 255 255 255 255 255 255 255 255 255 255 255 255 255 253 253 255 254 253 254 253 253 254 254 253 254 253 254 254 254 254 254 255 253 253 254 254 253 253 254 254 254 254 253 253 253 253 253 253 254 254 253 253 253 254 253 255 253 253 254 254 255 253 254 255 254 254 254 254 253 253 253 255 253 253 254 253 253 253 255 253 253 254 253 254 255 255 255 254 248 255 33 0 0 0 0 0 0 0 0 0 0 1 0 0 0 0 0 0 0 0 0 1 0 1 0 0 0 0 0 0 1 0 0 0 0 0 0 0 0 0 0 0 0 0 0 0 0 0 0 0 0 0 0 0 0 0 0 0 0 0 0 0 0 0 0 0 0 0 0 0 0 0 0 0 0 0 0 139 255 255 254 254 254 254 254 255 254 253 253 253 254 253 254 253 254 254 253 254 253 253 254 253 253 255 255 253 253 254 254 253 253 253 254 255 255 255 254 209 0 0 0 0 0 0 0 0 0 0 0 0 0 0 0 0 0 0 0 0 0 0 0 0 0 0 0 0 0 0 0 0 1 0 0 0 0 0 0 0 0 0 0 0 0 0 0 1 0 0 0 0 1 0 0 0 0 0 0 0 0 1 0 0 1 0 0 0 0 0 0 0 0 0 0 0 69 255 247 255 255 255 254 253 253 253 254 253 253 254 254 254 255 253 254 254 255 253 253 253 254 255 253 253 253 254 254 255 253 254 254 253 254 253 254 254 254 253 254 255 255 253 253 255 253 254 254 253 254 253 255 253 253 253 255 253 254 255 253 254 254 255 254 253 254 254 253 254 255 253 255 253 255 255 255 255 255 255 255 255 255 255 255 255 255 255 255 255 255 255 255 255 255 255 255 255 255 255 255 255 255 255 255 255 255 255 255 255 255 255 255 255 255 255 255 255 255 255 255 255 255 255 255 255 255 255 
255 255 255 255 255 255 255 255 255 255 255 255 255 255 255 255 255 255 255 255 255 255 255 255 255 255 255 255 255 255 255 255 255 255 255 255 255 255 255 255 255 255 255 255 255 255 255 255 255 255 255 255 255 255 253 253 253 254 252 255 254 252 255 253 252 253 253 253 254 255 255 253 254 253 254 253 253 254 254 255 253 253 255 253 252 255 254 254 254 255 253 254 254 253 254 253 254 255 254 254 253 254 254 254 255 255 255 254 254 253 255 253 253 254 253 253 254 253 254 255 254 255 253 253 254 254 253 253 251 251 41 0 1 0 0 0 0 0 0 0 0 0 0 0 0 0 0 0 0 0 0 0 0 0 0 0 0 0 0 0 0 0 0 0 0 0 0 0 0 0 0 0 0 0 0 0 0 0 0 0 0 0 0 0 0 0 0 0 0 0 0 0 0 0 0 0 0 0 0 0 0 0 0 0 0 0 0 0 230 253 255 255 255 253 254 253 254 253 253 254 253 254 253 253 253 255 255 253 255 253 253 255 253 254 254 254 254 254 253 253 254 253 254 255 254 254 255 253 243 6 0 0 0 0 0 0 0 0 0 0 0 0 0 0 0 0 0 0 0 0 0 0 0 1 0 0 0 0 0 0 0 0 0 0 0 0 0 0 0 0 0 0 0 0 0 0 0 0 0 0 0 0 0 0 0 0 0 0 0 0 0 0 0 0 0 0 0 0 0 0 0 0 0 0 1 0 93 255 250 254 255 255 253 253 253 254 254 253 254 254 253 255 254 253 254 254 254 253 253 253 253 253 254 253 254 253 254 253 254 255 252 254 254 253 255 254 254 254 254 253 254 253 253 254 253 253 253 253 253 253 254 253 253 254 253 254 253 254 253 254 253 254 253 254 255 253 255 253 253 253 254 255 255 255 255 255 255 255 255 255 255 255 255 255 255 255 255 255 255 255 255 255 255 255 255 255 255 255 255 255 255 255 255 255 255 255 255 255 255 255 255 255 255 255 255 255 255 255 255 255 255 255 255 255 255 
255 255 255 255 255 255 255 255 255 255 255 255 255 255 255 255 255 255 255 255 255 255 255 255 255 255 255 255 255 255 255 255 255 255 255 255 255 255 255 255 255 255 255 255 255 255 255 255 255 255 255 255 255 255 253 253 254 254 254 253 254 254 254 253 254 253 254 253 254 253 254 254 255 254 254 255 254 254 255 253 254 253 253 254 254 253 253 254 254 255 253 254 254 253 254 254 253 254 254 254 253 255 253 253 253 254 254 253 254 254 255 254 254 253 253 254 254 254 255 253 254 254 253 253 255 255 250 254 227 4 3 4 0 0 0 1 0 0 0 0 0 1 0 0 0 0 0 0 0 0 0 0 0 0 0 0 0 0 0 0 0 0 0 0 0 0 0 0 0 0 0 0 0 0 0 0 0 0 0 0 0 0 0 0 0 0 0 0 0 1 0 0 0 0 0 0 0 0 0 0 0 0 0 0 0 0 0 0 229 253 254 254 255 253 253 255 253 253 254 253 254 253 254 254 255 254 254 254 253 254 254 254 255 255 253 253 253 253 253 255 253 254 255 254 255 254 255 250 251 11 0 0 0 0 0 0 0 0 0 0 0 0 0 0 0 0 0 0 0 0 0 0 0 0 0 0 0 0 0 0 0 1 0 0 0 0 0 0 0 0 0 0 1 0 0 0 0 0 0 0 0 0 0 0 0 1 0 0 0 0 0 0 0 0 0 0 1 0 0 0 0 0 1 0 0 2 0 19 211 255 251 255 254 254 253 254 253 254 255 255 253 253 254 253 253 253 255 254 254 254 254 252 254 253 254 254 254 253 253 253 253 254 254 253 255 255 253 253 254 254 254 253 253 253 255 253 255 254 253 253 254 254 254 255 254 255 252 254 254 253 253 254 253 253 254 254 255 253 254 254 254 255 255 255 255 255 255 255 255 255 255 255 255 255 255 255 255 255 255 255 255 255 255 255 255 255 255 255 255 255 255 255 255 255 255 255 255 255 255 255 255 255 255 255 255 255 255 255 255 255 255 255 255 255 255 
255 255 255 255 255 255 255 255 255 255 255 255 255 255 255 255 255 255 255 255 255 255 255 255 255 255 255 255 255 255 255 255 255 255 255 255 255 255 255 255 255 255 255 255 255 255 255 255 255 255 255 255 255 255 253 253 254 254 254 254 254 255 255 253 254 254 254 253 254 253 253 253 255 254 253 254 253 254 254 253 254 253 254 253 254 253 254 254 254 253 253 254 253 254 254 254 253 253 254 254 253 254 253 254 253 254 253 255 254 253 254 255 255 253 253 254 253 254 255 254 255 254 255 253 255 253 255 193 0 7 3 1 0 0 0 0 0 0 0 0 0 0 0 0 0 0 1 0 0 0 0 0 0 0 0 0 0 0 0 0 0 0 0 0 0 0 0 0 0 0 0 0 0 1 0 0 0 0 0 0 0 0 0 0 0 0 0 0 0 0 1 0 0 0 0 0 0 0 0 0 0 0 0 0 0 0 0 21 255 253 255 255 255 254 253 254 253 254 253 253 253 254 254 253 255 253 253 253 252 253 254 253 254 253 254 254 253 253 253 255 254 254 254 255 254 255 253 250 250 10 0 1 0 0 0 0 0 0 0 0 0 0 0 0 0 0 0 0 0 0 0 0 0 0 0 0 0 0 0 0 0 0 0 0 0 0 0 0 0 0 0 0 0 0 0 0 0 1 0 0 0 0 0 0 0 0 0 1 0 0 0 0 0 0 0 0 0 0 0 0 0 0 0 0 0 0 3 5 0 176 255 253 255 254 254 254 254 254 255 254 254 254 254 253 253 254 254 255 254 253 254 254 253 253 254 254 255 254 254 253 253 255 253 253 254 254 254 254 254 253 254 253 254 254 254 254 254 254 254 253 254 254 253 253 254 254 254 254 255 253 254 255 254 254 254 254 255 254 255 254 255 255 255 255 255 255 255 255 255 255 255 255 255 255 255 255 255 255 255 255 255 255 255 255 255 255 255 255 255 255 255 255 255 255 255 255 255 255 255 255 255 255 255 255 255 255 255 255 255 255 255 255 255 255 255 
255 255 255 255 255 255 255 255 255 255 255 255 255 255 255 255 255 255 255 255 255 255 255 255 255 255 255 255 255 255 255 255 255 255 255 255 255 255 255 255 255 255 255 255 255 255 255 255 255 255 255 255 255 255 253 254 254 253 255 255 253 254 253 254 254 254 254 254 254 253 253 253 253 253 253 253 253 254 253 254 254 254 254 252 253 254 253 255 253 253 254 253 253 254 252 253 253 254 254 254 254 252 253 254 253 255 254 253 255 253 253 254 253 254 254 254 253 254 253 255 255 253 254 254 255 253 214 0 4 1 0 0 0 0 0 0 0 0 0 0 0 0 0 0 0 0 0 0 0 0 0 0 0 0 0 0 0 0 0 0 0 0 0 0 0 0 0 0 0 0 0 0 0 0 0 0 0 0 0 0 0 0 0 0 0 0 0 0 0 0 0 0 0 0 0 0 0 0 0 0 0 0 0 0 0 0 0 38 255 253 254 254 254 254 253 253 253 254 253 255 253 254 253 253 254 254 253 254 255 253 254 254 254 253 254 253 254 254 253 255 254 255 254 254 254 254 254 251 255 35 1 1 0 1 0 0 0 0 0 0 0 0 0 0 0 0 0 0 0 0 0 0 0 0 0 0 0 0 0 0 0 0 0 0 0 0 0 0 1 0 0 0 0 0 0 0 0 0 0 0 0 0 0 0 0 0 0 1 0 0 0 0 0 0 0 0 0 0 0 0 0 0 0 0 0 0 1 2 6 0 205 254 255 254 253 253 254 254 254 253 254 254 253 254 254 255 254 254 253 253 254 254 254 254 255 254 254 254 255 253 254 254 253 252 254 253 255 253 254 253 254 254 254 255 252 255 253 253 255 254 255 254 254 252 254 254 255 253 254 253 255 254 253 254 255 254 254 254 254 253 254 255 255 255 255 255 255 255 255 255 255 255 255 255 255 255 255 255 255 255 255 255 255 255 255 255 255 255 255 255 255 255 255 255 255 255 255 255 255 255 255 255 255 255 255 255 255 255 255 255 255 255 255 255 255 
255 255 255 255 255 255 255 255 255 255 255 255 255 255 255 255 255 255 255 255 255 255 255 255 255 255 255 255 255 255 255 255 255 255 255 255 255 255 255 255 255 255 255 255 255 255 255 255 255 255 255 255 255 255 253 254 255 254 254 254 253 253 252 254 254 254 255 253 254 254 253 254 253 255 254 254 254 253 253 255 255 253 253 254 253 254 254 254 253 253 255 253 253 253 255 253 253 254 254 254 255 254 253 253 253 255 253 253 254 254 254 253 254 255 255 253 254 254 252 254 254 254 252 254 254 255 24 2 0 0 1 0 0 0 0 0 0 0 0 0 0 0 0 0 0 0 0 0 0 0 0 0 0 0 0 0 0 0 0 0 0 0 0 0 0 0 0 0 0 0 0 0 0 0 0 0 0 0 0 0 0 0 0 0 0 0 0 0 0 0 0 1 0 0 0 0 0 0 0 0 0 0 0 0 0 0 0 43 255 254 254 254 254 254 254 254 253 253 253 253 253 254 253 254 253 254 254 253 253 254 254 254 255 254 253 253 255 255 253 254 254 255 254 255 255 253 254 251 255 100 0 1 0 1 0 0 0 0 0 0 0 0 0 0 0 1 0 0 0 0 0 0 0 0 0 0 0 0 0 0 0 0 1 0 0 0 0 0 0 0 0 0 0 0 0 0 0 0 0 0 0 0 0 0 0 0 0 0 0 0 0 0 0 0 0 0 0 0 0 0 0 0 0 0 0 0 1 2 0 1 17 255 254 254 251 253 253 254 254 254 254 253 253 254 254 254 255 253 253 254 253 253 254 255 254 253 254 254 253 253 254 253 253 254 255 253 253 254 254 254 254 254 254 254 254 253 254 253 254 254 253 255 254 254 253 255 253 253 253 254 254 254 254 254 254 253 254 254 253 254 254 255 255 255 255 255 255 255 255 255 255 255 255 255 255 255 255 255 255 255 255 255 255 255 255 255 255 255 255 255 255 255 255 255 255 255 255 255 255 255 255 255 255 255 255 255 255 255 255 255 255 255 255 255 255 
255 255 255 255 255 255 255 255 255 255 255 255 255 255 255 255 255 255 255 255 255 255 255 255 255 255 255 255 255 255 255 255 255 255 255 255 255 255 255 255 255 255 255 255 255 255 255 255 255 255 255 255 255 255 254 253 254 254 254 253 254 254 254 253 252 254 255 253 254 254 254 253 253 254 253 255 255 254 254 253 254 254 253 253 253 252 254 253 253 254 254 254 254 254 254 254 254 254 253 255 254 254 253 253 255 253 253 254 253 254 255 253 254 255 254 255 255 253 253 254 254 253 251 252 251 176 0 3 0 0 0 0 0 0 0 0 0 0 0 1 0 0 0 0 0 0 0 0 0 0 0 0 0 0 0 0 0 0 0 0 0 0 0 0 0 1 0 0 0 0 0 0 0 0 0 0 0 0 0 0 0 0 0 0 0 0 0 0 0 0 0 0 0 0 0 0 0 0 0 0 0 0 0 0 0 0 1 48 255 255 255 253 254 254 254 253 254 253 253 254 254 255 254 253 254 254 254 254 253 254 253 253 254 254 254 253 253 254 254 255 255 255 255 253 254 253 254 251 255 118 0 1 0 1 0 0 0 0 0 0 0 0 0 0 0 0 0 0 0 0 0 0 0 0 0 1 0 0 0 0 0 0 0 0 0 0 0 0 0 0 0 0 0 1 0 0 0 0 0 0 0 0 0 1 0 0 0 0 0 0 0 0 0 0 1 0 0 0 0 0 0 0 0 0 0 0 0 1 0 0 0 176 253 250 250 251 253 255 255 255 255 254 253 253 254 255 255 254 254 253 253 254 254 254 254 253 255 254 254 253 253 254 254 253 254 253 253 254 253 254 255 253 255 254 255 253 254 253 253 253 253 255 253 254 254 255 253 254 254 254 254 254 255 254 254 254 253 254 254 254 254 255 255 255 255 255 255 255 255 255 255 255 255 255 255 255 255 255 255 255 255 255 255 255 255 255 255 255 255 255 255 255 255 255 255 255 255 255 255 255 255 255 255 255 255 255 255 255 255 255 255 255 255 255 255 
255 255 255 255 255 255 255 255 255 255 255 255 255 255 255 255 255 255 255 255 255 255 255 255 255 255 255 255 255 255 255 255 255 255 255 255 255 255 255 255 255 255 255 255 255 255 255 255 255 255 255 255 255 255 254 254 254 254 255 254 254 253 255 253 254 254 254 254 253 252 255 253 254 253 254 254 254 254 254 254 254 255 253 254 254 253 253 254 254 253 253 254 255 254 252 254 253 253 254 254 253 254 253 254 255 253 253 254 253 254 254 253 253 255 255 254 255 253 254 255 253 246 250 255 252 82 0 1 0 0 0 0 0 0 0 0 0 0 0 0 1 0 0 0 0 0 0 0 0 0 0 0 0 0 0 0 0 0 0 0 0 0 0 0 0 0 0 0 0 0 0 0 0 0 0 0 0 0 0 0 0 1 0 0 1 0 0 0 0 0 0 0 0 0 0 0 0 0 0 0 0 0 0 0 0 1 1 51 255 254 255 253 253 253 253 254 255 252 253 254 254 253 255 253 254 255 253 255 254 253 254 253 253 253 253 254 253 254 253 255 255 254 255 254 253 253 254 253 255 120 0 0 0 0 0 0 0 1 0 0 0 0 0 0 0 0 0 0 0 0 0 0 0 0 0 1 0 0 0 0 0 0 0 0 0 0 0 0 0 0 0 0 0 0 0 0 0 0 0 0 0 0 0 0 0 0 0 0 0 0 0 0 0 1 0 0 0 0 0 0 0 0 0 0 0 0 0 1 0 0 1 60 255 255 250 246 253 255 255 254 255 254 254 253 255 255 254 255 253 252 254 254 255 253 254 255 253 253 255 253 253 255 254 254 253 254 253 253 254 254 254 253 254 254 255 254 254 253 253 254 254 253 254 253 254 254 252 253 254 253 255 254 254 254 254 253 254 253 254 255 253 255 255 255 255 255 255 255 255 255 255 255 255 255 255 255 255 255 255 255 255 255 255 255 255 255 255 255 255 255 255 255 255 255 255 255 255 255 255 255 255 255 255 255 255 255 255 255 255 255 255 255 255 255 255 
255 255 255 255 255 255 255 255 255 255 255 255 255 255 255 255 255 255 255 255 255 255 255 255 255 255 255 255 255 255 255 255 255 255 255 255 255 255 255 255 255 255 255 255 255 255 255 255 255 255 255 255 255 255 253 255 254 253 255 255 253 253 254 254 255 254 254 254 253 254 254 253 255 254 253 254 254 253 254 254 254 255 254 255 253 254 253 255 255 254 253 254 255 254 253 253 253 254 255 254 254 255 254 254 255 253 254 255 253 254 253 253 253 254 255 254 255 255 253 244 254 255 199 69 8 0 3 0 0 0 1 0 0 0 0 0 0 0 0 0 1 0 0 0 0 0 0 0 0 0 0 0 0 0 0 0 0 0 0 0 0 0 0 0 0 0 0 0 0 0 0 0 0 0 0 0 0 0 0 0 0 0 0 0 0 0 0 0 0 0 0 0 0 0 0 0 0 0 0 0 0 0 0 0 0 0 1 50 255 255 255 253 254 254 253 255 255 253 253 254 253 252 254 254 253 255 254 254 255 253 253 252 255 253 254 255 253 254 254 255 254 255 255 253 253 254 254 254 255 120 0 0 0 0 0 0 0 0 0 0 0 1 0 0 0 0 0 0 0 0 0 1 0 0 0 0 0 0 0 0 0 0 0 0 0 0 0 0 0 0 0 0 0 0 0 0 0 0 0 0 0 0 0 0 0 0 0 0 0 0 1 1 0 0 0 0 0 0 0 0 0 0 0 0 0 0 0 1 0 0 3 0 2 81 218 255 254 245 253 255 253 253 254 254 254 255 254 253 254 254 253 254 254 254 254 253 253 254 253 253 255 253 254 255 254 255 254 253 254 255 254 255 253 253 255 253 255 254 252 254 255 252 254 254 254 253 254 253 254 254 253 254 254 254 255 253 255 254 254 254 254 255 255 255 255 255 255 255 255 255 255 255 255 255 255 255 255 255 255 255 255 255 255 255 255 255 255 255 255 255 255 255 255 255 255 255 255 255 255 255 255 255 255 255 255 255 255 255 255 255 255 255 255 255 255 
255 255 255 255 255 255 255 255 255 255 255 255 255 255 255 255 255 255 255 255 255 255 255 255 255 255 255 255 255 255 255 255 255 255 255 255 255 255 255 255 255 255 255 255 255 255 255 255 255 255 255 255 255 255 254 254 254 253 255 255 254 255 253 253 254 253 255 253 255 253 254 254 253 255 254 254 253 254 254 254 253 254 254 255 253 253 254 254 253 255 253 254 255 253 254 253 254 254 254 253 255 253 253 254 253 253 255 254 254 255 253 254 253 253 254 255 254 245 254 255 174 26 0 1 4 1 0 0 0 0 0 0 0 0 0 0 0 0 0 0 0 0 0 0 1 0 0 0 0 1 0 0 0 0 0 0 0 0 0 0 0 0 0 0 0 0 0 0 0 0 0 0 0 0 0 0 0 0 0 0 0 0 0 0 0 0 0 0 0 0 0 1 0 0 0 0 0 0 0 0 0 0 0 0 0 0 1 50 255 253 255 254 253 255 255 253 254 253 254 254 254 254 253 254 253 255 253 253 254 255 253 254 253 254 254 254 253 255 253 255 254 255 255 253 253 253 255 255 255 120 0 0 0 0 0 0 0 0 0 0 0 0 0 0 0 0 0 0 0 0 0 0 0 0 0 0 0 0 0 0 0 0 0 0 0 0 0 0 0 0 0 0 0 0 1 0 0 0 0 0 0 0 0 0 0 0 0 0 0 0 0 0 0 0 0 0 0 0 0 0 0 0 0 0 0 0 0 0 0 0 0 1 5 1 0 42 189 255 255 247 252 253 254 255 254 253 253 253 254 255 253 253 254 255 254 253 254 253 252 253 255 253 255 254 253 255 255 253 253 253 255 253 253 254 255 253 254 254 253 253 255 254 252 253 255 253 254 255 255 254 253 254 254 255 254 255 254 255 255 254 254 255 255 255 255 255 255 255 255 255 255 255 255 255 255 255 255 255 255 255 255 255 255 255 255 255 255 255 255 255 255 255 255 255 255 255 255 255 255 255 255 255 255 255 255 255 255 255 255 255 255 255 255 255 255 
255 255 255 255 255 255 255 255 255 255 255 255 255 255 255 255 255 255 255 255 255 255 255 255 255 255 255 255 255 255 255 255 255 255 255 255 255 255 255 255 255 255 255 255 255 255 255 255 255 255 255 255 255 255 255 255 253 255 253 254 254 254 254 254 254 253 253 253 254 254 255 255 254 255 254 255 253 254 254 255 253 254 253 255 254 254 254 255 254 252 254 255 254 253 255 253 254 254 255 253 254 254 253 255 253 253 255 254 254 255 255 254 252 253 253 248 253 255 174 14 0 3 5 2 0 0 0 0 0 0 0 0 0 0 0 0 0 0 0 0 0 0 0 0 0 0 0 0 0 0 0 0 0 0 0 0 0 0 0 0 0 0 0 0 0 0 0 0 1 0 0 0 0 0 0 0 0 0 0 0 0 0 0 0 0 0 0 0 1 0 0 0 0 0 0 0 0 0 0 0 0 0 0 0 0 0 0 43 255 250 253 255 253 255 254 253 254 254 255 255 254 255 255 254 255 254 254 253 253 255 253 254 253 254 254 254 255 254 254 255 254 254 252 253 254 253 254 255 255 54 0 0 0 0 0 0 0 0 0 0 0 0 0 0 0 0 0 0 0 0 0 0 0 0 0 0 0 0 0 0 0 0 0 0 0 0 0 0 0 0 0 0 0 0 0 0 0 0 0 0 0 0 0 0 0 0 0 0 0 0 0 0 0 0 1 0 0 0 0 0 0 0 0 0 0 0 0 0 0 0 0 0 0 2 6 2 0 28 185 255 250 247 255 255 255 253 253 252 253 254 255 255 254 255 254 253 254 253 254 253 254 254 253 255 253 254 255 254 255 253 254 254 253 255 253 254 255 254 254 254 255 253 253 253 255 254 254 254 254 254 253 255 252 254 254 254 254 254 255 255 254 255 255 255 255 255 255 255 255 255 255 255 255 255 255 255 255 255 255 255 255 255 255 255 255 255 255 255 255 255 255 255 255 255 255 255 255 255 255 255 255 255 255 255 255 255 255 255 255 255 255 255 255 255 255 
255 255 255 255 255 255 255 255 255 255 255 255 255 255 255 255 255 255 255 255 255 255 255 255 255 255 255 255 255 255 255 255 255 255 255 255 255 255 255 255 255 255 255 255 255 255 255 255 255 255 255 255 255 255 254 254 254 254 253 253 253 254 255 253 253 254 253 253 254 254 255 253 255 254 255 254 254 254 253 252 254 255 253 254 254 255 253 253 254 253 254 255 254 253 252 254 255 253 254 254 254 254 254 254 253 254 252 254 254 255 255 254 253 251 248 255 217 32 0 6 5 2 0 0 0 0 0 0 0 1 0 0 0 0 0 0 0 0 0 0 0 0 0 0 0 0 0 0 0 0 0 1 0 0 0 0 0 0 0 0 0 1 0 0 0 0 1 0 0 0 0 0 0 0 0 0 0 0 0 0 0 0 0 0 0 1 0 0 0 0 0 0 0 0 0 1 0 0 0 0 0 0 0 0 0 0 0 14 248 251 253 254 255 255 254 254 253 254 253 254 254 254 253 254 254 253 254 253 254 254 255 253 254 254 255 253 253 254 253 253 254 254 254 253 254 255 254 254 255 29 0 0 0 0 0 0 0 0 0 0 0 0 0 0 0 0 0 0 0 0 0 0 0 0 0 0 0 0 0 0 0 0 0 0 0 0 0 0 0 0 0 0 0 0 0 0 0 0 0 0 0 0 0 1 0 0 0 0 0 0 0 0 0 0 0 0 0 0 0 0 0 0 0 0 0 0 0 0 0 0 0 0 0 0 0 2 6 4 0 42 216 255 247 254 255 253 253 253 254 254 254 254 255 253 253 253 254 253 254 254 254 253 253 254 254 254 252 254 254 255 254 253 254 255 253 254 255 255 254 254 254 253 254 253 254 254 255 253 255 255 253 254 253 254 254 254 254 255 254 254 255 255 255 255 255 255 255 255 255 255 255 255 255 255 255 255 255 255 255 255 255 255 255 255 255 255 255 255 255 255 255 255 255 255 255 255 255 255 255 255 255 255 255 255 255 255 255 255 255 255 255 255 255 255 255 
255 255 255 255 255 255 255 255 255 255 255 255 255 255 255 255 255 255 255 255 255 255 255 255 255 255 255 255 255 255 255 255 255 255 255 255 255 255 255 255 255 255 255 255 255 255 255 255 255 255 255 255 255 255 254 253 253 255 253 253 254 254 252 253 253 254 254 253 255 253 253 253 254 254 255 254 253 255 253 253 254 254 253 254 253 254 253 253 254 254 255 253 255 253 254 253 252 254 254 253 254 254 255 255 254 254 253 252 253 255 255 255 250 251 253 79 0 3 4 2 2 1 0 0 0 0 0 0 0 0 0 0 0 0 0 0 0 0 0 0 0 0 0 0 0 0 1 0 0 0 0 0 0 0 0 0 0 0 0 0 0 0 0 0 0 0 0 0 0 0 0 0 0 0 0 0 0 0 0 0 0 0 0 0 0 0 0 0 0 0 0 1 0 0 0 0 0 0 0 0 0 0 0 0 0 0 0 0 206 253 253 254 255 254 253 254 253 253 254 255 254 254 254 254 253 254 253 254 254 254 252 254 252 253 255 255 253 255 254 253 254 253 253 253 255 255 255 253 219 0 0 0 0 0 0 0 0 0 0 0 0 0 0 0 0 0 0 0 0 1 0 0 0 0 0 0 0 0 0 0 0 0 0 0 0 0 0 0 0 0 0 1 0 0 0 0 0 0 0 0 0 0 0 0 0 0 0 0 0 0 0 0 1 0 0 0 0 0 1 0 0 1 0 0 0 0 0 0 0 0 0 0 0 0 0 2 2 2 5 2 0 103 255 251 250 252 252 253 255 255 255 254 255 253 254 255 253 255 253 254 253 254 254 253 254 253 254 252 253 253 254 253 255 253 253 254 253 255 255 253 252 254 254 253 255 255 253 255 253 254 253 254 255 253 254 253 254 254 254 253 254 255 255 255 255 255 255 255 255 255 255 255 255 255 255 255 255 255 255 255 255 255 255 255 255 255 255 255 255 255 255 255 255 255 255 255 255 255 255 255 255 255 255 255 255 255 255 255 255 255 255 255 255 255 255 
255 255 255 255 255 255 255 255 255 255 255 255 255 255 255 255 255 255 255 255 255 255 255 255 255 255 255 255 255 255 255 255 255 255 255 255 255 255 255 255 255 255 255 255 255 255 255 255 255 255 255 255 255 255 254 253 253 254 255 253 254 255 253 253 253 254 254 253 255 253 253 253 253 255 253 255 253 254 254 253 254 254 254 255 253 254 254 252 253 255 254 253 255 254 254 253 253 253 255 253 253 254 254 254 255 255 255 253 253 254 255 249 254 230 8 1 7 0 0 0 0 0 1 0 0 0 0 0 0 0 0 0 0 0 0 0 0 0 0 0 0 0 0 0 0 0 0 0 0 0 0 0 0 0 0 0 0 0 0 0 0 0 0 0 0 0 0 0 0 0 1 0 0 0 0 0 0 0 0 0 0 0 0 0 0 0 0 0 0 0 1 0 0 0 0 1 0 1 0 0 0 0 0 0 0 0 0 1 65 255 254 255 255 255 253 254 253 254 254 253 254 254 255 255 253 255 253 254 253 254 253 254 253 253 255 253 254 253 253 253 254 254 253 253 255 255 255 255 93 0 0 0 0 0 0 0 0 0 0 0 0 0 0 1 0 0 0 0 0 0 1 0 0 0 0 0 0 0 0 0 0 0 0 1 0 0 0 0 0 0 0 0 0 0 0 0 0 0 0 0 0 0 0 0 0 0 0 0 0 0 0 0 0 0 0 0 0 0 0 0 0 0 0 0 0 0 0 0 0 0 0 0 0 0 0 2 1 1 0 0 8 0 9 222 255 245 251 254 255 254 255 254 254 254 253 254 253 254 254 253 253 255 254 254 254 253 255 253 254 253 254 252 255 253 254 254 253 254 255 253 253 253 253 253 255 254 253 254 254 254 255 253 254 254 254 253 254 254 253 253 254 255 255 255 255 255 255 255 255 255 255 255 255 255 255 255 255 255 255 255 255 255 255 255 255 255 255 255 255 255 255 255 255 255 255 255 255 255 255 255 255 255 255 255 255 255 255 255 255 255 255 255 255 255 255 
255 255 255 255 255 255 255 255 255 255 255 255 255 255 255 255 255 255 255 255 255 255 255 255 255 255 255 255 255 255 255 255 255 255 255 255 255 255 255 255 255 255 255 255 255 255 255 255 255 255 255 255 255 255 254 254 255 254 254 254 254 255 254 254 254 254 253 255 255 255 253 254 254 254 253 253 254 254 254 253 254 254 254 253 253 254 254 253 253 255 254 253 255 253 255 254 255 253 253 254 254 254 253 255 255 254 255 253 253 251 249 255 161 0 6 1 0 0 0 0 0 0 0 0 0 0 0 0 0 0 0 0 0 0 0 0 0 0 0 0 0 0 0 0 0 0 0 0 0 0 0 0 0 0 0 1 0 0 0 0 0 0 0 0 0 0 0 0 0 0 0 0 0 0 0 0 0 0 0 0 0 0 0 0 0 0 0 0 0 0 0 0 0 0 0 0 0 0 0 0 0 0 1 0 0 0 0 1 5 244 254 254 255 254 253 254 253 254 254 253 254 255 254 253 253 253 253 253 253 253 254 253 254 255 253 253 254 254 253 254 253 254 254 253 254 254 254 255 21 1 1 0 0 0 0 0 0 0 0 0 0 0 0 0 0 0 0 0 0 0 0 0 0 0 0 0 0 0 0 1 0 0 0 0 0 0 0 0 0 0 0 0 0 0 0 0 0 0 0 0 0 0 0 0 0 0 0 0 0 0 0 0 0 0 0 0 0 0 0 0 0 0 0 0 0 0 0 0 0 0 0 0 0 0 0 0 0 0 0 0 0 2 7 0 154 255 247 255 255 255 254 255 254 255 253 255 254 254 254 253 253 253 255 254 255 254 255 254 254 255 255 253 253 254 254 254 254 254 253 254 254 253 253 254 254 253 255 254 255 253 253 254 253 255 255 253 254 254 253 254 254 255 255 255 255 255 255 255 255 255 255 255 255 255 255 255 255 255 255 255 255 255 255 255 255 255 255 255 255 255 255 255 255 255 255 255 255 255 255 255 255 255 255 255 255 255 255 255 255 255 255 255 255 255 255 
255 255 255 255 255 255 255 255 255 255 255 255 255 255 255 255 255 255 255 255 255 255 255 255 255 255 255 255 255 255 255 255 255 255 255 255 255 255 255 255 255 255 255 255 255 255 255 255 255 255 255 255 255 255 253 254 254 254 254 255 254 255 253 254 255 253 254 255 254 254 254 254 255 255 253 253 253 254 254 255 253 253 254 253 253 254 254 253 255 253 253 253 253 254 254 254 253 254 253 254 253 254 254 254 255 255 255 254 252 247 255 145 0 10 0 0 0 0 0 0 0 0 0 1 0 0 0 0 0 0 0 0 0 0 0 0 0 0 0 0 0 0 0 0 0 0 0 0 0 0 0 0 1 0 0 0 0 0 0 1 0 0 0 0 0 0 0 0 0 0 0 0 0 0 0 0 0 0 0 0 0 0 0 0 0 0 0 0 0 0 0 0 0 0 0 0 1 0 0 0 0 0 0 0 0 1 0 0 0 187 255 255 253 253 253 254 253 255 255 254 255 253 254 255 253 255 253 253 253 253 253 254 254 254 253 254 254 253 253 253 253 253 254 254 254 255 254 227 0 2 1 0 0 0 0 0 0 0 0 0 0 0 0 0 0 0 0 0 0 0 0 0 0 0 0 0 0 0 0 0 0 0 0 0 0 0 0 1 0 0 0 0 0 0 0 0 0 0 0 0 0 0 0 0 0 0 0 0 0 0 0 0 0 0 0 0 0 0 0 0 0 0 0 0 0 0 0 0 0 0 0 0 0 0 0 0 0 0 0 0 0 1 0 9 0 101 255 248 255 254 255 254 253 253 253 253 254 253 255 253 253 253 253 255 254 253 255 254 255 254 253 255 253 255 255 254 255 253 254 254 254 254 253 254 255 253 253 254 253 255 253 253 254 254 254 254 255 254 254 255 254 255 255 255 255 255 255 255 255 255 255 255 255 255 255 255 255 255 255 255 255 255 255 255 255 255 255 255 255 255 255 255 255 255 255 255 255 255 255 255 255 255 255 255 255 255 255 255 255 255 255 255 255 255 255 
255 255 255 255 255 255 255 255 255 255 255 255 255 255 255 255 255 255 255 255 255 255 255 255 255 255 255 255 255 255 255 255 255 255 255 255 255 255 255 255 255 255 255 255 255 255 255 255 255 255 255 255 255 255 254 253 253 254 253 254 254 255 254 255 254 254 255 253 254 254 254 255 253 255 254 254 255 253 253 254 253 253 254 253 254 254 254 253 255 255 253 254 253 253 254 254 255 253 255 255 255 253 255 253 254 255 255 255 247 255 135 0 8 1 1 0 0 0 0 0 0 0 0 0 0 0 0 0 0 0 0 0 0 0 0 0 0 0 0 0 0 0 0 0 0 0 0 0 0 0 0 0 0 0 0 0 0 0 0 0 0 0 0 0 0 0 0 0 0 0 0 0 0 0 0 0 0 0 0 0 0 0 0 0 0 0 0 0 0 0 0 0 0 0 0 0 0 0 0 0 0 0 0 0 0 0 0 0 0 121 255 255 254 254 253 253 254 253 253 254 255 255 252 253 255 255 253 253 253 255 253 254 253 254 254 254 255 253 254 253 254 254 254 254 254 255 255 142 0 2 0 0 0 0 0 0 0 0 0 0 0 0 0 0 1 0 0 0 0 0 0 0 0 0 0 0 0 0 0 0 1 0 0 0 0 0 0 0 0 0 0 0 0 0 0 0 0 0 0 0 0 0 0 0 0 0 0 1 0 0 0 0 0 0 0 0 0 0 0 0 0 0 0 0 0 1 0 0 0 0 0 0 0 0 0 0 0 0 0 0 0 0 0 0 5 0 108 255 251 255 255 254 254 254 254 254 253 253 254 254 254 255 253 253 255 253 253 255 255 253 253 253 253 254 253 255 254 253 255 255 253 254 254 254 254 254 253 255 253 255 254 253 253 254 255 253 253 253 254 253 254 255 255 255 255 255 255 255 255 255 255 255 255 255 255 255 255 255 255 255 255 255 255 255 255 255 255 255 255 255 255 255 255 255 255 255 255 255 255 255 255 255 255 255 255 255 255 255 255 255 255 255 255 255 255 
255 255 255 255 255 255 255 255 255 255 255 255 255 255 255 255 255 255 255 255 255 255 255 255 255 255 255 255 255 255 255 255 255 255 255 255 255 255 255 255 255 255 255 255 255 255 255 255 255 255 255 255 255 255 254 254 253 253 253 255 254 254 253 254 254 254 255 253 253 253 253 254 253 253 255 254 254 254 253 255 254 253 254 255 254 253 254 255 253 253 255 253 255 253 254 253 253 254 254 254 254 253 253 254 254 254 255 254 255 147 0 6 1 1 0 1 0 0 0 0 0 0 0 0 0 0 0 0 0 0 0 0 0 0 0 0 0 0 0 0 0 0 0 0 0 0 0 0 0 0 0 0 0 0 0 0 0 0 0 0 0 0 0 0 0 0 0 0 0 0 0 0 0 0 0 0 0 0 0 0 0 0 0 0 0 0 0 0 0 0 0 0 0 0 0 0 0 0 0 0 0 0 0 0 0 0 0 0 2 34 255 251 253 254 254 253 253 255 253 255 253 253 253 253 255 253 255 253 254 255 253 254 253 254 253 253 253 253 254 253 253 253 254 255 254 252 255 68 1 1 0 0 0 0 0 0 0 0 0 0 0 0 0 0 0 0 0 0 0 0 0 0 0 0 0 0 0 0 0 0 0 0 0 0 0 0 0 0 0 0 0 0 0 0 0 0 0 0 0 0 0 0 0 0 1 0 0 0 0 0 0 0 0 0 0 0 0 0 0 0 0 0 0 0 0 0 0 0 0 0 1 0 0 0 0 0 0 0 0 0 0 0 0 0 0 5 0 139 255 252 255 254 253 254 253 254 253 253 253 254 253 255 254 254 253 253 254 254 254 253 253 253 253 254 253 253 254 253 255 254 255 255 253 254 253 254 253 254 254 253 254 254 254 254 255 254 253 253 254 254 254 255 255 255 255 255 255 255 255 255 255 255 255 255 255 255 255 255 255 255 255 255 255 255 255 255 255 255 255 255 255 255 255 255 255 255 255 255 255 255 255 255 255 255 255 255 255 255 255 255 255 255 255 255 255 
255 255 255 255 255 255 255 255 255 255 255 255 255 255 255 255 255 255 255 255 255 255 255 255 255 255 255 255 255 255 255 255 255 255 255 255 255 255 255 255 255 255 255 255 255 255 255 255 255 255 255 255 255 255 253 255 253 253 255 255 255 253 254 253 253 254 253 255 253 255 253 254 252 254 254 254 253 254 255 253 254 253 253 254 254 254 255 253 253 253 255 254 255 254 255 254 254 253 253 255 254 253 253 253 253 255 255 251 214 0 7 0 0 0 0 0 0 0 0 0 0 0 0 0 0 0 0 0 1 0 0 0 0 0 0 0 0 0 0 0 0 0 0 0 0 0 0 0 0 0 0 0 0 0 0 0 0 0 0 0 0 0 0 0 0 0 1 0 0 0 0 0 0 0 0 0 0 0 0 0 0 0 0 0 0 0 0 0 0 0 0 0 0 0 0 0 0 0 1 0 0 0 0 0 0 1 0 0 2 1 233 253 253 254 254 255 253 254 255 253 255 254 254 254 253 253 253 253 255 254 254 254 253 254 254 253 253 254 253 254 254 254 253 254 253 250 248 5 6 0 0 0 0 0 0 0 1 0 0 0 0 0 0 0 0 0 0 0 0 0 0 0 0 0 0 0 0 0 0 0 0 0 0 0 0 0 0 0 0 0 0 0 0 0 0 0 0 0 0 0 0 0 0 0 0 0 0 0 0 1 0 0 0 0 0 0 0 0 0 0 0 0 0 0 0 0 0 0 0 0 0 0 0 0 0 0 0 0 0 0 0 0 0 0 0 0 7 0 203 252 255 253 254 253 254 253 254 254 254 254 254 255 254 255 253 255 254 255 255 254 254 252 254 254 255 253 253 253 254 254 255 254 254 254 253 254 253 255 255 254 254 253 254 255 255 253 255 255 253 253 254 255 255 255 255 255 255 255 255 255 255 255 255 255 255 255 255 255 255 255 255 255 255 255 255 255 255 255 255 255 255 255 255 255 255 255 255 255 255 255 255 255 255 255 255 255 255 255 255 255 255 255 255 255 255 
255 255 255 255 255 255 255 255 255 255 255 255 255 255 255 255 255 255 255 255 255 255 255 255 255 255 255 255 255 255 255 255 255 255 255 255 255 255 255 255 255 255 255 255 255 255 255 255 255 255 255 255 255 255 254 254 253 254 255 254 254 254 254 254 253 254 253 255 253 254 253 255 253 253 254 254 254 254 253 253 254 253 254 254 254 255 254 254 255 253 253 255 253 255 253 255 255 254 254 254 254 253 254 254 253 255 252 251 1 4 0 0 0 0 0 0 1 0 0 0 0 0 0 0 0 0 0 0 0 0 0 0 0 0 0 0 0 0 0 0 0 0 0 0 0 0 0 0 0 0 0 0 0 0 0 0 0 0 0 0 0 0 1 0 0 0 0 0 0 0 0 0 0 0 0 0 0 0 0 0 0 0 0 0 0 0 0 0 0 0 0 0 0 0 0 0 0 0 0 0 0 0 0 0 0 0 0 0 0 0 218 253 254 254 253 255 254 254 255 253 253 254 254 255 253 253 253 255 253 253 254 254 254 255 253 254 253 255 253 254 255 255 254 254 253 251 248 8 1 0 0 0 0 0 0 0 0 0 0 0 0 0 0 0 0 0 0 0 0 0 0 0 0 0 0 0 0 0 0 0 0 1 0 0 0 0 0 0 0 0 0 0 0 0 0 0 0 0 0 0 0 0 0 0 0 0 0 1 0 0 0 0 0 0 0 0 0 0 0 0 0 0 0 0 0 0 0 0 0 0 0 0 0 0 0 0 0 0 0 0 0 0 0 0 0 0 2 8 0 242 247 252 253 253 254 253 254 254 254 255 255 253 254 255 254 255 255 253 253 255 254 254 254 254 255 253 253 253 254 253 254 254 254 255 253 255 253 255 253 253 255 254 254 253 254 253 254 255 254 253 254 255 255 255 255 255 255 255 255 255 255 255 255 255 255 255 255 255 255 255 255 255 255 255 255 255 255 255 255 255 255 255 255 255 255 255 255 255 255 255 255 255 255 255 255 255 255 255 255 255 255 255 255 255 255 
255 255 255 255 255 255 255 255 255 255 255 255 255 255 255 255 255 255 255 255 255 255 255 255 255 255 255 255 255 255 255 255 255 255 255 255 255 255 255 255 255 255 255 255 255 255 255 255 255 255 255 255 255 255 254 254 255 254 253 254 253 254 253 254 253 254 254 254 253 255 255 253 253 253 253 255 254 253 253 254 254 254 254 255 253 254 254 255 254 253 254 253 253 254 253 254 253 254 253 254 255 254 253 253 253 251 255 52 2 1 0 0 0 0 0 0 0 0 0 0 0 0 1 0 0 0 0 0 0 0 0 0 0 0 0 0 0 0 0 0 0 0 0 0 0 0 0 0 0 0 0 0 0 0 0 0 0 0 0 0 0 0 0 0 0 0 0 0 1 0 0 0 0 0 0 0 0 0 0 0 0 0 1 0 0 0 0 0 0 0 0 0 0 0 0 1 0 0 0 0 0 0 0 0 0 0 0 0 0 0 226 253 254 254 254 253 253 255 253 253 253 253 254 253 253 253 253 255 253 254 253 255 255 253 253 253 254 254 254 254 255 255 255 255 253 251 247 5 1 0 0 0 0 0 0 0 0 0 0 0 0 0 0 0 0 0 0 0 0 0 0 0 0 0 0 0 0 0 0 0 0 0 0 0 1 0 0 0 0 0 0 0 0 0 0 0 0 0 0 0 0 0 0 0 0 0 0 1 0 0 0 0 0 0 0 0 0 0 0 0 0 1 0 0 0 0 0 0 0 0 0 0 0 0 0 0 0 0 0 0 0 0 0 0 0 0 1 2 4 26 255 245 252 253 253 253 254 254 255 254 254 252 255 253 253 253 255 254 253 254 255 253 254 254 253 254 254 254 254 254 254 255 253 254 254 255 253 253 254 254 255 255 254 255 254 255 253 254 254 254 253 255 255 255 255 255 255 255 255 255 255 255 255 255 255 255 255 255 255 255 255 255 255 255 255 255 255 255 255 255 255 255 255 255 255 255 255 255 255 255 255 255 255 255 255 255 255 255 255 255 255 255 255 255 255 
255 255 255 255 255 255 255 255 255 255 255 255 255 255 255 255 255 255 255 255 255 255 255 255 255 255 255 255 255 255 255 255 255 255 255 255 255 255 255 255 255 255 255 255 255 255 255 255 255 255 255 255 255 255 255 253 254 253 255 254 254 253 254 254 254 254 254 254 254 255 255 253 253 254 254 253 254 254 254 255 254 253 253 255 253 255 254 254 254 255 253 254 254 254 253 253 253 254 254 254 253 254 253 253 252 252 184 0 4 0 0 0 0 0 0 0 0 0 0 0 0 1 0 0 0 0 0 0 0 0 0 0 0 1 0 0 0 0 0 0 0 0 0 0 0 0 0 0 0 0 1 0 0 0 0 0 0 0 0 0 0 0 0 0 0 0 0 0 0 0 0 0 0 0 0 0 0 0 0 0 0 0 0 0 0 0 0 0 0 0 0 0 0 0 0 0 0 0 0 0 0 0 0 0 0 0 0 0 1 25 255 253 254 255 254 255 255 254 253 254 254 253 253 253 255 255 253 254 253 253 253 254 254 253 253 253 253 254 254 254 254 255 255 255 253 253 255 32 1 0 0 0 0 0 0 0 0 0 0 0 0 0 0 0 0 0 0 0 0 0 0 0 0 0 0 0 0 0 0 0 0 0 0 0 0 0 0 0 0 0 0 0 0 0 0 0 0 0 0 0 0 0 0 0 0 0 0 0 0 0 0 0 0 0 0 0 1 0 0 0 0 0 0 0 0 1 0 0 0 0 0 0 0 0 0 0 0 0 0 0 0 0 0 0 0 1 0 2 1 0 135 254 251 253 253 254 255 253 255 254 255 254 255 254 253 254 253 254 255 255 253 253 255 253 254 253 255 254 253 255 254 254 253 254 253 254 253 253 254 254 254 254 253 255 253 255 254 254 254 254 254 255 255 255 255 255 255 255 255 255 255 255 255 255 255 255 255 255 255 255 255 255 255 255 255 255 255 255 255 255 255 255 255 255 255 255 255 255 255 255 255 255 255 255 255 255 255 255 255 255 255 255 255 255 255 
255 255 255 255 255 255 255 255 255 255 255 255 255 255 255 255 255 255 255 255 255 255 255 255 255 255 255 255 255 255 255 255 255 255 255 255 255 255 255 255 255 255 255 255 255 255 255 255 255 255 255 255 255 255 254 254 254 254 255 253 254 252 254 253 253 254 254 253 254 253 253 254 254 253 254 253 254 255 254 254 254 253 254 253 253 255 255 253 253 255 254 253 253 253 255 254 254 255 255 255 253 253 254 253 248 255 4 4 1 0 1 0 0 0 0 0 0 0 0 0 1 0 0 0 0 0 0 0 0 0 0 0 0 0 0 0 0 0 0 0 0 0 0 0 0 0 0 0 0 0 0 0 0 0 0 0 0 0 0 0 0 0 0 0 0 0 0 0 0 0 0 0 0 0 0 0 0 1 0 0 0 0 0 0 0 0 0 0 0 0 0 0 0 0 0 0 0 0 0 0 0 0 0 0 0 0 0 0 0 133 255 255 254 253 253 255 253 253 253 254 254 253 253 255 254 254 254 252 253 253 254 254 254 253 254 253 254 255 253 254 253 255 254 255 255 253 255 141 0 1 0 0 0 0 0 0 0 1 0 0 0 0 0 0 0 1 0 0 0 0 0 0 0 0 0 0 0 1 0 0 0 0 0 0 0 0 0 0 0 0 0 0 0 0 0 0 0 0 0 0 0 0 0 0 0 1 0 0 0 0 0 0 0 0 0 1 0 0 0 0 0 0 0 0 0 0 0 0 0 0 0 0 0 0 0 0 0 0 0 0 0 0 0 0 0 0 0 1 0 4 0 242 248 255 253 254 255 253 255 253 253 254 254 253 254 253 254 254 255 254 253 253 254 252 255 253 254 254 254 255 254 254 253 255 253 253 253 254 254 254 254 254 253 253 255 253 253 255 255 254 255 255 255 255 255 255 255 255 255 255 255 255 255 255 255 255 255 255 255 255 255 255 255 255 255 255 255 255 255 255 255 255 255 255 255 255 255 255 255 255 255 255 255 255 255 255 255 255 255 255 255 255 255 255 255 
255 255 255 255 255 255 255 255 255 255 255 255 255 255 255 255 255 255 255 255 255 255 255 255 255 255 255 255 255 255 255 255 255 255 255 255 255 255 255 255 255 255 255 255 255 255 255 255 255 255 255 255 255 255 254 255 255 254 254 255 253 255 254 254 254 253 254 255 254 253 254 253 254 253 254 254 255 255 253 254 254 253 254 254 253 255 254 254 254 254 255 254 253 253 254 255 254 255 254 254 255 254 252 253 255 100 0 1 0 0 0 0 0 0 0 0 0 0 0 0 0 0 0 0 0 0 0 0 0 0 0 0 0 0 0 0 0 0 0 0 0 0 0 0 0 0 0 0 0 0 0 0 0 0 0 0 0 0 0 0 0 0 0 0 0 0 0 0 0 0 0 0 0 0 0 0 0 0 0 0 0 0 0 0 0 0 0 0 0 0 0 0 0 0 0 0 0 0 0 0 0 1 0 0 0 0 1 1 24 255 252 255 255 254 254 255 252 255 253 254 254 254 254 254 254 254 254 253 254 254 255 254 253 254 254 254 254 255 254 255 254 254 253 252 252 254 252 255 36 1 3 0 0 0 0 0 0 0 0 0 0 0 0 0 0 1 0 0 0 0 0 0 0 0 0 0 0 0 0 0 0 0 0 0 0 0 0 0 0 0 0 0 0 0 0 0 0 0 0 0 0 0 0 0 0 0 0 0 0 0 0 0 0 0 0 0 0 0 0 0 0 0 1 0 0 0 0 0 0 0 0 0 0 0 0 0 0 0 0 0 0 0 0 0 0 0 1 0 0 0 1 74 255 254 254 255 254 254 253 254 253 253 253 253 255 252 254 254 254 255 254 254 254 255 253 253 254 254 253 254 254 254 254 253 254 254 253 254 255 253 254 254 253 254 254 254 254 254 253 254 254 255 255 255 255 255 255 255 255 255 255 255 255 255 255 255 255 255 255 255 255 255 255 255 255 255 255 255 255 255 255 255 255 255 255 255 255 255 255 255 255 255 255 255 255 255 255 255 255 255 255 255 255 255 255 
255 255 255 255 255 255 255 255 255 255 255 255 255 255 255 255 255 255 255 255 255 255 255 255 255 255 255 255 255 255 255 255 255 255 255 255 255 255 255 255 255 255 255 255 255 255 255 255 255 255 255 255 255 255 254 254 254 255 255 253 254 253 254 255 253 253 253 255 254 254 255 253 254 254 254 253 254 254 253 253 255 253 254 254 254 254 253 255 254 255 253 253 255 254 254 254 254 254 253 254 255 254 253 248 247 0 3 0 0 0 0 0 0 0 0 0 0 0 0 0 0 0 0 0 0 0 0 0 0 0 0 0 0 0 0 0 0 0 0 0 0 0 0 0 0 0 0 0 0 0 0 0 0 1 0 0 0 0 0 0 0 0 0 0 0 0 0 0 0 0 0 0 0 0 0 0 0 0 0 0 0 0 0 0 0 0 0 0 0 0 1 0 0 0 0 0 0 0 0 0 0 0 0 0 0 0 0 9 247 249 255 255 255 253 254 253 254 253 253 255 254 254 253 255 253 254 254 253 254 254 254 253 254 255 254 253 254 253 254 254 254 254 254 252 253 254 255 252 254 21 1 0 0 0 0 0 0 0 0 0 0 1 0 0 0 0 0 0 0 1 0 0 0 0 1 0 0 0 0 0 0 0 0 0 0 0 0 0 0 0 0 0 0 0 0 0 0 0 0 0 0 0 0 0 0 0 0 0 0 0 0 0 0 0 0 0 0 0 1 0 0 0 0 0 0 0 0 0 0 0 0 0 0 0 0 1 0 0 1 0 0 0 0 0 0 0 0 0 0 0 2 0 233 252 255 255 255 255 253 254 254 253 253 254 254 253 255 254 254 253 254 253 255 253 253 253 255 253 253 253 253 255 254 254 253 255 254 253 254 253 254 254 254 255 253 253 254 254 253 254 254 255 255 255 255 255 255 255 255 255 255 255 255 255 255 255 255 255 255 255 255 255 255 255 255 255 255 255 255 255 255 255 255 255 255 255 255 255 255 255 255 255 255 255 255 255 255 255 255 255 255 255 255 255 255 
255 255 255 255 255 255 255 255 255 255 255 255 255 255 255 255 255 255 255 255 255 255 255 255 255 255 255 255 255 255 255 255 255 255 255 255 255 255 255 255 255 255 255 255 255 255 255 255 255 255 255 255 255 255 254 254 254 254 254 252 255 254 254 255 253 253 254 253 253 254 255 253 253 255 253 254 253 255 254 253 254 254 254 254 254 253 253 254 254 254 254 254 254 253 254 253 255 254 254 254 254 255 252 255 115 0 0 0 0 0 0 0 0 0 0 0 0 0 0 0 0 1 0 0 0 0 0 0 0 0 0 0 0 0 0 0 0 0 0 0 0 0 0 0 0 0 0 0 0 0 1 0 0 0 0 0 0 0 0 0 0 0 0 0 1 0 0 0 0 0 0 0 0 0 1 0 0 0 0 0 0 0 0 0 0 0 0 0 0 0 0 0 0 0 0 0 0 0 0 0 0 0 0 0 0 0 0 2 225 253 254 255 255 253 254 252 254 253 254 254 254 254 254 254 254 253 254 253 254 254 253 254 253 254 253 252 254 253 253 255 253 253 254 253 254 255 255 252 245 7 3 0 0 0 0 0 0 0 0 0 0 0 0 0 0 0 0 0 0 0 0 0 0 0 0 1 0 0 0 0 0 0 0 0 0 0 0 0 0 0 0 0 0 0 0 0 0 0 0 0 0 0 0 0 0 0 0 0 0 0 0 0 0 0 0 0 0 0 0 0 0 0 0 0 0 0 0 1 0 0 0 0 0 0 0 0 0 0 0 0 0 0 0 0 0 0 0 0 0 0 0 1 77 255 255 254 254 254 255 253 255 254 253 254 255 254 254 255 254 254 253 253 254 253 254 253 254 253 254 252 253 254 253 254 253 254 253 254 253 254 253 254 253 254 253 252 254 255 254 253 254 255 255 255 255 255 255 255 255 255 255 255 255 255 255 255 255 255 255 255 255 255 255 255 255 255 255 255 255 255 255 255 255 255 255 255 255 255 255 255 255 255 255 255 255 255 255 255 255 255 255 255 255 255 255 
255 255 255 255 255 255 255 255 255 255 255 255 255 255 255 255 255 255 255 255 255 255 255 255 255 255 255 255 255 255 255 255 255 255 255 255 255 255 255 255 255 255 255 255 255 255 255 255 255 255 255 255 255 255 255 255 253 254 254 254 254 255 253 253 254 254 254 254 253 254 255 253 253 255 253 254 254 254 253 253 254 255 253 254 254 254 254 253 254 253 255 253 254 253 253 254 254 255 255 254 255 254 253 250 6 3 0 0 1 0 0 0 0 0 0 0 0 1 0 0 0 0 0 0 0 0 0 0 0 0 0 0 0 0 0 0 0 0 0 0 0 0 0 0 0 0 0 0 0 0 0 0 0 0 0 0 0 0 0 0 0 0 0 0 0 0 0 0 0 0 0 0 0 0 0 0 0 0 0 0 0 0 0 0 0 0 0 0 0 0 0 0 0 0 0 0 0 0 0 0 0 0 0 0 2 0 0 1 86 255 254 255 255 253 253 253 253 254 254 253 255 253 255 254 254 252 255 254 254 253 253 254 253 252 254 254 254 254 255 254 254 253 254 254 254 255 253 255 125 0 2 0 0 0 0 0 0 0 0 0 0 0 0 0 0 0 0 0 0 0 0 0 0 0 0 0 0 0 0 0 0 0 0 0 0 0 0 0 0 0 0 0 0 0 0 0 0 0 0 0 0 0 0 0 0 0 0 0 0 0 0 0 0 0 0 0 0 0 0 0 0 0 0 0 0 0 0 0 0 0 0 0 0 0 0 0 0 0 0 0 0 0 0 0 0 0 0 0 0 0 0 1 0 243 250 255 254 254 255 254 253 253 254 254 255 255 254 255 254 254 253 253 253 253 255 254 254 254 253 254 253 253 254 253 254 254 254 255 254 255 254 253 252 254 254 254 255 255 254 254 254 255 255 255 255 255 255 255 255 255 255 255 255 255 255 255 255 255 255 255 255 255 255 255 255 255 255 255 255 255 255 255 255 255 255 255 255 255 255 255 255 255 255 255 255 255 255 255 255 255 255 255 255 255 255 
255 255 255 255 255 255 255 255 255 255 255 255 255 255 255 255 255 255 255 255 255 255 255 255 255 255 255 255 255 255 255 255 255 255 255 255 255 255 255 255 255 255 255 255 255 255 255 255 255 255 255 255 255 255 254 254 254 254 254 255 253 255 254 253 255 253 254 254 254 255 254 254 254 253 254 252 255 253 254 254 254 255 252 253 255 254 253 254 254 254 254 253 254 254 254 254 255 254 255 254 255 255 253 171 0 0 0 0 1 0 0 0 0 0 0 0 0 0 0 0 0 0 0 0 0 0 0 0 0 0 0 0 0 0 0 0 0 0 0 1 0 0 0 0 0 0 0 0 0 0 1 0 0 0 0 0 0 0 0 0 0 0 0 0 0 0 0 0 0 0 0 0 0 0 0 0 0 0 0 0 0 0 0 0 0 0 0 0 0 0 0 0 0 0 0 0 0 0 0 0 0 0 0 0 0 0 0 1 11 251 254 255 254 254 253 254 254 254 254 254 254 255 255 254 254 253 254 254 254 254 254 254 254 254 254 254 254 253 255 254 253 254 254 254 255 255 253 255 23 0 1 0 0 0 0 0 0 0 0 0 0 0 0 0 0 0 0 0 1 0 0 0 0 0 0 0 0 0 0 0 0 0 0 0 0 0 0 0 0 0 0 0 0 0 0 0 0 0 0 0 0 0 0 0 0 0 0 0 0 0 0 0 0 0 0 0 0 0 0 0 0 0 0 0 0 0 0 0 0 0 0 0 0 0 0 0 0 0 0 1 0 0 0 0 0 0 0 0 0 0 0 0 1 122 255 255 253 253 254 254 254 254 254 255 253 254 253 254 254 254 254 253 254 254 254 254 255 254 253 254 254 254 253 254 253 255 254 253 254 255 254 254 254 253 253 255 255 254 254 255 254 255 255 255 255 255 255 255 255 255 255 255 255 255 255 255 255 255 255 255 255 255 255 255 255 255 255 255 255 255 255 255 255 255 255 255 255 255 255 255 255 255 255 255 255 255 255 255 255 255 255 255 255 255 255 
255 255 255 255 255 255 255 255 255 255 255 255 255 255 255 255 255 255 255 255 255 255 255 255 255 255 255 255 255 255 255 255 255 255 255 255 255 255 255 255 255 255 255 255 255 255 255 255 255 255 255 255 255 255 254 253 255 254 254 253 254 253 255 254 254 254 253 255 254 253 254 255 255 253 253 255 255 254 255 253 254 254 253 254 254 254 253 255 254 253 254 254 253 253 255 254 254 254 255 255 254 255 255 42 1 0 0 0 0 0 0 0 0 0 0 0 1 0 0 0 0 0 0 0 0 0 0 0 0 0 0 0 0 0 0 0 0 0 0 0 0 0 0 0 0 0 0 0 0 0 0 0 0 0 0 0 0 0 0 0 0 0 0 0 0 0 0 0 0 0 1 0 0 0 0 0 0 0 0 0 0 0 0 0 0 0 0 0 0 0 0 0 0 0 0 1 0 0 0 0 0 0 0 0 0 0 0 0 0 202 255 255 255 254 253 254 253 254 254 254 253 255 253 254 254 253 253 253 255 253 254 254 254 254 253 253 254 254 253 254 253 254 254 255 254 255 255 204 0 0 0 0 0 0 0 0 0 0 0 0 0 0 0 0 0 0 0 0 0 0 0 0 0 0 0 0 0 0 0 0 0 0 0 0 0 0 0 0 0 0 0 0 0 0 0 0 0 0 1 0 0 0 0 0 0 0 0 0 0 0 0 0 0 0 0 0 0 0 0 0 0 0 0 0 0 0 0 0 0 0 0 0 0 0 0 0 0 0 0 0 0 0 1 0 0 0 0 0 0 0 0 0 5 12 255 250 253 254 254 254 254 255 252 254 253 254 253 254 254 255 254 254 254 255 253 254 254 253 254 253 253 254 254 254 253 253 254 253 254 254 254 254 255 253 254 254 255 254 253 254 254 255 255 255 255 255 255 255 255 255 255 255 255 255 255 255 255 255 255 255 255 255 255 255 255 255 255 255 255 255 255 255 255 255 255 255 255 255 255 255 255 255 255 255 255 255 255 255 255 255 255 255 255 255 255 
255 255 255 255 255 255 255 255 255 255 255 255 255 255 255 255 255 255 255 255 255 255 255 255 255 255 255 255 255 255 255 255 255 255 255 255 255 255 255 255 255 255 255 255 255 255 255 255 255 255 255 255 255 255 254 254 254 254 254 253 255 253 255 254 255 255 254 255 253 254 254 254 255 253 254 254 254 254 254 254 254 253 255 254 254 254 254 253 254 253 254 255 255 253 254 253 253 254 255 254 255 253 223 0 1 0 0 0 0 0 0 0 0 0 0 0 0 0 0 0 0 0 0 0 0 0 0 0 0 0 0 0 0 0 0 0 0 0 0 0 0 0 0 0 0 0 0 0 0 0 0 0 0 0 0 0 0 0 0 0 0 0 0 0 0 0 0 0 0 0 0 1 0 0 0 0 0 0 0 0 0 1 0 0 0 0 0 0 0 0 0 0 0 0 0 0 0 0 0 0 0 0 0 0 0 0 0 0 0 132 255 255 255 254 255 254 254 254 253 253 254 254 253 255 254 253 253 254 255 253 254 254 255 254 254 254 255 253 253 253 255 254 254 255 255 255 255 156 0 0 0 0 0 0 0 0 0 0 0 0 0 0 0 0 0 0 0 0 0 0 0 0 0 0 0 1 0 0 0 0 0 0 0 0 0 0 0 0 0 0 0 0 0 0 0 0 0 0 0 0 0 0 0 0 0 0 0 0 0 0 0 0 0 0 0 0 0 1 0 0 0 0 0 0 0 0 0 0 0 0 0 0 0 0 0 0 0 0 0 0 0 0 0 0 0 0 0 0 0 0 1 0 2 0 189 254 252 255 254 255 253 253 254 252 253 254 253 253 254 254 253 255 253 254 254 255 252 253 253 254 253 253 255 254 253 254 253 254 255 254 255 255 253 253 253 255 254 255 254 253 254 255 255 255 255 255 255 255 255 255 255 255 255 255 255 255 255 255 255 255 255 255 255 255 255 255 255 255 255 255 255 255 255 255 255 255 255 255 255 255 255 255 255 255 255 255 255 255 255 255 255 255 255 255 255 
255 255 255 255 255 255 255 255 255 255 255 255 255 255 255 255 255 255 255 255 255 255 255 255 255 255 255 255 255 255 255 255 255 255 255 255 255 255 255 255 255 255 255 255 255 255 255 255 255 255 255 255 255 255 254 253 255 252 254 254 255 253 253 253 255 253 255 253 253 255 253 253 253 253 254 254 254 255 255 254 253 253 255 254 254 255 253 254 254 254 254 253 255 254 253 254 254 253 255 255 255 255 131 0 1 0 0 0 0 0 0 0 0 0 0 0 1 0 0 0 0 0 0 1 0 1 0 0 0 0 0 0 0 0 0 0 0 1 0 0 0 0 0 0 0 0 0 0 0 1 0 0 0 0 0 0 0 0 0 0 0 0 0 1 0 0 0 0 0 0 0 0 0 0 0 0 1 0 0 0 0 0 0 0 0 0 1 0 0 0 0 0 0 0 0 0 0 0 0 0 0 0 0 0 0 0 0 0 0 99 255 252 254 253 255 254 255 254 253 254 255 252 255 253 253 253 253 255 254 253 255 254 254 253 254 253 253 253 254 255 254 255 255 254 255 255 255 60 1 0 0 0 0 0 0 0 0 0 0 0 0 0 1 0 0 0 0 0 0 0 0 0 0 0 0 0 0 0 0 0 0 0 0 0 0 0 0 0 0 0 0 0 0 0 0 0 0 0 0 0 0 0 0 0 1 0 0 0 0 0 0 0 0 0 0 0 0 0 0 0 0 0 0 0 0 0 0 0 0 0 0 0 0 0 0 0 0 0 0 0 0 0 0 0 0 0 0 0 0 0 0 0 3 1 85 255 251 255 255 252 254 254 254 254 254 253 253 253 255 253 254 254 253 254 254 254 254 254 253 255 253 254 253 255 254 254 254 253 255 254 253 254 254 254 253 255 255 254 254 253 254 255 255 255 255 255 255 255 255 255 255 255 255 255 255 255 255 255 255 255 255 255 255 255 255 255 255 255 255 255 255 255 255 255 255 255 255 255 255 255 255 255 255 255 255 255 255 255 255 255 255 255 255 255 255 
255 255 255 255 255 255 255 255 255 255 255 255 255 255 255 255 255 255 255 255 255 255 255 255 255 255 255 255 255 255 255 255 255 255 255 255 255 255 255 255 255 255 255 255 255 255 255 255 255 255 255 255 255 255 255 254 253 254 253 254 253 253 253 254 253 254 254 253 255 252 254 254 254 254 255 254 254 254 254 253 254 253 254 254 254 254 253 254 254 254 254 253 254 254 254 255 255 253 254 255 254 255 38 5 2 0 0 1 0 0 0 0 0 0 0 0 0 0 0 0 0 0 0 1 0 0 0 0 0 1 0 0 0 0 0 0 0 0 0 0 0 0 0 0 0 0 0 0 0 0 0 0 0 0 0 0 0 0 0 0 0 1 0 0 0 0 0 0 0 0 0 0 1 0 0 0 0 0 0 0 0 0 0 0 0 0 0 0 0 0 0 0 0 0 0 0 0 0 0 0 0 0 0 0 0 0 0 0 1 38 255 251 253 254 254 255 253 254 254 254 255 253 254 254 254 254 253 252 254 253 254 255 254 253 253 252 254 253 254 254 254 255 254 255 254 255 255 41 0 0 0 0 0 0 0 0 0 0 0 0 0 0 1 0 0 0 0 0 0 0 0 0 0 0 0 0 0 0 0 0 0 0 0 0 0 0 0 0 0 0 0 0 0 0 0 0 0 0 0 0 0 0 0 0 0 1 0 0 0 0 0 0 1 0 0 0 0 0 0 0 0 0 0 0 0 0 0 0 0 0 0 0 0 0 0 0 0 0 0 0 0 0 0 0 0 0 0 0 0 0 0 0 1 3 14 254 253 254 254 253 254 255 253 255 255 253 253 254 254 253 253 253 254 254 254 253 254 254 253 253 254 253 254 253 255 253 255 253 254 254 253 253 255 253 253 255 255 254 253 253 254 255 255 255 255 255 255 255 255 255 255 255 255 255 255 255 255 255 255 255 255 255 255 255 255 255 255 255 255 255 255 255 255 255 255 255 255 255 255 255 255 255 255 255 255 255 255 255 255 255 255 255 255 255 255 
255 255 255 255 255 255 255 255 255 255 255 255 255 255 255 255 255 255 255 255 255 255 255 255 255 255 255 255 255 255 255 255 255 255 255 255 255 255 255 255 255 255 255 255 255 255 255 255 255 255 255 255 255 255 254 254 254 254 254 254 254 253 253 254 254 254 254 255 254 253 254 255 253 255 254 254 253 254 253 255 254 254 254 252 254 254 255 255 254 253 254 254 254 254 255 253 255 254 254 255 251 245 0 0 1 0 0 0 0 0 0 0 0 0 0 0 0 0 0 0 0 0 0 0 0 0 0 0 0 0 0 0 0 0 0 0 0 0 0 0 0 0 0 0 0 0 0 0 0 0 0 0 0 0 0 0 0 0 0 1 0 0 0 0 0 0 0 0 0 0 0 0 0 0 0 0 0 0 0 0 0 0 0 0 0 0 0 0 0 0 0 0 0 1 0 0 0 0 0 0 0 0 0 0 0 0 0 0 1 38 255 252 253 254 255 255 254 254 254 253 255 255 253 254 254 255 254 254 254 254 254 253 252 254 254 254 254 254 252 255 255 254 254 254 254 252 246 5 2 1 0 0 0 0 0 0 0 0 0 0 0 0 0 0 0 0 0 0 0 0 0 0 0 0 0 0 0 0 0 0 0 0 0 0 0 0 0 0 0 0 0 0 0 0 0 0 1 0 0 0 0 0 0 0 0 0 0 0 0 0 0 0 0 0 0 0 0 0 0 0 0 0 0 0 0 0 0 0 0 0 0 0 0 0 0 0 0 0 0 0 0 0 0 0 0 0 0 0 0 0 0 1 0 0 0 215 253 255 254 253 254 253 254 254 253 254 253 254 254 253 254 252 254 254 255 253 254 252 254 253 254 253 254 253 254 254 253 254 254 254 253 254 254 254 253 254 254 254 254 254 254 255 255 255 255 255 255 255 255 255 255 255 255 255 255 255 255 255 255 255 255 255 255 255 255 255 255 255 255 255 255 255 255 255 255 255 255 255 255 255 255 255 255 255 255 255 255 255 255 255 255 255 255 255 255 
255 255 255 255 255 255 255 255 255 255 255 255 255 255 255 255 255 255 255 255 255 255 255 255 255 255 255 255 255 255 255 255 255 255 255 255 255 255 255 255 255 255 255 255 255 255 255 255 255 255 255 255 255 255 255 254 254 253 255 253 254 253 254 254 255 254 253 255 254 254 253 255 253 253 254 255 254 254 254 254 253 254 253 253 254 255 254 254 254 254 254 254 254 254 254 254 255 254 255 254 255 198 0 0 0 0 0 0 0 0 0 0 0 0 0 0 1 0 0 0 0 0 0 0 0 0 0 0 0 0 0 0 0 0 0 0 0 0 0 0 0 0 0 0 0 0 0 0 0 0 0 0 0 0 0 0 0 0 0 0 0 0 0 0 0 0 0 0 0 0 0 0 0 0 0 0 0 0 0 0 1 0 0 0 0 0 0 0 0 0 0 0 0 0 0 0 0 0 0 0 0 0 0 0 0 0 0 0 1 41 255 252 254 253 255 254 255 255 253 253 255 254 253 254 253 253 255 255 253 254 255 253 254 253 254 255 254 254 253 255 255 255 254 254 253 251 249 10 3 0 0 0 0 0 0 0 0 0 0 0 0 0 0 1 0 0 0 0 0 0 0 0 0 0 1 0 0 0 0 0 0 0 0 0 0 0 0 0 0 0 0 0 0 0 0 0 0 0 0 0 0 0 0 0 0 0 0 0 0 0 0 0 0 0 0 0 0 0 0 0 0 0 0 0 0 0 0 0 0 0 0 0 0 0 0 0 1 0 0 0 0 0 0 0 0 0 0 0 0 0 0 0 0 0 0 133 255 255 253 253 254 255 255 253 253 254 254 254 255 253 255 254 254 254 252 254 255 253 254 253 254 254 254 255 253 253 254 254 253 254 254 254 255 255 254 254 254 255 255 255 253 255 255 255 255 255 255 255 255 255 255 255 255 255 255 255 255 255 255 255 255 255 255 255 255 255 255 255 255 255 255 255 255 255 255 255 255 255 255 255 255 255 255 255 255 255 255 255 255 255 255 255 255 255 255 
255 255 255 255 255 255 255 255 255 255 255 255 255 255 255 255 255 255 255 255 255 255 255 255 255 255 255 255 255 255 255 255 255 255 255 255 255 255 255 255 255 255 255 255 255 255 255 255 255 255 255 255 255 255 255 254 254 253 254 253 254 255 252 253 254 253 254 253 254 255 254 255 254 253 254 254 253 254 254 255 253 253 254 253 255 253 254 253 254 254 253 254 253 255 254 255 255 254 254 254 255 138 0 0 0 0 0 0 0 0 0 1 0 0 0 0 0 0 0 0 0 0 0 0 0 0 0 0 0 0 0 0 0 0 0 0 0 0 0 0 0 0 0 0 0 0 0 0 0 0 0 0 0 0 0 0 0 0 0 0 0 0 0 0 0 0 0 0 0 0 0 0 0 0 0 0 0 0 0 0 0 0 0 0 0 0 0 0 0 0 0 0 0 0 0 0 0 0 0 0 0 0 0 0 0 0 0 0 1 41 255 253 253 253 253 253 255 254 253 253 253 254 253 253 253 254 254 255 253 254 254 253 253 253 253 254 255 254 255 254 255 254 254 253 252 250 249 10 3 0 0 0 0 0 0 0 0 0 0 0 0 0 0 0 0 0 0 0 0 0 0 0 0 0 0 0 0 0 0 0 0 0 0 0 0 0 0 0 1 0 0 0 0 0 0 0 0 0 0 0 0 0 0 0 0 0 0 0 1 0 0 0 0 0 0 0 0 0 1 0 0 0 0 0 0 0 0 0 0 0 0 0 0 0 0 0 0 0 0 0 0 0 0 0 0 0 1 0 0 0 0 0 0 0 1 106 255 255 253 253 255 255 253 253 254 254 254 254 253 254 255 255 253 254 252 254 253 255 253 254 254 254 255 254 253 254 255 253 254 254 255 253 253 255 255 253 255 253 255 253 253 255 255 255 255 255 255 255 255 255 255 255 255 255 255 255 255 255 255 255 255 255 255 255 255 255 255 255 255 255 255 255 255 255 255 255 255 255 255 255 255 255 255 255 255 255 255 255 255 255 255 255 255 255 255 
255 255 255 255 255 255 255 255 255 255 255 255 255 255 255 255 255 255 255 255 255 255 255 255 255 255 255 255 255 255 255 255 255 255 255 255 255 255 255 255 255 255 255 255 255 255 255 255 255 255 255 255 255 255 254 253 254 254 255 253 255 255 253 254 253 253 254 253 254 254 254 254 255 254 254 253 254 254 254 255 254 254 254 254 254 254 254 254 253 254 253 255 253 255 254 253 255 254 253 252 255 47 1 1 0 0 0 0 0 0 0 0 0 0 1 0 0 0 0 0 0 0 0 0 0 0 0 0 0 0 0 0 0 0 0 0 0 0 0 0 0 0 0 0 0 0 0 0 0 0 0 0 1 0 0 0 0 0 0 0 0 0 0 0 0 0 0 0 0 0 0 0 0 0 0 0 0 0 0 0 0 0 0 0 0 0 0 0 0 0 0 0 0 0 1 0 0 0 0 0 0 0 0 0 0 0 0 0 0 41 255 254 253 255 253 254 253 254 253 254 253 253 253 254 253 254 253 254 254 255 253 254 254 252 253 254 253 254 254 254 253 254 254 254 253 251 249 10 1 0 1 0 0 0 0 0 0 0 0 0 0 0 0 0 0 0 0 0 0 0 0 0 0 0 0 0 0 0 0 0 0 0 0 0 0 0 0 0 0 0 0 0 0 0 0 0 0 0 0 0 1 0 0 0 0 0 0 0 0 0 0 0 0 1 0 0 0 0 0 0 0 0 0 0 0 0 0 0 0 0 0 0 0 0 0 0 0 0 0 0 0 0 0 0 0 0 0 0 0 0 0 0 0 0 0 41 255 252 253 254 253 255 253 253 253 253 253 255 253 253 254 254 253 254 254 254 253 255 254 255 254 254 253 254 253 254 254 253 255 253 254 254 253 254 254 254 255 254 255 254 255 255 255 255 255 255 255 255 255 255 255 255 255 255 255 255 255 255 255 255 255 255 255 255 255 255 255 255 255 255 255 255 255 255 255 255 255 255 255 255 255 255 255 255 255 255 255 255 255 255 255 255 255 255 255 
255 255 255 255 255 255 255 255 255 255 255 255 255 255 255 255 255 255 255 255 255 255 255 255 255 255 255 255 255 255 255 255 255 255 255 255 255 255 255 255 255 255 255 255 255 255 255 255 255 255 255 255 255 255 255 254 253 254 252 254 253 254 255 253 253 255 254 253 254 253 254 253 254 253 254 254 254 255 253 253 254 254 254 254 254 254 254 253 253 255 254 255 254 253 254 254 255 255 254 252 255 41 4 0 0 0 0 0 0 0 0 0 0 0 0 0 0 0 1 0 0 0 0 0 0 0 0 0 0 0 0 0 0 0 0 0 0 0 0 0 0 0 0 0 0 0 0 0 1 0 0 0 0 0 0 0 0 0 0 0 0 0 0 0 0 0 0 0 0 0 0 0 0 0 0 0 0 0 0 0 0 0 0 0 0 0 0 0 0 0 0 1 0 0 0 0 0 0 0 0 0 0 0 0 0 0 0 0 1 37 255 254 255 255 253 254 253 254 254 254 253 254 254 253 253 255 254 252 254 254 253 255 254 253 254 255 254 253 254 253 254 253 255 254 253 252 247 7 1 0 1 0 0 0 0 0 0 0 0 0 0 0 0 0 0 0 0 0 0 0 0 0 0 0 0 0 0 0 0 0 0 0 0 0 0 0 0 0 0 0 0 0 0 0 0 0 0 0 0 0 0 0 0 0 0 0 0 0 0 0 0 0 0 0 0 0 0 0 0 0 0 0 0 0 0 0 0 0 0 0 0 0 0 0 0 0 0 0 0 0 0 0 0 0 0 0 0 0 0 0 0 0 0 0 1 15 255 251 253 254 253 254 254 253 253 253 253 255 253 254 253 254 254 253 255 253 255 254 254 253 254 255 253 254 253 255 253 255 255 253 253 255 253 253 254 255 254 255 254 255 254 255 255 255 255 255 255 255 255 255 255 255 255 255 255 255 255 255 255 255 255 255 255 255 255 255 255 255 255 255 255 255 255 255 255 255 255 255 255 255 255 255 255 255 255 255 255 255 255 255 255 255 255 255 255 
255 255 255 255 255 255 255 255 255 255 255 255 255 255 255 255 255 255 255 255 255 255 255 255 255 255 255 255 255 255 255 255 255 255 255 255 255 255 255 255 255 255 255 255 255 255 255 255 255 255 255 255 255 255 254 255 255 255 253 254 254 254 254 252 253 255 254 253 255 253 254 254 254 253 253 254 253 254 253 253 255 254 253 253 254 255 254 253 254 253 254 253 254 253 254 253 254 255 255 253 250 9 3 1 0 0 0 0 0 0 0 0 0 0 0 0 0 0 0 0 0 0 0 0 0 0 0 0 0 0 0 0 0 0 0 0 0 0 0 0 0 0 0 0 0 0 0 0 0 0 0 0 0 0 0 0 0 0 0 0 0 0 0 0 0 0 0 0 0 0 0 0 0 0 0 0 0 0 0 0 0 0 0 1 0 0 0 0 0 0 0 0 0 0 0 0 0 0 0 0 0 0 0 0 0 0 1 0 0 96 255 255 255 255 255 254 253 254 253 254 254 253 253 253 254 254 254 253 254 253 254 253 253 255 254 254 254 253 254 253 254 254 254 254 253 254 251 13 0 1 0 1 0 0 0 0 0 0 0 0 0 0 0 0 0 0 0 0 0 0 0 0 0 0 0 0 0 0 1 0 0 0 0 0 0 0 0 0 0 0 0 0 0 0 0 0 0 0 0 0 0 0 0 0 0 0 0 0 0 0 0 0 0 0 0 0 0 0 0 0 0 0 0 0 0 0 0 0 0 0 0 0 0 0 0 0 0 0 0 0 0 0 0 0 0 0 0 0 0 0 0 0 0 0 1 8 247 252 254 255 254 255 252 253 254 254 253 255 254 253 253 254 254 253 255 253 253 255 253 254 255 254 254 254 253 254 253 255 253 253 253 254 254 253 255 254 254 254 253 253 254 255 255 255 255 255 255 255 255 255 255 255 255 255 255 255 255 255 255 255 255 255 255 255 255 255 255 255 255 255 255 255 255 255 255 255 255 255 255 255 255 255 255 255 255 255 255 255 255 255 255 255 255 255 255 
255 255 255 255 255 255 255 255 255 255 255 255 255 255 255 255 255 255 255 255 255 255 255 255 255 255 255 255 255 255 255 255 255 255 255 255 255 255 255 255 255 255 255 255 255 255 255 255 255 255 255 255 255 255 254 253 255 255 253 253 255 255 255 253 253 254 253 253 254 253 253 254 253 253 254 253 254 253 254 253 252 255 253 254 255 254 255 254 254 253 255 254 255 253 254 253 253 254 255 254 231 0 1 1 0 0 0 0 0 0 0 0 0 0 0 1 0 0 0 0 0 0 0 0 0 0 0 0 0 0 0 0 0 0 0 0 0 0 0 0 0 0 0 0 0 0 0 0 0 0 0 0 0 0 0 0 0 0 0 0 0 0 0 0 0 0 0 0 0 0 0 0 0 0 0 0 0 0 0 0 0 0 0 0 0 0 0 0 0 0 0 0 0 0 0 0 0 0 0 0 0 0 0 0 0 0 1 0 0 111 255 255 255 253 255 254 253 253 254 253 253 254 253 254 254 254 255 254 255 253 254 253 253 254 254 255 253 255 254 253 254 253 254 254 255 254 255 62 0 1 0 0 0 0 0 0 0 0 0 0 0 0 1 0 0 0 0 0 0 0 0 0 0 0 0 0 0 0 0 0 0 0 0 0 0 0 0 0 0 0 0 0 0 0 0 0 0 0 0 0 0 0 0 0 0 0 0 0 0 0 0 0 0 0 0 0 0 0 0 0 0 0 0 0 0 0 0 0 0 0 0 0 0 0 0 0 0 0 0 0 0 0 0 0 0 0 0 0 0 0 0 0 0 1 0 0 210 254 255 255 253 253 254 253 254 254 255 254 253 254 253 254 254 254 253 254 254 254 254 255 255 255 253 254 253 254 255 253 255 254 254 254 254 253 254 254 254 254 254 254 255 255 255 255 255 255 255 255 255 255 255 255 255 255 255 255 255 255 255 255 255 255 255 255 255 255 255 255 255 255 255 255 255 255 255 255 255 255 255 255 255 255 255 255 255 255 255 255 255 255 255 255 255 255 255 
255 255 255 255 255 255 255 255 255 255 255 255 255 255 255 255 255 255 255 255 255 255 255 255 255 255 255 255 255 255 255 255 255 255 255 255 255 255 255 255 255 255 255 255 255 255 255 255 255 255 255 255 255 255 255 254 255 254 253 254 253 254 255 253 253 254 255 254 254 255 254 254 253 254 255 254 254 254 253 254 253 255 253 253 253 254 253 254 254 253 254 254 253 254 253 254 254 253 255 254 232 0 0 1 0 0 0 0 0 0 0 0 0 0 0 0 0 0 0 0 0 0 0 0 0 0 1 0 0 0 0 0 0 0 0 0 1 0 0 0 0 0 0 0 0 0 0 0 0 0 0 0 0 0 0 0 0 0 0 0 0 0 0 0 0 0 0 0 0 0 0 0 0 0 0 0 0 0 0 0 0 0 0 0 0 0 0 0 0 0 0 0 0 0 1 0 0 0 0 0 0 1 0 0 0 0 1 0 0 212 254 253 254 255 253 254 253 253 255 253 254 254 254 253 252 254 255 254 253 253 254 253 253 255 254 255 254 255 254 255 253 254 253 254 255 253 255 90 1 1 0 0 0 0 0 0 0 0 0 0 0 0 0 0 0 0 0 0 0 0 0 0 0 0 0 0 0 0 0 0 0 0 0 0 0 0 0 0 0 0 0 0 0 0 0 0 0 0 0 0 0 0 0 0 0 0 1 0 0 0 0 0 0 0 0 0 0 0 0 0 0 0 0 0 1 0 0 0 0 0 0 0 0 0 0 0 0 0 0 0 0 0 0 0 0 0 0 0 0 0 0 0 0 0 0 0 212 254 255 254 253 253 254 254 255 254 253 254 254 253 254 253 254 254 254 253 255 253 254 254 254 255 253 255 254 254 254 253 255 253 254 254 254 253 255 254 255 253 253 254 254 255 255 255 255 255 255 255 255 255 255 255 255 255 255 255 255 255 255 255 255 255 255 255 255 255 255 255 255 255 255 255 255 255 255 255 255 255 255 255 255 255 255 255 255 255 255 255 255 255 255 255 255 255 255 
255 255 255 255 255 255 255 255 255 255 255 255 255 255 255 255 255 255 255 255 255 255 255 255 255 255 255 255 255 255 255 255 255 255 255 255 255 255 255 255 255 255 255 255 255 255 255 255 255 255 255 255 255 255 253 254 254 253 253 255 254 254 254 254 253 255 253 253 255 253 254 254 254 253 253 254 254 253 253 255 254 253 253 253 254 254 253 255 254 254 254 253 253 254 255 254 255 253 255 254 235 0 0 0 0 0 0 0 0 0 0 0 0 0 0 0 0 0 0 0 0 0 0 0 0 0 0 0 0 0 0 1 0 0 0 0 0 0 0 1 0 0 0 0 0 0 0 0 0 0 0 0 0 0 0 0 0 0 0 0 0 0 0 0 0 0 0 0 0 0 0 0 0 0 0 0 0 0 0 0 0 0 0 0 0 0 0 0 0 0 0 0 0 0 0 0 0 0 0 0 0 0 0 0 0 0 0 0 7 247 255 255 254 254 254 254 253 253 254 254 254 253 254 255 253 254 253 255 253 252 254 253 253 254 254 254 254 254 253 255 254 254 253 254 253 253 254 181 0 1 0 0 0 0 0 0 1 0 0 0 0 0 0 0 0 0 0 0 0 0 0 0 1 0 0 0 0 0 0 0 0 0 0 0 0 1 0 0 0 0 0 0 0 0 0 0 0 0 0 0 0 0 0 0 0 0 0 0 0 0 0 0 1 0 0 0 0 0 0 0 0 0 0 0 0 0 0 0 0 0 0 0 0 0 0 0 0 0 1 0 0 0 0 0 0 0 0 0 0 0 0 0 0 0 0 0 212 254 255 255 254 253 253 254 253 254 254 255 255 253 254 254 253 254 253 254 254 255 254 254 253 254 255 252 253 254 254 254 253 253 254 254 254 254 255 255 253 254 254 255 254 255 255 255 255 255 255 255 255 255 255 255 255 255 255 255 255 255 255 255 255 255 255 255 255 255 255 255 255 255 255 255 255 255 255 255 255 255 255 255 255 255 255 255 255 255 255 255 255 255 255 255 255 255 255 
255 255 255 255 255 255 255 255 255 255 255 255 255 255 255 255 255 255 255 255 255 255 255 255 255 255 255 255 255 255 255 255 255 255 255 255 255 255 255 255 255 255 255 255 255 255 255 255 255 255 255 255 255 255 255 254 254 253 255 253 254 254 254 254 253 254 255 254 254 255 255 255 253 253 253 254 254 254 254 253 254 253 253 254 254 254 255 253 254 254 255 253 253 254 255 254 254 253 254 254 235 0 0 0 0 0 0 0 0 0 0 0 0 0 0 0 0 0 0 0 0 0 0 0 0 0 0 0 0 0 0 0 0 0 0 0 0 0 0 0 0 0 0 0 0 0 0 0 0 1 0 0 0 0 0 0 0 0 0 0 1 0 0 0 0 0 0 0 0 0 0 0 0 0 0 0 0 0 0 0 0 0 0 0 0 0 0 0 0 0 0 0 0 0 0 0 0 0 0 0 0 0 0 0 0 0 0 1 64 255 254 255 253 254 255 253 255 254 254 253 254 254 254 255 254 254 253 253 254 253 254 253 254 253 254 254 254 255 253 255 253 253 255 255 253 253 253 244 7 3 0 0 0 0 0 0 1 0 0 0 0 0 0 0 0 0 0 0 0 0 0 0 0 0 0 0 0 0 0 0 0 0 0 0 0 0 0 0 0 0 0 0 0 0 0 0 0 0 0 0 0 0 0 0 0 0 0 0 0 0 0 0 0 0 0 0 0 0 0 0 0 0 0 0 0 0 0 0 0 0 0 0 0 0 0 0 0 0 0 0 0 0 0 0 0 0 0 0 0 0 0 0 1 0 0 0 212 254 255 255 253 254 253 255 253 254 254 254 254 254 253 254 254 254 253 254 254 254 253 255 255 254 255 253 254 254 254 255 254 255 255 255 253 253 255 253 253 253 254 252 254 255 255 255 255 255 255 255 255 255 255 255 255 255 255 255 255 255 255 255 255 255 255 255 255 255 255 255 255 255 255 255 255 255 255 255 255 255 255 255 255 255 255 255 255 255 255 255 255 255 255 255 255 255 255 
255 255 255 255 255 255 255 255 255 255 255 255 255 255 255 255 255 255 255 255 255 255 255 255 255 255 255 255 255 255 255 255 255 255 255 255 255 255 255 255 255 255 255 255 255 255 255 255 255 255 255 255 255 255 255 254 254 254 254 254 254 254 254 255 254 254 254 254 254 254 255 253 254 254 253 254 253 255 255 253 253 253 254 254 254 253 253 254 255 253 253 253 254 254 254 254 255 253 252 254 234 0 0 0 0 0 0 0 0 0 0 0 0 0 0 0 0 0 0 0 0 0 0 0 0 0 0 0 0 0 0 0 0 0 0 0 0 0 0 0 0 0 0 0 0 0 0 0 0 0 0 0 0 0 0 0 0 0 0 0 0 0 0 0 0 0 0 0 0 0 0 0 0 0 0 0 0 0 0 0 0 0 0 0 0 0 0 0 0 0 0 0 0 1 0 0 0 0 0 0 0 0 0 0 0 0 0 0 175 255 255 253 253 253 255 254 253 253 253 254 254 253 254 253 253 253 254 253 253 255 255 253 254 254 254 253 254 253 254 255 253 253 253 253 253 254 254 255 44 3 0 0 0 0 0 0 0 0 0 0 0 0 0 0 0 0 0 0 0 0 0 0 0 0 0 0 0 0 0 0 0 0 0 0 0 0 1 0 0 0 1 0 0 0 0 0 0 0 0 0 0 0 0 0 0 0 0 0 0 0 0 0 0 0 0 0 0 0 0 0 0 0 0 1 0 0 0 0 0 0 0 0 0 0 0 0 0 0 0 0 0 0 0 0 0 0 0 0 0 0 0 0 1 0 0 0 212 254 255 255 253 254 253 253 253 254 254 255 255 253 253 253 254 253 253 255 254 254 254 253 253 254 254 254 255 254 253 254 253 255 255 253 255 254 254 253 254 255 254 252 254 255 255 255 255 255 255 255 255 255 255 255 255 255 255 255 255 255 255 255 255 255 255 255 255 255 255 255 255 255 255 255 255 255 255 255 255 255 255 255 255 255 255 255 255 255 255 255 255 255 255 255 255 255 255 
255 255 255 255 255 255 255 255 255 255 255 255 255 255 255 255 255 255 255 255 255 255 255 255 255 255 255 255 255 255 255 255 255 255 255 255 255 255 255 255 255 255 255 255 255 255 255 255 255 255 255 255 255 255 255 253 253 253 253 253 255 255 254 254 254 254 254 255 255 254 254 255 254 252 254 253 254 253 254 253 254 254 253 254 253 254 255 253 254 253 253 253 254 253 254 255 254 254 252 251 232 0 0 0 0 0 0 0 1 0 0 0 0 0 0 0 0 0 0 0 0 0 0 0 0 0 0 0 0 0 0 1 0 0 0 0 0 0 0 0 0 0 0 0 0 0 0 1 0 0 0 0 0 0 0 0 0 0 0 0 0 0 0 0 0 0 0 0 0 0 0 0 0 0 0 0 0 0 0 0 0 0 0 0 0 0 1 0 0 0 0 0 0 0 0 0 0 0 0 0 0 0 1 0 0 0 0 16 255 252 255 255 254 253 254 253 254 253 254 253 254 254 255 254 254 253 253 253 253 254 255 253 254 254 254 253 254 253 254 254 255 255 253 254 255 254 255 254 172 0 0 0 0 0 0 0 0 0 0 0 0 0 0 0 0 0 1 0 0 0 0 0 0 0 0 0 0 0 0 0 0 0 0 0 0 0 0 0 0 0 0 0 0 0 0 0 0 0 0 0 0 0 0 0 0 0 0 0 0 0 0 0 0 0 0 0 0 0 0 0 0 0 0 0 0 0 0 0 0 0 0 0 0 0 0 0 0 0 0 0 0 0 0 0 0 0 0 0 0 0 0 0 0 0 0 0 212 252 252 254 253 254 255 253 253 253 253 253 253 254 254 254 254 253 253 255 253 253 254 253 253 253 254 254 254 255 254 254 253 254 253 254 254 254 253 253 255 255 255 254 254 255 255 255 255 255 255 255 255 255 255 255 255 255 255 255 255 255 255 255 255 255 255 255 255 255 255 255 255 255 255 255 255 255 255 255 255 255 255 255 255 255 255 255 255 255 255 255 255 255 255 255 255 255 255 
255 255 255 255 255 255 255 255 255 255 255 255 255 255 255 255 255 255 255 255 255 255 255 255 255 255 255 255 255 255 255 255 255 255 255 255 255 255 255 255 255 255 255 255 255 255 255 255 255 255 255 255 255 255 253 254 254 252 253 253 255 255 255 253 253 254 254 255 253 255 254 255 254 254 254 252 254 253 254 254 253 254 254 253 253 253 254 254 254 253 255 253 255 254 255 255 254 254 254 252 232 0 1 0 0 0 0 0 0 1 0 0 0 0 0 0 0 0 0 0 0 0 0 0 0 0 0 0 0 0 0 0 0 0 0 0 0 0 0 0 0 0 0 0 0 0 0 0 1 0 0 0 0 0 0 0 0 0 0 0 0 0 0 0 0 0 0 0 0 0 0 0 0 0 0 0 0 0 0 0 0 0 0 1 0 0 0 0 0 1 1 0 0 0 0 0 0 0 0 0 0 0 0 0 0 0 0 122 255 255 254 254 254 253 253 253 253 253 253 253 255 253 254 254 254 253 254 253 254 253 254 253 254 255 254 253 253 255 254 253 254 254 253 253 253 255 255 253 252 10 1 0 0 0 0 0 0 0 0 0 0 0 0 0 0 0 0 0 0 0 0 0 0 0 0 1 0 0 0 0 0 0 0 0 0 0 0 0 0 0 0 0 0 0 0 0 0 0 0 0 1 0 0 0 0 0 0 0 0 0 0 0 0 0 0 0 0 0 0 0 0 0 0 0 0 0 1 1 0 1 0 0 0 0 0 0 1 1 0 0 0 0 0 0 0 0 0 0 0 0 0 0 0 0 0 0 211 251 253 253 253 254 255 254 255 254 253 253 253 254 254 255 253 254 254 255 253 254 253 254 253 253 254 253 254 255 254 255 254 254 255 253 255 253 253 254 255 254 253 255 254 255 255 255 255 255 255 255 255 255 255 255 255 255 255 255 255 255 255 255 255 255 255 255 255 255 255 255 255 255 255 255 255 255 255 255 255 255 255 255 255 255 255 255 255 255 255 255 255 255 255 255 255 255 255 
255 255 255 255 255 255 255 255 255 255 255 255 255 255 255 255 255 255 255 255 255 255 255 255 255 255 255 255 255 255 255 255 255 255 255 255 255 255 255 255 255 255 255 255 255 255 255 255 255 255 255 255 255 255 254 254 254 254 254 252 255 253 253 254 255 254 253 255 254 253 255 253 254 253 254 254 253 254 254 253 254 254 254 254 253 252 253 254 254 252 253 254 253 253 255 254 255 254 254 253 230 0 1 0 0 0 0 0 0 0 0 0 0 1 0 0 0 0 0 0 0 0 0 0 0 0 0 1 0 0 0 0 0 0 0 0 0 0 0 0 0 0 0 0 0 0 0 0 1 0 0 0 0 0 0 0 0 0 0 0 0 0 0 0 0 0 0 0 0 0 0 0 0 0 0 0 0 0 0 0 0 0 0 0 0 0 0 0 0 0 0 0 0 0 0 0 0 0 0 0 0 1 0 0 0 2 6 252 251 255 254 253 255 254 253 254 253 254 254 254 254 254 254 254 253 253 253 254 254 254 255 253 253 255 253 254 253 254 255 253 254 254 254 253 254 255 255 253 254 144 0 1 0 0 0 0 0 0 0 0 0 0 0 1 0 0 0 0 0 0 0 0 0 0 0 0 0 0 1 0 0 0 0 0 0 0 0 0 0 0 0 0 0 0 0 0 0 0 0 0 0 0 0 1 0 0 0 0 0 0 0 0 0 0 0 1 0 0 0 0 0 0 0 0 0 0 0 0 0 0 0 0 0 0 0 0 0 0 0 0 0 0 0 0 0 0 0 0 0 0 0 0 0 0 1 0 210 251 253 252 253 254 254 255 254 253 253 253 253 255 254 255 253 254 254 255 253 254 253 253 254 255 253 252 255 254 253 254 254 254 255 254 254 253 253 255 254 254 254 254 253 255 255 255 255 255 255 255 255 255 255 255 255 255 255 255 255 255 255 255 255 255 255 255 255 255 255 255 255 255 255 255 255 255 255 255 255 255 255 255 255 255 255 255 255 255 255 255 255 255 255 255 255 255 255 
255 255 255 255 255 255 255 255 255 255 255 255 255 255 255 255 255 255 255 255 255 255 255 255 255 255 255 255 255 255 255 255 255 255 255 255 255 255 255 255 255 255 255 255 255 255 255 255 255 255 255 255 255 255 253 253 253 254 255 254 253 254 253 253 255 254 253 254 253 254 255 253 254 253 253 255 254 254 254 254 255 255 254 254 254 253 254 253 253 255 253 254 253 253 254 253 254 254 254 254 222 0 1 0 0 0 0 0 0 0 0 0 0 0 0 0 0 0 0 0 0 0 0 0 0 0 0 0 0 0 0 0 0 0 0 1 0 0 0 0 0 0 0 0 0 0 0 0 0 0 0 0 0 0 0 0 0 0 0 0 0 0 0 0 0 0 0 0 0 0 0 0 0 0 0 0 0 0 0 0 0 0 0 0 0 0 0 0 0 0 0 0 0 0 0 0 0 0 0 0 0 0 0 0 2 0 160 255 253 255 255 254 254 254 253 253 254 254 255 253 253 254 253 255 253 253 254 254 253 254 253 254 254 254 253 255 253 254 254 254 255 253 254 255 255 254 255 252 248 255 17 2 1 2 0 0 0 0 0 1 0 1 0 0 0 0 0 0 0 0 0 0 0 0 0 0 0 0 0 0 0 0 0 0 0 0 0 0 0 0 0 0 0 0 0 1 0 0 0 0 0 0 0 1 0 0 0 0 0 0 0 0 0 0 0 0 0 0 1 0 0 0 0 0 0 0 0 0 0 0 0 0 0 0 0 0 0 0 0 0 0 0 0 0 0 0 0 0 0 0 0 0 0 0 0 0 205 253 253 253 254 254 254 255 253 253 254 254 254 253 254 255 253 253 255 253 254 254 253 253 255 255 254 254 255 254 254 253 254 253 254 255 253 254 254 255 254 253 255 254 254 255 255 255 255 255 255 255 255 255 255 255 255 255 255 255 255 255 255 255 255 255 255 255 255 255 255 255 255 255 255 255 255 255 255 255 255 255 255 255 255 255 255 255 255 255 255 255 255 255 255 255 255 255 255 
255 255 255 255 255 255 255 255 255 255 255 255 255 255 255 255 255 255 255 255 255 255 255 255 255 255 255 255 255 255 255 255 255 255 255 255 255 255 255 255 255 255 255 255 255 255 255 255 255 255 255 255 255 255 254 253 255 254 253 255 253 253 254 254 253 254 254 253 253 254 255 254 254 254 254 254 255 254 254 255 254 254 253 254 254 253 254 253 252 255 253 254 254 255 253 254 255 254 255 254 238 0 1 1 1 0 0 0 0 0 0 0 0 0 0 0 0 0 0 0 0 0 0 0 0 0 0 0 0 0 0 0 0 0 0 0 0 0 0 0 0 0 0 1 0 0 0 0 0 0 0 0 0 0 0 0 0 0 0 0 0 0 0 0 0 0 1 0 0 0 0 0 0 0 0 0 0 0 0 0 0 0 0 0 0 0 0 0 0 1 0 0 0 0 0 0 0 1 0 0 0 0 0 3 1 54 255 252 252 254 254 255 253 254 253 255 255 254 254 254 254 254 254 253 253 252 254 253 253 255 253 254 254 253 253 254 254 253 254 255 254 254 253 255 254 255 254 253 251 252 224 0 6 2 0 0 0 0 0 0 0 0 0 0 0 0 0 0 0 0 0 0 0 0 0 0 0 0 0 0 0 0 0 0 0 0 0 0 0 0 0 0 0 0 0 0 0 0 0 0 0 0 0 0 0 0 0 0 0 0 0 0 0 0 0 0 0 0 0 0 0 0 0 0 0 0 0 0 0 0 0 0 0 0 0 1 0 1 0 0 0 0 0 0 0 0 0 0 0 0 0 0 0 0 0 0 225 253 253 254 254 255 255 253 254 254 253 254 254 253 254 254 254 254 255 252 253 254 253 252 254 254 253 253 255 254 253 253 255 254 253 254 254 254 254 253 255 253 254 254 254 255 255 255 255 255 255 255 255 255 255 255 255 255 255 255 255 255 255 255 255 255 255 255 255 255 255 255 255 255 255 255 255 255 255 255 255 255 255 255 255 255 255 255 255 255 255 255 255 255 255 255 255 255 255 
255 255 255 255 255 255 255 255 255 255 255 255 255 255 255 255 255 255 255 255 255 255 255 255 255 255 255 255 255 255 255 255 255 255 255 255 255 255 255 255 255 255 255 255 255 255 255 255 255 255 255 255 255 255 254 254 254 254 254 253 255 253 254 254 254 253 254 253 254 253 255 254 255 254 255 254 255 254 254 254 254 253 254 253 253 253 253 254 254 254 254 254 255 254 254 253 254 254 255 254 237 0 1 1 0 0 0 0 0 0 0 0 1 0 0 0 0 0 1 0 0 0 0 0 0 0 0 0 0 0 0 0 0 0 0 0 0 0 0 0 0 0 0 0 0 0 0 0 0 0 0 0 0 0 0 0 0 0 0 0 0 0 0 0 0 0 1 0 0 0 0 0 0 0 0 0 0 0 0 0 0 0 0 0 0 0 0 0 0 0 0 0 0 0 0 0 0 0 0 0 0 0 1 4 13 253 253 255 254 253 254 254 253 253 254 255 253 255 253 255 253 254 253 253 253 254 253 254 254 255 254 255 253 253 253 253 254 253 254 255 254 255 255 255 254 254 254 252 253 249 254 182 0 6 0 0 0 0 0 0 1 0 0 0 0 0 0 1 0 0 0 0 0 0 0 0 0 0 0 0 0 0 0 0 0 0 0 0 0 1 0 0 0 0 0 0 0 0 0 0 0 0 0 0 0 0 0 0 0 0 0 0 0 0 0 0 1 0 0 0 0 0 0 0 0 0 0 0 0 0 0 0 0 0 0 0 0 0 0 0 0 0 0 0 0 0 0 0 0 0 0 0 0 0 0 7 247 252 254 254 254 254 254 253 254 253 253 254 254 253 254 253 255 254 253 254 253 255 253 254 255 253 254 254 254 254 253 254 254 255 254 254 254 253 254 254 253 254 253 254 254 255 255 255 255 255 255 255 255 255 255 255 255 255 255 255 255 255 255 255 255 255 255 255 255 255 255 255 255 255 255 255 255 255 255 255 255 255 255 255 255 255 255 255 255 255 255 255 255 255 255 255 255 255 255 
255 255 255 255 255 255 255 255 255 255 255 255 255 255 255 255 255 255 255 255 255 255 255 255 255 255 255 255 255 255 255 255 255 255 255 255 255 255 255 255 255 255 255 255 255 255 255 255 255 255 255 255 255 255 254 255 254 253 254 253 255 255 254 254 254 254 253 254 254 255 254 254 255 253 253 254 254 252 254 254 254 254 253 254 253 253 254 255 254 253 255 254 255 254 254 253 253 253 255 252 247 10 4 1 0 0 0 0 0 0 0 0 0 0 1 0 0 0 0 0 0 0 0 0 0 0 0 0 0 0 0 0 0 0 0 0 0 0 0 0 0 0 0 0 0 0 0 0 0 0 0 0 0 0 0 0 0 0 0 0 0 0 0 0 0 0 0 0 0 0 0 0 0 0 0 0 0 0 0 0 0 0 0 0 0 0 0 0 0 0 0 0 0 0 0 0 0 0 0 0 0 0 1 12 239 250 255 255 254 253 253 253 254 253 254 253 253 255 253 254 253 254 254 254 254 253 254 253 255 255 254 253 254 254 254 252 253 253 255 254 255 254 255 254 255 253 254 253 253 252 249 255 177 0 0 0 0 0 0 0 0 0 0 0 1 0 0 0 0 0 0 0 0 0 0 0 0 0 0 0 0 0 0 0 1 0 0 0 0 1 1 0 0 0 0 0 0 0 0 0 0 0 0 0 0 0 0 0 0 0 0 0 0 0 0 0 0 0 0 0 0 0 0 0 0 0 0 0 0 0 0 0 0 0 0 0 0 0 0 0 0 0 0 0 0 0 0 0 0 0 0 0 0 1 1 9 251 253 254 254 253 254 254 254 253 253 254 253 254 254 253 253 254 253 254 254 254 253 253 253 255 253 254 255 253 255 254 254 255 253 254 255 253 253 254 253 254 254 253 254 255 255 255 255 255 255 255 255 255 255 255 255 255 255 255 255 255 255 255 255 255 255 255 255 255 255 255 255 255 255 255 255 255 255 255 255 255 255 255 255 255 255 255 255 255 255 255 255 255 255 255 255 255 255 255 
255 255 255 255 255 255 255 255 255 255 255 255 255 255 255 255 255 255 255 255 255 255 255 255 255 255 255 255 255 255 255 255 255 255 255 255 255 255 255 255 255 255 255 255 255 255 255 255 255 255 255 255 255 255 255 253 255 253 253 254 253 253 254 254 255 253 254 254 253 254 255 253 255 253 253 254 253 253 253 255 253 253 254 253 254 254 253 254 252 254 254 253 254 254 254 254 254 253 254 252 255 41 6 2 0 0 0 0 0 1 0 0 0 0 0 0 0 0 0 0 0 0 0 0 0 0 0 0 0 0 0 0 0 0 0 0 0 0 0 0 0 1 0 1 0 0 0 0 0 0 0 0 0 1 0 0 0 0 0 0 0 0 0 0 0 0 0 0 0 0 0 0 0 0 1 0 0 0 0 0 0 0 0 0 0 0 0 0 0 0 0 0 0 0 0 0 0 0 0 0 0 0 0 194 253 250 254 255 254 253 254 253 254 254 253 254 254 255 254 255 255 253 254 254 255 253 253 254 254 253 254 253 254 255 254 253 253 253 255 253 254 253 255 253 253 254 254 255 254 252 253 249 255 56 0 0 0 0 0 0 1 0 0 0 0 0 0 0 0 0 0 0 0 0 0 0 0 0 0 0 0 0 0 0 0 0 0 0 0 0 0 0 0 0 0 0 0 0 0 0 0 0 0 0 1 0 0 0 0 0 0 0 1 0 0 0 0 0 0 0 0 0 0 0 0 0 0 0 0 0 0 0 0 0 0 0 0 0 0 0 0 0 0 0 0 0 0 0 0 0 0 0 0 1 2 33 255 253 254 254 253 253 255 254 254 254 253 253 254 254 254 254 254 253 255 253 255 253 253 253 254 255 254 252 253 255 253 254 253 253 253 253 254 254 255 253 255 255 253 254 255 255 255 255 255 255 255 255 255 255 255 255 255 255 255 255 255 255 255 255 255 255 255 255 255 255 255 255 255 255 255 255 255 255 255 255 255 255 255 255 255 255 255 255 255 255 255 255 255 255 255 255 255 255 255 
255 255 255 255 255 255 255 255 255 255 255 255 255 255 255 255 255 255 255 255 255 255 255 255 255 255 255 255 255 255 255 255 255 255 255 255 255 255 255 255 255 255 255 255 255 255 255 255 255 255 255 255 255 255 254 254 253 253 254 253 254 254 254 253 253 254 255 254 253 254 254 253 253 254 254 255 253 255 253 254 254 254 255 253 254 254 254 253 253 253 255 253 255 254 254 254 255 254 253 253 255 118 0 1 0 0 0 0 0 0 0 1 0 0 0 0 0 0 0 0 0 0 0 0 0 0 0 0 0 0 0 0 0 0 0 0 0 0 0 0 0 0 0 0 0 0 0 0 1 0 0 0 0 0 0 0 0 0 0 0 0 0 0 0 0 0 0 0 0 0 0 0 0 0 0 0 0 0 0 0 0 0 0 0 0 0 0 0 0 0 0 0 0 0 0 0 0 0 0 0 0 0 0 149 255 253 253 254 255 253 254 254 253 253 254 254 253 254 252 253 255 253 253 255 253 255 253 254 254 253 253 253 253 254 254 255 254 253 254 254 253 253 255 254 254 254 255 255 255 253 253 255 255 43 0 0 0 0 0 0 0 0 0 0 0 0 0 1 0 0 0 0 0 0 0 0 1 0 0 0 0 0 0 0 0 0 0 0 0 0 0 0 1 0 0 0 0 0 0 0 0 0 0 0 0 0 0 0 0 0 0 0 0 0 0 0 0 0 0 0 0 0 0 0 0 0 0 0 0 0 0 0 0 0 0 0 0 0 1 0 0 0 0 0 0 0 0 0 0 0 0 0 0 1 2 119 255 254 253 254 253 254 253 253 253 254 253 253 254 253 253 255 254 253 255 252 253 253 253 254 254 255 254 253 255 253 254 254 253 254 254 254 254 254 254 255 254 255 253 254 254 255 255 255 255 255 255 255 255 255 255 255 255 255 255 255 255 255 255 255 255 255 255 255 255 255 255 255 255 255 255 255 255 255 255 255 255 255 255 255 255 255 255 255 255 255 255 255 255 255 255 255 255 255 255 
255 255 255 255 255 255 255 255 255 255 255 255 255 255 255 255 255 255 255 255 255 255 255 255 255 255 255 255 255 255 255 255 255 255 255 255 255 255 255 255 255 255 255 255 255 255 255 255 255 255 255 255 255 255 254 253 253 253 255 254 255 254 255 254 253 254 254 255 254 254 253 254 254 253 254 253 254 255 255 253 255 254 253 255 253 254 254 255 254 253 254 253 253 254 255 253 255 254 253 254 255 167 0 0 0 0 0 0 0 0 0 0 0 0 0 0 0 0 0 0 0 0 0 0 0 0 0 0 0 0 0 0 0 0 0 0 0 0 0 0 1 0 0 0 0 0 0 0 0 0 0 0 0 0 0 0 0 0 0 0 0 0 0 0 0 0 0 0 0 0 0 0 1 0 0 0 0 0 0 0 0 0 0 0 0 0 0 0 0 0 0 0 0 0 0 0 1 0 0 0 1 0 0 77 255 254 253 254 255 254 254 254 253 253 254 252 255 254 253 253 253 253 253 255 253 253 254 253 254 253 253 253 254 253 254 255 254 255 254 253 253 255 254 254 255 252 253 254 255 254 255 255 255 42 0 0 0 0 0 0 0 0 0 1 0 0 0 0 0 0 0 0 0 0 0 0 0 0 0 0 0 0 0 0 1 0 0 0 0 0 0 0 0 1 0 0 0 0 0 0 0 0 0 0 0 0 0 0 0 1 0 0 0 0 1 0 0 0 0 0 0 0 0 0 0 0 0 0 0 0 0 0 0 0 0 0 0 0 0 0 0 0 0 0 0 0 0 0 0 0 0 0 0 1 0 201 253 255 253 253 253 253 254 253 253 254 254 253 254 254 253 253 254 253 253 253 253 254 254 255 254 254 253 254 255 253 255 255 254 255 254 255 254 255 253 254 254 255 254 254 254 255 255 255 255 255 255 255 255 255 255 255 255 255 255 255 255 255 255 255 255 255 255 255 255 255 255 255 255 255 255 255 255 255 255 255 255 255 255 255 255 255 255 255 255 255 255 255 255 255 255 255 255 255 255 
255 255 255 255 255 255 255 255 255 255 255 255 255 255 255 255 255 255 255 255 255 255 255 255 255 255 255 255 255 255 255 255 255 255 255 255 255 255 255 255 255 255 255 255 255 255 255 255 255 255 255 255 255 255 254 253 254 255 252 254 253 254 254 254 255 254 255 254 254 253 254 252 254 253 254 254 255 255 254 253 254 253 254 255 254 254 254 255 253 255 252 255 253 252 255 254 255 254 254 254 252 244 1 0 0 1 0 0 0 1 0 0 0 0 0 0 0 0 0 0 0 0 0 0 0 0 0 0 0 1 0 0 0 0 0 0 0 0 0 0 0 0 0 0 0 0 0 0 0 0 0 0 0 0 0 0 0 0 0 0 0 0 0 0 0 0 0 0 0 0 0 0 1 0 0 0 0 0 0 0 0 0 0 0 0 0 0 0 0 0 0 1 0 0 0 0 0 0 0 0 0 0 0 85 255 255 253 254 253 254 255 254 255 254 253 253 253 254 254 253 253 253 253 254 254 253 255 254 254 254 253 254 254 253 254 255 254 255 254 253 254 253 255 254 253 253 254 254 253 254 255 255 255 42 0 0 0 0 0 0 0 0 0 0 0 0 0 0 0 0 0 0 0 0 0 0 0 0 0 0 0 0 0 0 0 0 0 0 0 0 0 0 0 1 0 0 0 0 0 0 0 0 0 0 0 0 0 0 0 1 0 0 0 0 0 0 0 0 0 0 0 0 0 0 0 0 1 0 0 0 0 0 0 0 0 0 0 0 0 0 0 0 0 0 0 0 1 0 0 0 0 0 0 1 6 254 254 254 253 253 254 253 254 253 254 254 254 255 254 254 254 253 254 253 255 254 253 254 255 253 253 255 253 254 253 254 254 254 253 254 254 253 253 255 253 254 254 253 254 255 254 255 255 255 255 255 255 255 255 255 255 255 255 255 255 255 255 255 255 255 255 255 255 255 255 255 255 255 255 255 255 255 255 255 255 255 255 255 255 255 255 255 255 255 255 255 255 255 255 255 255 255 255 255 255 
255 255 255 255 255 255 255 255 255 255 255 255 255 255 255 255 255 255 255 255 255 255 255 255 255 255 255 255 255 255 255 255 255 255 255 255 255 255 255 255 255 255 255 255 255 255 255 255 255 255 255 255 255 255 253 254 254 254 253 254 254 254 255 254 254 254 254 254 254 253 254 253 254 254 254 254 254 255 254 253 255 254 254 253 254 254 254 254 253 254 253 254 253 253 255 254 253 254 255 254 254 255 30 3 0 0 0 0 0 0 0 0 0 0 0 0 0 0 0 0 0 0 0 0 0 0 0 0 0 1 0 0 0 0 0 0 0 0 0 0 0 1 0 0 0 0 0 0 0 0 0 0 0 0 0 0 0 0 0 0 0 0 0 0 0 0 0 0 0 0 0 0 0 0 0 0 0 0 0 0 0 0 0 0 0 0 0 0 0 0 0 0 0 0 0 0 0 0 0 0 0 0 0 86 255 255 254 252 253 254 255 255 252 254 253 254 253 254 254 254 254 254 254 254 254 254 254 254 254 255 254 253 254 253 255 254 254 255 254 254 254 253 254 254 254 254 254 253 254 253 255 255 255 42 0 0 0 0 0 0 0 0 0 0 0 0 0 0 0 0 0 0 0 0 0 0 0 0 0 0 0 0 0 0 0 0 0 0 0 0 0 0 0 0 0 0 0 0 0 0 0 1 0 0 0 0 0 0 0 0 0 0 0 0 0 0 0 0 1 0 0 0 0 0 0 0 0 0 0 0 0 0 0 0 0 0 0 0 0 1 0 0 1 0 0 0 0 0 0 0 0 0 0 2 83 255 255 254 253 253 254 254 255 253 253 254 254 254 254 253 255 254 254 254 254 254 255 254 255 254 254 255 253 252 254 255 253 253 254 254 255 254 254 255 254 254 255 253 255 255 254 255 255 255 255 255 255 255 255 255 255 255 255 255 255 255 255 255 255 255 255 255 255 255 255 255 255 255 255 255 255 255 255 255 255 255 255 255 255 255 255 255 255 255 255 255 255 255 255 255 255 255 255 255 255 
255 255 255 255 255 255 255 255 255 255 255 255 255 255 255 255 255 255 255 255 255 255 255 255 255 255 255 255 255 255 255 255 255 255 255 255 255 255 255 255 255 255 255 255 255 255 255 255 255 255 255 255 255 255 254 253 254 254 254 253 255 254 254 253 255 254 253 253 254 253 253 255 254 255 254 255 254 253 254 255 255 254 253 253 255 254 254 254 253 253 254 255 253 254 255 254 254 254 254 255 255 255 147 0 0 0 0 0 0 0 0 0 0 0 0 0 0 0 0 0 0 0 0 0 0 0 0 0 0 0 0 0 0 0 0 0 0 0 0 0 0 0 0 0 0 0 0 0 0 0 0 0 0 0 0 0 0 0 0 0 0 0 0 0 0 0 0 0 0 0 0 0 0 0 0 0 0 0 0 0 0 0 0 0 0 0 0 0 0 0 0 0 0 0 0 0 0 0 0 0 0 1 1 82 255 255 254 253 254 255 254 253 253 254 254 254 253 253 254 255 253 254 254 253 253 252 254 253 254 254 254 252 254 254 255 254 253 255 254 255 253 254 254 255 254 253 255 254 253 253 254 255 255 33 2 1 0 0 0 0 0 0 0 0 0 0 0 0 0 0 0 0 0 0 0 0 0 0 0 0 0 0 0 0 0 0 0 0 0 0 0 1 0 0 0 0 0 0 0 0 0 0 0 0 0 0 0 0 0 0 0 0 0 0 0 0 0 0 0 0 0 0 0 0 0 0 0 0 0 0 0 0 0 0 0 1 0 0 0 1 0 0 0 0 0 1 0 0 0 0 1 2 1 0 220 254 255 255 253 255 254 254 254 253 253 255 254 254 254 254 253 254 255 253 254 255 253 254 255 254 255 253 255 253 254 254 255 254 253 253 254 254 255 254 254 255 253 255 253 253 254 255 255 255 255 255 255 255 255 255 255 255 255 255 255 255 255 255 255 255 255 255 255 255 255 255 255 255 255 255 255 255 255 255 255 255 255 255 255 255 255 255 255 255 255 255 255 255 255 255 255 255 255 255 255 
255 255 255 255 255 255 255 255 255 255 255 255 255 255 255 255 255 255 255 255 255 255 255 255 255 255 255 255 255 255 255 255 255 255 255 255 255 255 255 255 255 255 255 255 255 255 255 255 255 255 255 255 255 255 254 254 255 253 254 252 254 255 254 254 253 255 253 253 254 255 253 255 255 254 255 254 254 253 254 255 254 253 253 254 255 253 253 254 253 253 254 254 253 255 254 255 255 254 254 255 255 252 255 10 5 0 0 0 0 0 0 0 0 0 0 0 0 0 0 0 0 0 1 0 0 0 0 0 0 0 0 0 0 0 0 0 1 0 1 0 0 0 0 1 0 0 0 0 0 0 0 0 0 0 0 0 0 0 0 0 0 0 0 0 0 0 0 0 1 0 0 0 0 0 0 1 0 0 0 0 0 0 0 0 0 0 0 0 0 0 0 0 0 0 0 0 0 0 0 1 0 4 0 134 255 255 254 254 253 253 253 253 255 254 254 254 254 254 253 254 254 254 254 253 253 253 255 253 254 253 254 253 254 254 255 254 254 253 253 255 253 253 253 253 255 253 254 254 253 254 255 255 255 102 0 5 2 1 0 0 0 0 0 0 0 0 0 0 0 0 1 0 0 0 0 0 0 0 0 0 0 0 0 0 0 0 0 0 0 1 0 0 0 0 0 0 0 0 0 0 0 0 0 0 0 0 0 0 0 0 0 0 0 0 1 0 0 0 0 0 0 0 0 0 0 0 0 0 0 0 0 0 0 0 0 0 0 0 0 0 0 0 0 0 0 0 0 0 0 0 1 2 5 65 255 253 254 255 254 253 254 254 254 254 253 254 254 253 254 254 254 252 255 253 255 255 254 254 253 253 253 253 253 255 253 254 253 253 253 253 255 254 254 254 254 254 253 253 253 254 254 255 255 255 255 255 255 255 255 255 255 255 255 255 255 255 255 255 255 255 255 255 255 255 255 255 255 255 255 255 255 255 255 255 255 255 255 255 255 255 255 255 255 255 255 255 255 255 255 255 255 255 255 255 255 
255 255 255 255 255 255 255 255 255 255 255 255 255 255 255 255 255 255 255 255 255 255 255 255 255 255 255 255 255 255 255 255 255 255 255 255 255 255 255 255 255 255 255 255 255 255 255 255 255 255 255 255 255 255 254 254 255 254 254 253 254 253 255 254 253 254 254 252 255 255 254 253 253 254 253 254 254 253 254 254 254 253 254 253 254 255 253 254 254 255 254 254 255 253 254 254 254 254 254 254 255 255 254 179 0 1 0 0 0 0 0 0 0 0 0 0 0 1 0 0 0 0 0 0 0 0 0 0 0 0 0 0 0 0 0 0 0 1 0 0 0 0 0 0 0 0 0 0 0 0 0 0 0 0 0 0 0 0 0 0 0 0 0 0 0 0 0 0 0 0 0 0 0 0 0 0 0 0 0 0 0 0 0 0 0 0 0 0 0 0 0 0 0 1 0 0 0 0 1 2 7 0 91 255 251 255 254 254 253 253 253 254 253 254 253 254 255 253 253 254 254 254 254 253 253 254 255 253 255 254 254 254 254 253 254 253 253 254 253 253 254 254 253 253 254 255 253 253 253 255 254 253 249 255 112 0 4 3 0 0 0 0 0 0 0 0 0 0 1 0 0 0 0 0 0 0 0 0 0 0 0 0 0 0 0 0 0 1 0 0 0 0 0 0 0 0 0 0 0 0 1 0 0 0 0 0 0 0 0 0 0 0 0 0 0 0 0 0 0 0 0 0 0 0 0 0 0 0 0 0 0 0 0 0 0 0 0 0 0 0 0 0 0 0 0 0 0 0 0 0 0 6 0 240 250 254 255 253 254 254 253 254 254 253 254 254 254 254 254 254 254 253 254 254 253 254 255 254 253 254 253 254 253 254 253 254 255 253 253 253 254 253 255 255 254 253 254 252 253 255 255 255 255 255 255 255 255 255 255 255 255 255 255 255 255 255 255 255 255 255 255 255 255 255 255 255 255 255 255 255 255 255 255 255 255 255 255 255 255 255 255 255 255 255 255 255 255 255 255 255 255 255 255 255 255 
255 255 255 255 255 255 255 255 255 255 255 255 255 255 255 255 255 255 255 255 255 255 255 255 255 255 255 255 255 255 255 255 255 255 255 255 255 255 255 255 255 255 255 255 255 255 255 255 255 255 255 255 255 255 253 253 253 254 254 255 254 254 254 254 253 254 254 254 253 255 253 253 253 254 254 254 254 254 254 253 254 254 254 255 253 254 254 255 254 253 255 255 253 254 253 255 254 254 255 253 255 255 251 255 43 3 0 0 0 0 0 0 0 0 0 0 0 0 0 0 0 0 0 0 0 0 0 0 0 0 0 0 0 0 0 0 0 0 0 0 0 0 0 0 0 0 0 0 0 0 0 0 0 0 0 0 0 0 0 0 0 0 0 0 1 0 0 0 0 0 0 0 0 0 0 0 0 0 0 0 0 0 0 0 0 1 0 1 0 0 0 0 0 3 0 0 0 4 3 0 20 202 255 247 254 254 255 254 254 254 254 253 253 254 253 254 255 254 254 253 254 253 253 252 254 255 254 254 253 254 255 253 254 252 254 254 253 253 254 253 253 255 254 254 253 253 254 254 254 254 255 253 251 245 255 210 38 0 4 3 0 0 0 0 0 0 0 0 0 0 0 0 0 0 0 0 0 0 0 0 0 0 0 0 0 0 0 0 0 0 0 0 0 0 0 0 0 0 0 0 0 0 0 0 0 0 0 0 0 0 0 0 0 0 0 0 0 0 0 0 0 1 0 1 0 0 0 0 0 0 0 0 0 0 0 0 0 0 0 0 0 0 0 0 0 0 0 0 0 0 2 0 158 254 254 254 255 254 254 255 254 253 254 253 255 255 253 254 254 253 254 254 254 254 253 254 254 254 254 253 254 255 254 254 254 253 253 254 255 253 253 254 254 255 254 253 255 253 254 254 254 255 255 255 255 255 255 255 255 255 255 255 255 255 255 255 255 255 255 255 255 255 255 255 255 255 255 255 255 255 255 255 255 255 255 255 255 255 255 255 255 255 255 255 255 255 255 255 255 255 255 255 255 255 255 
255 255 255 255 255 255 255 255 255 255 255 255 255 255 255 255 255 255 255 255 255 255 255 255 255 255 255 255 255 255 255 255 255 255 255 255 255 255 255 255 255 255 255 255 255 255 255 255 255 255 255 255 255 255 253 254 255 253 254 255 254 254 254 253 252 254 255 255 253 253 253 254 253 255 254 254 254 255 253 255 254 254 254 255 254 254 255 253 255 254 255 254 253 255 253 255 255 255 255 253 255 255 255 249 255 22 2 4 0 0 1 0 0 0 0 0 0 0 0 0 0 1 0 0 0 0 0 0 0 0 0 0 0 0 0 0 0 0 0 0 0 1 0 0 0 0 0 0 0 0 0 0 0 0 0 0 0 0 0 0 0 0 0 0 0 0 0 0 0 0 0 0 0 0 0 0 0 0 0 0 0 0 0 0 0 1 3 2 0 0 0 0 0 3 3 6 0 0 66 201 255 250 252 254 255 254 254 255 254 255 254 253 254 255 253 253 255 253 255 253 253 253 253 253 254 255 254 254 253 253 253 254 254 253 253 254 254 254 254 254 253 254 254 254 253 253 254 254 254 254 255 253 252 251 253 249 255 195 57 0 0 5 4 0 0 0 0 0 0 0 0 0 0 0 0 0 0 0 0 0 0 0 0 0 0 0 0 0 0 0 0 0 0 0 0 0 1 0 0 0 0 0 0 0 0 0 0 0 0 0 0 0 0 0 0 0 0 0 0 0 0 1 0 0 0 0 0 0 0 0 0 0 0 0 0 0 0 0 0 0 0 0 0 0 0 0 0 0 0 8 0 90 255 251 255 255 253 255 255 255 255 253 255 255 254 253 254 255 253 252 255 253 255 253 253 254 254 254 253 254 253 253 255 254 255 253 253 255 253 253 254 253 253 255 255 254 253 253 255 254 254 255 255 255 255 255 255 255 255 255 255 255 255 255 255 255 255 255 255 255 255 255 255 255 255 255 255 255 255 255 255 255 255 255 255 255 255 255 255 255 255 255 255 255 255 255 255 255 255 255 255 255 255 255 255 
255 255 255 255 255 255 255 255 255 255 255 255 255 255 255 255 255 255 255 255 255 255 255 255 255 255 255 255 255 255 255 255 255 255 255 255 255 255 255 255 255 255 255 255 255 255 255 255 255 255 255 255 255 255 253 253 254 253 255 254 255 253 253 252 254 255 255 254 255 253 253 255 253 254 254 253 255 253 253 254 254 254 255 254 255 254 255 253 254 253 255 252 255 254 255 254 255 255 254 254 254 254 254 250 248 255 81 0 4 1 0 0 0 1 0 0 1 0 0 0 0 0 0 0 0 0 0 0 0 0 0 0 0 0 0 0 0 0 0 0 0 0 0 0 0 0 0 0 0 0 0 0 0 0 0 0 0 0 0 0 0 0 0 0 0 0 0 1 0 0 0 0 1 0 0 0 0 0 0 0 0 2 1 5 5 5 5 3 1 2 5 5 0 0 0 41 145 242 255 249 251 251 255 255 253 254 253 253 253 255 254 254 255 253 254 253 254 253 253 253 253 254 254 254 253 253 254 254 254 253 253 253 254 254 254 253 254 253 255 253 253 253 255 254 254 254 253 255 254 255 253 253 253 253 254 254 252 250 255 239 158 46 0 0 2 4 5 2 1 1 3 4 5 5 2 2 1 0 0 0 0 0 0 0 1 0 0 0 0 0 0 0 0 0 0 0 1 0 0 0 0 0 0 0 0 0 0 0 0 0 0 0 0 0 0 0 0 0 0 0 0 0 0 0 0 0 0 0 0 0 0 0 0 0 0 0 0 0 0 0 0 0 0 0 0 0 0 3 1 0 159 255 247 255 255 254 254 254 254 254 254 254 255 255 254 254 255 255 254 253 254 253 255 253 253 254 254 255 254 255 253 255 253 254 254 253 253 255 254 254 254 254 253 254 253 255 253 254 254 253 254 255 255 255 255 255 255 255 255 255 255 255 255 255 255 255 255 255 255 255 255 255 255 255 255 255 255 255 255 255 255 255 255 255 255 255 255 255 255 255 255 255 255 255 255 255 255 255 255 255 255 255 255 255 255 
255 255 255 255 255 255 255 255 255 255 255 255 255 255 255 255 255 255 255 255 255 255 255 255 255 255 255 255 255 255 255 255 255 255 255 255 255 255 255 255 255 255 255 255 255 255 255 255 255 255 255 255 255 255 254 253 255 253 255 254 254 253 253 253 254 253 255 254 253 253 253 254 253 255 254 254 254 254 255 254 253 254 254 253 254 255 255 254 254 254 254 254 254 255 254 255 254 253 254 254 255 253 253 252 252 249 255 211 41 0 0 0 0 0 0 0 0 0 0 0 0 0 0 0 0 0 0 0 0 0 0 0 0 0 0 0 0 0 0 0 0 0 0 0 0 0 0 0 0 0 0 0 0 0 0 0 0 0 1 0 0 0 0 0 0 0 0 0 0 0 0 0 0 0 0 0 0 0 0 0 0 7 0 17 8 8 8 0 0 0 7 62 113 178 244 255 254 251 253 254 254 254 254 253 253 254 253 253 254 253 254 254 253 253 253 254 254 254 252 254 253 253 255 255 253 253 253 254 253 254 254 254 254 253 253 253 254 253 255 255 254 253 253 253 254 254 254 254 255 253 253 254 254 253 255 255 254 251 249 250 251 255 245 182 93 40 4 0 0 0 0 4 7 22 10 6 1 0 0 0 0 0 0 0 0 0 0 0 0 0 0 0 0 0 0 0 0 0 0 0 0 0 0 0 0 0 0 0 0 0 0 0 0 1 0 0 0 0 0 0 0 0 0 0 0 0 0 0 0 0 0 0 0 0 0 1 0 0 1 0 0 0 0 0 0 0 0 0 94 244 253 249 252 254 255 254 253 254 254 254 254 254 253 254 254 254 254 253 253 254 253 254 253 254 254 254 253 254 254 253 254 253 253 254 254 254 254 254 253 254 254 253 255 254 254 255 254 254 254 252 255 255 255 255 255 255 255 255 255 255 255 255 255 255 255 255 255 255 255 255 255 255 255 255 255 255 255 255 255 255 255 255 255 255 255 255 255 255 255 255 255 255 255 255 255 255 255 255 255 255 255 255 255 255 255 
255 255 255 255 255 255 255 255 255 255 255 255 255 255 255 255 255 255 255 255 255 255 255 255 255 255 255 255 255 255 255 255 255 255 255 255 255 255 255 255 255 255 255 255 255 255 255 255 255 255 255 255 255 255 253 255 254 255 254 254 255 253 253 254 253 253 253 253 253 253 254 254 254 253 254 254 253 255 253 255 253 253 254 253 253 255 254 254 253 255 254 255 253 254 253 254 255 254 253 254 254 253 253 254 253 254 253 250 243 0 0 0 0 0 0 0 0 0 0 0 0 0 0 0 0 0 0 0 0 0 0 0 0 0 0 0 0 0 0 0 0 0 0 0 0 0 0 0 0 0 0 0 0 0 0 0 0 0 0 0 0 0 0 0 0 0 0 0 0 0 0 0 0 0 0 0 0 0 0 0 8 0 115 255 253 252 254 212 203 204 248 255 255 253 250 250 252 254 254 254 255 254 254 253 253 254 254 254 254 254 254 254 254 254 253 253 255 253 253 254 254 253 254 254 253 254 253 254 254 254 254 255 254 254 254 254 253 253 254 254 253 254 252 253 253 254 254 253 254 254 253 254 254 254 255 255 255 253 251 251 252 253 253 251 255 255 249 205 192 198 238 247 251 255 225 0 9 0 0 0 0 0 0 0 0 0 0 0 0 0 1 0 0 0 0 0 0 0 0 0 0 0 0 0 0 0 0 0 0 0 0 0 1 0 0 1 0 0 0 0 0 0 0 0 0 0 0 0 0 0 0 0 0 0 0 0 0 0 0 0 0 0 0 0 0 0 0 24 255 250 254 254 253 254 253 255 253 253 254 255 254 252 253 254 253 253 254 253 253 255 254 255 253 255 255 254 253 254 254 252 255 253 254 254 253 254 255 255 252 253 254 254 254 254 255 254 253 255 253 254 254 255 255 255 255 255 255 255 255 255 255 255 255 255 255 255 255 255 255 255 255 255 255 255 255 255 255 255 255 255 255 255 255 255 255 255 255 255 255 255 255 255 255 255 255 255 255 255 255 255 255 255 255 255 255 
255 255 255 255 255 255 255 255 255 255 255 255 255 255 255 255 255 255 255 255 255 255 255 255 255 255 255 255 255 255 255 255 255 255 255 255 255 255 255 255 255 255 255 255 255 255 255 255 255 255 255 255 255 255 253 255 253 253 254 253 254 254 254 253 253 253 253 252 254 254 254 254 254 253 254 254 253 254 254 255 255 253 255 253 254 253 254 254 253 254 253 254 253 254 254 253 255 255 253 254 253 253 254 253 254 255 255 252 228 0 1 0 0 0 0 0 1 0 0 0 0 0 0 0 0 0 0 0 0 0 0 0 0 0 0 0 0 0 0 0 0 0 0 0 0 0 0 0 0 0 0 0 0 0 0 0 0 0 0 0 1 0 0 0 0 0 0 0 0 0 0 0 0 0 0 0 0 0 1 5 0 140 255 250 253 250 251 253 252 253 254 253 253 250 250 251 255 255 254 253 255 254 255 253 253 255 255 254 255 253 254 253 254 254 253 254 253 253 254 253 254 254 254 254 254 254 253 254 254 253 254 254 254 254 254 254 254 254 253 255 253 254 253 254 253 254 255 252 254 255 253 254 254 254 254 255 254 253 253 253 255 253 252 253 252 253 255 253 252 253 254 253 254 253 253 217 0 7 1 0 0 0 0 0 0 0 0 1 0 0 0 0 0 0 0 1 0 0 0 0 0 0 0 0 0 0 0 0 0 1 0 0 0 0 0 0 0 0 0 0 0 1 0 0 0 0 0 1 0 0 0 0 0 0 0 0 0 0 0 0 0 1 0 0 0 0 0 20 255 254 255 255 253 253 254 253 253 254 254 254 254 253 253 253 254 253 254 255 254 253 254 253 254 255 253 253 254 254 254 254 253 253 254 254 254 253 254 253 254 254 253 255 254 254 254 254 254 254 254 253 254 255 255 255 255 255 255 255 255 255 255 255 255 255 255 255 255 255 255 255 255 255 255 255 255 255 255 255 255 255 255 255 255 255 255 255 255 255 255 255 255 255 255 255 255 255 255 255 255 255 255 255 255 255 255 
255 255 255 255 255 255 255 255 255 255 255 255 255 255 255 255 255 255 255 255 255 255 255 255 255 255 255 255 255 255 255 255 255 255 255 255 255 255 255 255 255 255 255 255 255 255 255 255 255 255 255 255 255 255 253 254 253 254 253 254 253 254 255 253 254 254 254 252 255 253 254 254 253 254 254 255 254 253 254 254 255 254 253 254 255 254 255 254 254 254 254 252 253 254 254 254 255 254 253 254 252 254 254 254 255 254 255 254 227 0 1 0 0 0 0 0 0 0 0 0 0 0 0 0 0 0 0 1 0 0 0 0 0 0 0 0 0 0 0 0 0 1 0 0 0 1 0 0 0 0 0 0 0 0 0 0 1 0 0 0 0 0 0 0 0 0 0 0 0 0 0 0 0 0 0 0 0 7 1 13 207 255 247 254 254 253 250 251 252 253 253 255 255 255 252 253 253 255 255 255 255 253 254 253 253 255 254 254 253 254 254 253 255 253 253 254 253 254 255 253 255 254 254 254 253 253 253 253 255 253 254 254 254 254 253 253 255 254 254 253 254 253 253 255 254 255 254 254 253 253 254 254 254 254 255 254 253 252 254 254 253 253 254 255 255 255 253 250 252 252 253 254 253 254 250 251 241 16 0 8 0 0 0 1 0 0 0 0 0 0 0 0 0 0 0 0 0 0 0 0 0 0 0 0 0 0 0 0 0 0 0 0 0 0 1 0 0 0 0 2 0 0 0 0 0 0 0 0 0 0 0 0 0 0 0 0 0 1 0 0 1 0 0 0 0 0 0 23 255 254 255 255 254 254 253 253 253 254 254 253 254 254 254 254 254 254 254 254 253 253 253 252 255 254 253 253 254 253 254 254 253 254 253 254 255 254 253 252 254 255 253 254 255 255 253 255 255 254 254 252 254 255 255 255 255 255 255 255 255 255 255 255 255 255 255 255 255 255 255 255 255 255 255 255 255 255 255 255 255 255 255 255 255 255 255 255 255 255 255 255 255 255 255 255 255 255 255 255 255 255 255 255 255 255 255 
255 255 255 255 255 255 255 255 255 255 255 255 255 255 255 255 255 255 255 255 255 255 255 255 255 255 255 255 255 255 255 255 255 255 255 255 255 255 255 255 255 255 255 255 255 255 255 255 255 255 255 255 255 255 254 254 254 253 254 254 253 253 254 254 255 255 254 253 254 254 254 254 254 254 255 253 254 254 254 254 253 255 253 255 253 253 254 254 254 254 254 254 253 254 253 255 255 254 253 254 252 254 254 255 254 255 254 251 248 13 1 0 0 0 1 0 0 0 0 0 0 0 0 0 0 0 0 0 0 0 0 0 0 0 0 0 0 0 0 0 0 0 0 0 0 0 1 0 0 1 0 0 0 0 0 0 0 0 0 0 0 0 0 0 0 1 0 0 0 0 0 0 0 0 0 3 6 0 80 255 253 250 253 254 255 253 252 252 254 255 255 255 255 253 254 254 253 254 254 254 254 254 254 253 254 255 255 254 253 255 254 253 254 254 254 253 254 253 253 253 254 254 253 254 254 253 254 254 254 253 254 255 253 254 254 253 254 253 255 253 254 254 254 253 253 254 254 254 254 253 254 254 252 254 255 253 253 252 254 255 254 254 255 255 254 253 253 253 255 255 255 255 255 252 252 250 251 255 98 0 5 3 1 0 0 0 0 0 0 0 0 0 0 0 0 0 0 0 0 0 0 0 0 0 0 0 0 0 0 0 0 0 0 0 0 0 0 1 0 0 0 0 0 0 0 0 0 0 0 0 0 0 0 0 0 0 0 0 0 0 0 0 0 0 0 0 2 23 255 254 255 254 255 255 253 253 253 253 253 253 255 255 254 255 253 254 254 254 252 253 253 254 254 254 253 254 254 253 253 254 253 255 253 254 254 254 254 254 253 254 253 254 254 253 254 254 254 255 253 254 254 255 255 255 255 255 255 255 255 255 255 255 255 255 255 255 255 255 255 255 255 255 255 255 255 255 255 255 255 255 255 255 255 255 255 255 255 255 255 255 255 255 255 255 255 255 255 255 255 255 255 255 255 255 255 
255 255 255 255 255 255 255 255 255 255 255 255 255 255 255 255 255 255 255 255 255 255 255 255 255 255 255 255 255 255 255 255 255 255 255 255 255 255 255 255 255 255 255 255 255 255 255 255 255 255 255 255 255 255 254 254 255 253 255 253 254 254 254 254 255 255 253 254 255 253 255 254 254 254 253 253 254 254 254 254 253 255 253 254 254 253 254 255 253 254 255 253 254 255 254 254 254 254 254 254 254 254 254 255 255 255 253 251 255 44 0 0 0 0 0 0 1 0 0 0 0 0 0 0 0 0 0 0 0 0 0 0 0 0 0 1 0 0 0 0 0 0 0 0 0 0 0 0 0 0 0 0 0 0 0 0 0 0 0 0 0 0 0 0 0 0 0 0 0 0 0 0 0 7 3 0 26 209 255 249 252 255 252 253 255 255 252 253 253 253 255 254 255 253 253 253 254 253 253 254 254 254 255 252 254 254 254 253 255 253 254 253 253 254 253 254 255 254 253 254 253 254 253 255 254 253 255 253 254 254 253 253 254 254 253 253 254 253 255 255 252 254 253 253 254 253 255 253 254 254 253 254 254 253 255 254 254 253 254 253 255 254 255 254 255 254 253 254 254 253 253 254 254 253 252 254 254 245 255 207 19 0 4 6 0 0 0 0 0 0 0 0 0 0 0 0 0 0 0 0 0 0 0 0 0 0 0 0 0 0 0 0 0 0 0 1 0 0 0 0 0 0 0 0 0 0 0 0 0 0 0 0 0 0 0 0 0 0 0 0 0 1 0 0 0 0 0 99 255 253 255 255 255 255 253 254 254 254 254 253 255 254 253 255 253 253 253 254 254 254 254 254 255 254 254 254 254 254 254 253 254 255 254 254 252 253 254 253 254 254 253 254 255 253 253 255 255 253 254 255 254 255 255 255 255 255 255 255 255 255 255 255 255 255 255 255 255 255 255 255 255 255 255 255 255 255 255 255 255 255 255 255 255 255 255 255 255 255 255 255 255 255 255 255 255 255 255 255 255 255 255 255 255 255 255 
255 255 255 255 255 255 255 255 255 255 255 255 255 255 255 255 255 255 255 255 255 255 255 255 255 255 255 255 255 255 255 255 255 255 255 255 255 255 255 255 255 255 255 255 255 255 255 255 255 255 255 255 255 255 255 254 255 254 253 253 255 254 255 254 254 253 253 255 254 253 253 255 254 255 254 255 255 254 254 255 254 254 254 253 255 253 255 253 253 255 254 254 253 255 255 254 253 255 254 254 254 255 255 255 255 254 253 253 255 27 6 3 0 0 0 0 0 0 0 0 0 0 0 0 0 0 0 1 0 0 0 0 0 0 0 0 0 0 0 0 0 0 0 0 0 0 0 0 1 0 0 0 0 0 0 0 0 0 0 0 0 0 0 0 0 0 0 0 0 0 4 8 1 0 42 189 255 252 248 254 255 255 254 254 254 255 253 254 253 254 254 255 253 253 254 254 254 254 254 255 255 253 254 253 253 255 252 253 255 253 254 253 253 254 254 254 255 254 254 255 254 253 254 254 253 253 253 254 254 254 254 253 254 253 254 253 254 254 254 254 253 255 253 254 255 254 254 254 254 254 254 254 254 254 254 254 254 254 254 253 254 254 255 255 255 255 253 252 254 254 252 255 254 253 254 253 254 251 248 251 255 160 25 0 1 7 4 1 0 0 0 0 0 0 0 0 0 0 0 0 0 0 0 0 0 0 0 0 0 0 0 0 0 0 1 0 0 0 0 1 0 0 0 0 0 0 0 0 0 0 0 0 0 0 0 0 0 0 0 0 0 0 0 0 0 6 0 105 255 254 255 253 254 255 254 254 255 254 254 253 254 253 253 253 255 253 254 255 255 254 255 253 254 254 254 254 255 254 255 253 255 253 254 254 254 254 253 254 253 255 253 254 255 254 254 255 253 253 255 254 255 255 255 255 255 255 255 255 255 255 255 255 255 255 255 255 255 255 255 255 255 255 255 255 255 255 255 255 255 255 255 255 255 255 255 255 255 255 255 255 255 255 255 255 255 255 255 255 255 255 255 255 255 255 255 
255 255 255 255 255 255 255 255 255 255 255 255 255 255 255 255 255 255 255 255 255 255 255 255 255 255 255 255 255 255 255 255 255 255 255 255 255 255 255 255 255 255 255 255 255 255 255 255 255 255 255 255 255 255 254 254 252 253 254 255 255 254 253 253 254 253 255 254 254 254 253 254 253 254 254 255 254 254 254 254 253 254 255 253 252 254 254 253 255 255 253 254 253 255 254 254 253 254 253 253 253 255 255 254 255 252 254 254 255 178 1 0 1 5 4 2 1 0 0 0 0 0 0 0 0 0 0 0 0 0 0 0 0 0 0 0 0 0 0 0 0 0 0 0 0 0 0 0 0 0 0 0 0 0 0 0 0 0 0 0 0 0 0 0 0 0 3 5 4 1 0 7 79 218 255 254 247 253 253 252 254 255 255 254 255 253 255 253 253 254 254 255 254 253 254 255 254 254 254 254 255 253 253 254 254 255 254 254 253 254 255 253 254 254 255 255 254 254 255 254 255 254 253 255 253 254 254 255 253 254 254 254 255 253 254 254 254 254 254 253 254 255 255 253 254 255 253 252 255 255 255 253 254 253 253 254 253 254 255 254 253 253 255 254 255 253 254 254 254 254 253 254 254 253 255 254 253 252 254 252 247 254 255 210 75 7 0 1 3 5 4 0 0 0 0 0 0 0 0 0 0 0 0 0 0 0 1 1 0 0 0 0 0 0 0 0 0 0 0 0 0 0 0 0 0 0 0 0 0 1 0 0 0 0 0 0 0 0 0 0 0 1 4 6 1 0 36 235 254 254 253 254 254 255 254 253 254 253 254 254 254 254 253 254 255 254 254 254 254 254 253 254 254 253 254 255 253 254 253 254 255 254 253 254 254 254 254 255 254 254 255 254 254 254 254 254 253 255 254 253 254 255 255 255 255 255 255 255 255 255 255 255 255 255 255 255 255 255 255 255 255 255 255 255 255 255 255 255 255 255 255 255 255 255 255 255 255 255 255 255 255 255 255 255 255 255 255 255 255 255 255 255 255 255 255 
255 255 255 255 255 255 255 255 255 255 255 255 255 255 255 255 255 255 255 255 255 255 255 255 255 255 255 255 255 255 255 255 255 255 255 255 255 255 255 255 255 255 255 255 255 255 255 255 255 255 255 255 255 255 254 253 254 253 255 254 253 254 253 254 253 253 254 253 254 253 253 254 254 255 253 254 254 254 254 254 254 254 253 253 253 254 255 253 255 254 253 254 253 254 253 254 254 254 255 254 253 254 255 255 254 254 253 254 253 255 251 155 38 0 0 0 0 5 4 3 1 1 0 0 0 0 0 0 0 0 0 0 0 0 0 0 0 0 0 0 0 0 1 0 0 0 0 0 0 0 0 0 0 0 0 0 0 0 0 0 1 1 4 5 3 1 0 0 10 80 184 247 255 250 247 252 255 255 253 253 253 255 255 254 254 253 255 254 253 255 255 253 253 253 254 255 255 254 253 255 254 254 253 254 254 254 253 254 254 254 255 254 255 255 255 255 253 255 253 254 252 254 254 254 254 255 255 255 254 254 255 255 254 253 254 255 252 253 254 255 253 252 254 254 253 254 254 253 254 254 255 253 254 253 254 255 255 254 255 254 254 253 255 252 253 254 254 254 255 253 253 253 255 255 255 253 253 253 254 255 255 251 246 254 255 253 193 91 16 0 0 1 3 5 4 3 1 0 0 0 0 0 0 0 0 0 0 0 0 0 0 0 0 0 0 1 0 0 0 0 0 0 0 0 0 0 0 0 0 0 0 0 0 0 0 0 0 3 4 4 1 1 0 4 56 204 255 252 253 254 253 255 255 254 254 253 254 254 253 255 252 254 254 253 254 254 253 254 254 253 253 254 255 253 254 254 253 254 254 255 253 254 255 254 254 254 253 253 254 253 255 254 253 254 254 253 253 254 254 253 254 255 255 255 255 255 255 255 255 255 255 255 255 255 255 255 255 255 255 255 255 255 255 255 255 255 255 255 255 255 255 255 255 255 255 255 255 255 255 255 255 255 255 255 255 255 255 255 255 255 255 255 255 255 255 
255 255 255 255 255 255 255 255 255 255 255 255 255 255 255 255 255 255 255 255 255 255 255 255 255 255 255 255 255 255 255 255 255 255 255 255 255 255 255 255 255 255 255 255 255 255 255 255 255 255 255 255 255 255 254 254 254 254 253 254 253 253 254 254 254 255 253 253 253 254 253 255 253 254 253 253 255 254 255 254 255 254 254 253 254 254 255 254 255 253 254 255 254 254 253 254 255 254 255 254 255 254 254 255 253 253 253 254 255 252 244 254 255 237 197 94 39 4 0 0 1 1 0 3 3 4 3 4 2 1 1 1 1 0 0 0 0 0 0 0 0 0 0 0 0 0 0 0 0 1 1 1 1 2 3 3 4 4 4 1 1 1 0 0 6 61 140 209 255 255 253 246 249 253 255 255 255 254 255 254 253 254 254 254 254 255 254 254 255 255 253 253 253 253 255 253 254 254 253 255 254 254 255 253 253 254 253 255 254 254 252 254 254 253 255 254 254 253 253 254 253 254 255 254 254 253 254 254 254 255 254 254 255 254 255 254 253 254 255 254 255 253 255 254 253 255 254 254 253 253 253 254 255 255 254 254 254 255 253 255 254 254 254 253 253 254 254 254 254 253 254 254 254 254 254 254 254 254 255 254 254 255 255 252 250 245 253 255 255 218 150 69 7 0 0 0 1 0 4 4 4 3 4 3 1 1 1 0 0 0 0 0 0 0 0 0 0 0 0 0 0 0 0 0 1 1 1 1 2 3 3 3 4 3 2 0 2 0 0 5 19 89 187 247 255 252 247 254 254 253 254 254 254 255 254 254 253 255 253 253 253 253 255 254 254 254 253 255 255 254 255 255 254 255 254 255 253 254 253 252 254 255 253 254 254 254 253 254 254 253 254 254 254 253 255 254 253 255 255 254 255 255 255 255 255 255 255 255 255 255 255 255 255 255 255 255 255 255 255 255 255 255 255 255 255 255 255 255 255 255 255 255 255 255 255 255 255 255 255 255 255 255 255 255 255 255 255 255 255 255 255 255 255 255 255 
255 255 255 255 255 255 255 255 255 255 255 255 255 255 255 255 255 255 255 255 255 255 255 255 255 255 255 255 255 255 255 255 255 255 255 255 255 255 255 255 255 255 255 255 255 255 255 255 255 255 255 255 255 255 253 254 254 254 253 254 255 254 254 254 255 255 254 253 255 253 255 254 253 255 255 254 255 255 253 253 255 255 253 255 255 254 254 254 253 253 255 253 254 254 254 254 254 254 254 255 255 255 254 255 253 253 253 254 254 255 255 253 247 246 253 255 255 251 203 169 76 63 19 4 2 0 0 0 0 1 1 1 1 0 0 0 0 0 0 0 1 0 0 0 0 0 0 0 0 1 1 1 2 0 0 0 0 0 2 11 62 78 179 220 252 255 255 249 245 251 253 255 254 253 252 253 255 254 253 255 253 253 253 254 254 252 254 255 254 254 254 253 254 253 255 253 255 254 253 254 254 253 254 254 253 254 254 253 254 254 254 253 254 254 255 253 254 255 254 255 254 254 254 254 254 253 254 254 253 254 254 255 254 255 253 254 254 255 255 253 254 255 254 254 253 254 255 254 253 253 254 252 255 254 253 255 254 254 254 254 254 254 254 254 253 253 254 254 255 254 254 255 254 253 254 253 254 255 254 254 255 252 251 251 253 254 253 250 247 246 255 255 254 229 181 131 67 38 0 3 0 0 0 0 2 1 1 1 1 0 0 0 0 0 0 0 0 0 0 0 0 0 0 0 1 1 1 2 0 0 0 1 0 0 5 40 55 157 181 247 255 255 252 245 249 254 255 253 254 254 254 254 253 255 255 255 253 255 255 255 255 255 254 255 253 254 253 255 253 254 254 254 254 254 255 253 254 254 254 253 254 255 253 255 254 255 254 253 254 254 255 253 255 255 255 253 255 254 255 255 254 255 255 255 255 255 255 255 255 255 255 255 255 255 255 255 255 255 255 255 255 255 255 255 255 255 255 255 255 255 255 255 255 255 255 255 255 255 255 255 255 255 255 255 255 255 255 255 255 255 255 255 255 255 255 
255 255 255 255 255 255 255 255 255 255 255 255 255 255 255 255 255 255 255 255 255 255 255 255 255 255 255 255 255 255 255 255 255 255 255 255 255 255 255 255 255 255 255 255 255 255 255 255 255 255 255 255 255 255 255 254 254 254 255 254 254 254 254 254 253 254 255 254 253 254 253 253 255 253 253 254 255 254 254 254 254 253 254 254 254 254 253 255 253 254 255 253 253 254 253 254 254 255 254 254 254 255 254 253 254 254 253 254 255 254 254 255 255 255 255 251 250 246 250 254 255 255 255 245 242 172 175 170 124 66 74 77 76 45 0 0 0 0 0 0 0 0 0 0 0 0 0 0 68 74 75 76 67 110 162 167 175 235 243 252 255 255 254 249 246 250 253 255 255 255 253 253 253 253 254 253 254 255 255 255 254 253 253 255 254 254 254 255 254 253 254 254 254 254 254 254 254 254 254 254 254 254 254 254 254 254 254 253 255 254 255 254 254 254 253 254 253 255 254 254 254 254 254 254 254 255 255 254 254 254 254 254 255 254 254 254 254 254 255 254 254 254 254 255 254 254 254 253 254 254 254 253 254 254 254 254 254 254 255 254 254 254 254 254 253 253 255 255 254 254 253 253 254 253 255 254 254 255 255 255 254 251 251 251 252 252 253 254 255 255 253 251 247 249 252 255 255 255 241 244 206 172 177 171 74 74 72 71 74 4 0 0 0 0 0 0 0 0 0 0 0 0 0 28 80 78 79 74 107 163 167 163 224 237 248 255 255 255 251 248 248 251 254 255 255 255 255 254 255 253 253 253 253 255 254 255 254 254 254 255 255 254 255 255 253 254 255 254 254 254 254 254 255 254 254 254 255 253 254 255 254 254 254 253 254 254 254 253 254 254 254 254 254 255 254 253 254 254 253 253 254 255 255 255 255 255 255 255 255 255 255 255 255 255 255 255 255 255 255 255 255 255 255 255 255 255 255 255 255 255 255 255 255 255 255 255 255 255 255 255 255 255 255 255 255 255 255 255 255 255 255 255 255 255 255 
255 255 255 255 255 255 255 255 255 255 255 255 255 255 255 255 255 255 255 255 255 255 255 255 255 255 255 255 255 255 255 255 255 255 255 255 255 255 255 255 255 255 255 255 255 255 255 255 255 255 255 255 255 255 255 255 255 255 255 255 255 255 255 255 255 255 255 255 255 255 255 255 255 255 255 255 255 255 255 255 255 255 255 255 255 255 255 255 255 255 255 255 255 255 255 255 255 255 255 255 255 255 255 255 255 255 255 255 255 255 255 255 255 255 255 255 255 255 255 255 255 255 255 255 255 255 255 255 255 255 255 255 255 255 255 255 255 255 255 255 255 255 255 255 255 255 255 255 255 255 255 255 255 255 255 255 255 255 255 255 255 255 255 255 255 255 255 255 255 255 255 255 255 255 255 255 255 255 255 255 255 255 255 255 255 255 255 255 255 255 255 255 255 255 255 255 255 255 255 255 255 255 255 255 255 255 255 255 255 255 255 255 255 255 255 255 255 255 255 255 255 255 255 255 255 255 255 255 255 255 255 255 255 255 255 255 255 255 255 255 255 255 255 255 255 255 255 255 255 255 255 255 255 255 255 255 255 255 255 255 255 255 255 255 255 255 255 255 255 255 255 255 255 255 255 255 255 255 255 255 255 255 255 255 255 255 255 255 255 255 255 255 255 255 255 255 255 255 255 255 255 255 255 255 255 255 255 255 255 255 255 255 255 255 255 255 255 255 255 255 255 255 255 255 255 255 255 255 255 255 255 255 255 255 255 255 255 255 255 255 255 255 255 255 255 255 255 255 255 255 255 255 255 255 255 255 255 255 255 255 255 255 255 255 255 255 255 255 255 255 255 255 255 255 255 255 255 255 255 255 255 255 255 255 255 255 255 255 255 255 255 255 255 255 255 255 255 255 255 255 255 255 255 255 255 255 255 255 255 255 255 255 255 255 255 255 255 255 255 255 255 255 255 255 255 255 255 255 255 255 255 255 255 255 255 255 255 255 255 255 255 255 255 255 255 255 255 255 255 255 255 255 255 255 255 
255 255 255 255 255 255 255 255 255 255 255 255 255 255 255 255 255 255 255 255 255 255 255 255 255 255 255 255 255 255 255 255 255 255 255 255 255 255 255 255 255 255 255 255 255 255 255 255 255 255 255 255 255 255 255 255 255 255 255 255 255 255 255 255 255 255 255 255 255 255 255 255 255 255 255 255 255 255 255 255 255 255 255 255 255 255 255 255 255 255 255 255 255 255 255 255 255 255 255 255 255 255 255 255 255 255 255 255 255 255 255 255 255 255 255 255 255 255 255 255 255 255 255 255 255 255 255 255 255 255 255 255 255 255 255 255 255 255 255 255 255 255 255 255 255 255 255 255 255 255 255 255 255 255 255 255 255 255 255 255 255 255 255 255 255 255 255 255 255 255 255 255 255 255 255 255 255 255 255 255 255 255 255 255 255 255 255 255 255 255 255 255 255 255 255 255 255 255 255 255 255 255 255 255 255 255 255 255 255 255 255 255 255 255 255 255 255 255 255 255 255 255 255 255 255 255 255 255 255 255 255 255 255 255 255 255 255 255 255 255 255 255 255 255 255 255 255 255 255 255 255 255 255 255 255 255 255 255 255 255 255 255 255 255 255 255 255 255 255 255 255 255 255 255 255 255 255 255 255 255 255 255 255 255 255 255 255 255 255 255 255 255 255 255 255 255 255 255 255 255 255 255 255 255 255 255 255 255 255 255 255 255 255 255 255 255 255 255 255 255 255 255 255 255 255 255 255 255 255 255 255 255 255 255 255 255 255 255 255 255 255 255 255 255 255 255 255 255 255 255 255 255 255 255 255 255 255 255 255 255 255 255 255 255 255 255 255 255 255 255 255 255 255 255 255 255 255 255 255 255 255 255 255 255 255 255 255 255 255 255 255 255 255 255 255 255 255 255 255 255 255 255 255 255 255 255 255 255 255 255 255 255 255 255 255 255 255 255 255 255 255 255 255 255 255 255 255 255 255 255 255 255 255 255 255 255 255 255 255 255 255 255 255 255 255 255 255 255 255 255 255 255 255 255 255 
255 255 255 255 255 255 255 255 255 255 255 255 255 255 255 255 255 255 255 255 255 255 255 255 255 255 255 255 255 255 255 255 255 255 255 255 255 255 255 255 255 255 255 255 255 255 255 255 255 255 255 255 255 255 255 255 255 255 255 255 255 255 255 255 255 255 255 255 255 255 255 255 255 255 255 255 255 255 255 255 255 255 255 255 255 255 255 255 255 255 255 255 255 255 255 255 255 255 255 255 255 255 255 255 255 255 255 255 255 255 255 255 255 255 255 255 255 255 255 255 255 255 255 255 255 255 255 255 255 255 255 255 255 255 255 255 255 255 255 255 255 255 255 255 255 255 255 255 255 255 255 255 255 255 255 255 255 255 255 255 255 255 255 255 255 255 255 255 255 255 255 255 255 255 255 255 255 255 255 255 255 255 255 255 255 255 255 255 255 255 255 255 255 255 255 255 255 255 255 255 255 255 255 255 255 255 255 255 255 255 255 255 255 255 255 255 255 255 255 255 255 255 255 255 255 255 255 255 255 255 255 255 255 255 255 255 255 255 255 255 255 255 255 255 255 255 255 255 255 255 255 255 255 255 255 255 255 255 255 255 255 255 255 255 255 255 255 255 255 255 255 255 255 255 255 255 255 255 255 255 255 255 255 255 255 255 255 255 255 255 255 255 255 255 255 255 255 255 255 255 255 255 255 255 255 255 255 255 255 255 255 255 255 255 255 255 255 255 255 255 255 255 255 255 255 255 255 255 255 255 255 255 255 255 255 255 255 255 255 255 255 255 255 255 255 255 255 255 255 255 255 255 255 255 255 255 255 255 255 255 255 255 255 255 255 255 255 255 255 255 255 255 255 255 255 255 255 255 255 255 255 255 255 255 255 255 255 255 255 255 255 255 255 255 255 255 255 255 255 255 255 255 255 255 255 255 255 255 255 255 255 255 255 255 255 255 255 255 255 255 255 255 255 255 255 255 255 255 255 255 255 255 255 255 255 255 255 255 255 255 255 255 255 255 255 255 255 255 255 255 255 255 255 255 255 
255 255 255 255 255 255 255 255 255 255 255 255 255 255 255 255 255 255 255 255 255 255 255 255 255 255 255 255 255 255 255 255 255 255 255 255 255 255 255 255 255 255 255 255 255 255 255 255 255 255 255 255 255 255 255 255 255 255 255 255 255 255 255 255 255 255 255 255 255 255 255 255 255 255 255 255 255 255 255 255 255 255 255 255 255 255 255 255 255 255 255 255 255 255 255 255 255 255 255 255 255 255 255 255 255 255 255 255 255 255 255 255 255 255 255 255 255 255 255 255 255 255 255 255 255 255 255 255 255 255 255 255 255 255 255 255 255 255 255 255 255 255 255 255 255 255 255 255 255 255 255 255 255 255 255 255 255 255 255 255 255 255 255 255 255 255 255 255 255 255 255 255 255 255 255 255 255 255 255 255 255 255 255 255 255 255 255 255 255 255 255 255 255 255 255 255 255 255 255 255 255 255 255 255 255 255 255 255 255 255 255 255 255 255 255 255 255 255 255 255 255 255 255 255 255 255 255 255 255 255 255 255 255 255 255 255 255 255 255 255 255 255 255 255 255 255 255 255 255 255 255 255 255 255 255 255 255 255 255 255 255 255 255 255 255 255 255 255 255 255 255 255 255 255 255 255 255 255 255 255 255 255 255 255 255 255 255 255 255 255 255 255 255 255 255 255 255 255 255 255 255 255 255 255 255 255 255 255 255 255 255 255 255 255 255 255 255 255 255 255 255 255 255 255 255 255 255 255 255 255 255 255 255 255 255 255 255 255 255 255 255 255 255 255 255 255 255 255 255 255 255 255 255 255 255 255 255 255 255 255 255 255 255 255 255 255 255 255 255 255 255 255 255 255 255 255 255 255 255 255 255 255 255 255 255 255 255 255 255 255 255 255 255 255 255 255 255 255 255 255 255 255 255 255 255 255 255 255 255 255 255 255 255 255 255 255 255 255 255 255 255 255 255 255 255 255 255 255 255 255 255 255 255 255 255 255 255 255 255 255 255 255 255 255 255 255 255 255 255 255 255 255 255 255 255 
255 255 255 255 255 255 255 255 255 255 255 255 255 255 255 255 255 255 255 255 255 255 255 255 255 255 255 255 255 255 255 255 255 255 255 255 255 255 255 255 255 255 255 255 255 255 255 255 255 255 255 255 255 255 255 255 255 255 255 255 255 255 255 255 255 255 255 255 255 255 255 255 255 255 255 255 255 255 255 255 255 255 255 255 255 255 255 255 255 255 255 255 255 255 255 255 255 255 255 255 255 255 255 255 255 255 255 255 255 255 255 255 255 255 255 255 255 255 255 255 255 255 255 255 255 255 255 255 255 255 255 255 255 255 255 255 255 255 255 255 255 255 255 255 255 255 255 255 255 255 255 255 255 255 255 255 255 255 255 255 255 255 255 255 255 255 255 255 255 255 255 255 255 255 255 255 255 255 255 255 255 255 255 255 255 255 255 255 255 255 255 255 255 255 255 255 255 255 255 255 255 255 255 255 255 255 255 255 255 255 255 255 255 255 255 255 255 255 255 255 255 255 255 255 255 255 255 255 255 255 255 255 255 255 255 255 255 255 255 255 255 255 255 255 255 255 255 255 255 255 255 255 255 255 255 255 255 255 255 255 255 255 255 255 255 255 255 255 255 255 255 255 255 255 255 255 255 255 255 255 255 255 255 255 255 255 255 255 255 255 255 255 255 255 255 255 255 255 255 255 255 255 255 255 255 255 255 255 255 255 255 255 255 255 255 255 255 255 255 255 255 255 255 255 255 255 255 255 255 255 255 255 255 255 255 255 255 255 255 255 255 255 255 255 255 255 255 255 255 255 255 255 255 255 255 255 255 255 255 255 255 255 255 255 255 255 255 255 255 255 255 255 255 255 255 255 255 255 255 255 255 255 255 255 255 255 255 255 255 255 255 255 255 255 255 255 255 255 255 255 255 255 255 255 255 255 255 255 255 255 255 255 255 255 255 255 255 255 255 255 255 255 255 255 255 255 255 255 255 255 255 255 255 255 255 255 255 255 255 255 255 255 255 255 255 255 255 255 255 255 255 255 255 255 255 
255 255 255 255 255 255 255 255 255 255 255 255 255 255 255 255 255 255 255 255 255 255 255 255 255 255 255 255 255 255 255 255 255 255 255 255 255 255 255 255 255 255 255 255 255 255 255 255 255 255 255 255 255 255 255 255 255 255 255 255 255 255 255 255 255 255 255 255 255 255 255 255 255 255 255 255 255 255 255 255 255 255 255 255 255 255 255 255 255 255 255 255 255 255 255 255 255 255 255 255 255 255 255 255 255 255 255 255 255 255 255 255 255 255 255 255 255 255 255 255 255 255 255 255 255 255 255 255 255 255 255 255 255 255 255 255 255 255 255 255 255 255 255 255 255 255 255 255 255 255 255 255 255 255 255 255 255 255 255 255 255 255 255 255 255 255 255 255 255 255 255 255 255 255 255 255 255 255 255 255 255 255 255 255 255 255 255 255 255 255 255 255 255 255 255 255 255 255 255 255 255 255 255 255 255 255 255 255 255 255 255 255 255 255 255 255 255 255 255 255 255 255 255 255 255 255 255 255 255 255 255 255 255 255 255 255 255 255 255 255 255 255 255 255 255 255 255 255 255 255 255 255 255 255 255 255 255 255 255 255 255 255 255 255 255 255 255 255 255 255 255 255 255 255 255 255 255 255 255 255 255 255 255 255 255 255 255 255 255 255 255 255 255 255 255 255 255 255 255 255 255 255 255 255 255 255 255 255 255 255 255 255 255 255 255 255 255 255 255 255 255 255 255 255 255 255 255 255 255 255 255 255 255 255 255 255 255 255 255 255 255 255 255 255 255 255 255 255 255 255 255 255 255 255 255 255 255 255 255 255 255 255 255 255 255 255 255 255 255 255 255 255 255 255 255 255 255 255 255 255 255 255 255 255 255 255 255 255 255 255 255 255 255 255 255 255 255 255 255 255 255 255 255 255 255 255 255 255 255 255 255 255 255 255 255 255 255 255 255 255 255 255 255 255 255 255 255 255 255 255 255 255 255 255 255 255 255 255 255 255 255 255 255 255 255 255 255 255 255 255 255 255 255 255 255 
255 255 255 255 255 255 255 255 255 255 255 255 255 255 255 255 255 255 255 255 255 255 255 255 255 255 255 255 255 255 255 255 255 255 255 255 255 255 255 255 255 255 255 255 255 255 255 255 255 255 255 255 255 255 255 255 255 255 255 255 255 255 255 255 255 255 255 255 255 255 255 255 255 255 255 255 255 255 255 255 255 255 255 255 255 255 255 255 255 255 255 255 255 255 255 255 255 255 255 255 255 255 255 255 255 255 255 255 255 255 255 255 255 255 255 255 255 255 255 255 255 255 255 255 255 255 255 255 255 255 255 255 255 255 255 255 255 255 255 255 255 255 255 255 255 255 255 255 255 255 255 255 255 255 255 255 255 255 255 255 255 255 255 255 255 255 255 255 255 255 255 255 255 255 255 255 255 255 255 255 255 255 255 255 255 255 255 255 255 255 255 255 255 255 255 255 255 255 255 255 255 255 255 255 255 255 255 255 255 255 255 255 255 255 255 255 255 255 255 255 255 255 255 255 255 255 255 255 255 255 255 255 255 255 255 255 255 255 255 255 255 255 255 255 255 255 255 255 255 255 255 255 255 255 255 255 255 255 255 255 255 255 255 255 255 255 255 255 255 255 255 255 255 255 255 255 255 255 255 255 255 255 255 255 255 255 255 255 255 255 255 255 255 255 255 255 255 255 255 255 255 255 255 255 255 255 255 255 255 255 255 255 255 255 255 255 255 255 255 255 255 255 255 255 255 255 255 255 255 255 255 255 255 255 255 255 255 255 255 255 255 255 255 255 255 255 255 255 255 255 255 255 255 255 255 255 255 255 255 255 255 255 255 255 255 255 255 255 255 255 255 255 255 255 255 255 255 255 255 255 255 255 255 255 255 255 255 255 255 255 255 255 255 255 255 255 255 255 255 255 255 255 255 255 255 255 255 255 255 255 255 255 255 255 255 255 255 255 255 255 255 255 255 255 255 255 255 255 255 255 255 255 255 255 255 255 255 255 255 255 255 255 255 255 255 255 255 255 255 255 255 255 255 255 255 
255 255 255 255 255 255 255 255 255 255 255 255 255 255 255 255 255 255 255 255 255 255 255 255 255 255 255 255 255 255 255 255 255 255 255 255 255 255 255 255 255 255 255 255 255 255 255 255 255 255 255 255 255 255 255 255 255 255 255 255 255 255 255 255 255 255 255 255 255 255 255 255 255 255 255 255 255 255 255 255 255 255 255 255 255 255 255 255 255 255 255 255 255 255 255 255 255 255 255 255 255 255 255 255 255 255 255 255 255 255 255 255 255 255 255 255 255 255 255 255 255 255 255 255 255 255 255 255 255 255 255 255 255 255 255 255 255 255 255 255 255 255 255 255 255 255 255 255 255 255 255 255 255 255 255 255 255 255 255 255 255 255 255 255 255 255 255 255 255 255 255 255 255 255 255 255 255 255 255 255 255 255 255 255 255 255 255 255 255 255 255 255 255 255 255 255 255 255 255 255 255 255 255 255 255 255 255 255 255 255 255 255 255 255 255 255 255 255 255 255 255 255 255 255 255 255 255 255 255 255 255 255 255 255 255 255 255 255 255 255 255 255 255 255 255 255 255 255 255 255 255 255 255 255 255 255 255 255 255 255 255 255 255 255 255 255 255 255 255 255 255 255 255 255 255 255 255 255 255 255 255 255 255 255 255 255 255 255 255 255 255 255 255 255 255 255 255 255 255 255 255 255 255 255 255 255 255 255 255 255 255 255 255 255 255 255 255 255 255 255 255 255 255 255 255 255 255 255 255 255 255 255 255 255 255 255 255 255 255 255 255 255 255 255 255 255 255 255 255 255 255 255 255 255 255 255 255 255 255 255 255 255 255 255 255 255 255 255 255 255 255 255 255 255 255 255 255 255 255 255 255 255 255 255 255 255 255 255 255 255 255 255 255 255 255 255 255 255 255 255 255 255 255 255 255 255 255 255 255 255 255 255 255 255 255 255 255 255 255 255 255 255 255 255 255 255 255 255 255 255 255 255 255 255 255 255 255 255 255 255 255 255 255 255 255 255 255 255 255 255 255 255 255 255 255 
255 255 255 255 255 255 255 255 255 255 255 255 255 255 255 255 255 255 255 255 255 255 255 255 255 255 255 255 255 255 255 255 255 255 255 255 255 255 255 255 255 255 255 255 255 255 255 255 255 255 255 255 255 255 255 255 255 255 255 255 255 255 255 255 255 255 255 255 255 255 255 255 255 255 255 255 255 255 255 255 255 255 255 255 255 255 255 255 255 255 255 255 255 255 255 255 255 255 255 255 255 255 255 255 255 255 255 255 255 255 255 255 255 255 255 255 255 255 255 255 255 255 255 255 255 255 255 255 255 255 255 255 255 255 255 255 255 255 255 255 255 255 255 255 255 255 255 255 255 255 255 255 255 255 255 255 255 255 255 255 255 255 255 255 255 255 255 255 255 255 255 255 255 255 255 255 255 255 255 255 255 255 255 255 255 255 255 255 255 255 255 255 255 255 255 255 255 255 255 255 255 255 255 255 255 255 255 255 255 255 255 255 255 255 255 255 255 255 255 255 255 255 255 255 255 255 255 255 255 255 255 255 255 255 255 255 255 255 255 255 255 255 255 255 255 255 255 255 255 255 255 255 255 255 255 255 255 255 255 255 255 255 255 255 255 255 255 255 255 255 255 255 255 255 255 255 255 255 255 255 255 255 255 255 255 255 255 255 255 255 255 255 255 255 255 255 255 255 255 255 255 255 255 255 255 255 255 255 255 255 255 255 255 255 255 255 255 255 255 255 255 255 255 255 255 255 255 255 255 255 255 255 255 255 255 255 255 255 255 255 255 255 255 255 255 255 255 255 255 255 255 255 255 255 255 255 255 255 255 255 255 255 255 255 255 255 255 255 255 255 255 255 255 255 255 255 255 255 255 255 255 255 255 255 255 255 255 255 255 255 255 255 255 255 255 255 255 255 255 255 255 255 255 255 255 255 255 255 255 255 255 255 255 255 255 255 255 255 255 255 255 255 255 255 255 255 255 255 255 255 255 255 255 255 255 255 255 255 255 255 255 255 255 255 255 255 255 255 255 255 255 255 255 255 255 
255 255 255 255 255 255 255 255 255 255 255 255 255 255 255 255 255 255 255 255 255 255 255 255 255 255 255 255 255 255 255 255 255 255 255 255 255 255 255 255 255 255 255 255 255 255 255 255 255 255 255 255 255 255 255 255 255 255 255 255 255 255 255 255 255 255 255 255 255 255 255 255 255 255 255 255 255 255 255 255 255 255 255 255 255 255 255 255 255 255 255 255 255 255 255 255 255 255 255 255 255 255 255 255 255 255 255 255 255 255 255 255 255 255 255 255 255 255 255 255 255 255 255 255 255 255 255 255 255 255 255 255 255 255 255 255 255 255 255 255 255 255 255 255 255 255 255 255 255 255 255 255 255 255 255 255 255 255 255 255 255 255 255 255 255 255 255 255 255 255 255 255 255 255 255 255 255 255 255 255 255 255 255 255 255 255 255 255 255 255 255 255 255 255 255 255 255 255 255 255 255 255 255 255 255 255 255 255 255 255 255 255 255 255 255 255 255 255 255 255 255 255 255 255 255 255 255 255 255 255 255 255 255 255 255 255 255 255 255 255 255 255 255 255 255 255 255 255 255 255 255 255 255 255 255 255 255 255 255 255 255 255 255 255 255 255 255 255 255 255 255 255 255 255 255 255 255 255 255 255 255 255 255 255 255 255 255 255 255 255 255 255 255 255 255 255 255 255 255 255 255 255 255 255 255 255 255 255 255 255 255 255 255 255 255 255 255 255 255 255 255 255 255 255 255 255 255 255 255 255 255 255 255 255 255 255 255 255 255 255 255 255 255 255 255 255 255 255 255 255 255 255 255 255 255 255 255 255 255 255 255 255 255 255 255 255 255 255 255 255 255 255 255 255 255 255 255 255 255 255 255 255 255 255 255 255 255 255 255 255 255 255 255 255 255 255 255 255 255 255 255 255 255 255 255 255 255 255 255 255 255 255 255 255 255 255 255 255 255 255 255 255 255 255 255 255 255 255 255 255 255 255 255 255 255 255 255 255 255 255 255 255 255 255 255 255 255 255 255 255 255 255 255 255 255 
255 255 255 255 255 255 255 255 255 255 255 255 255 255 255 255 255 255 255 255 255 255 255 255 255 255 255 255 255 255 255 255 255 255 255 255 255 255 255 255 255 255 255 255 255 255 255 255 255 255 255 255 255 255 255 255 255 255 255 255 255 255 255 255 255 255 255 255 255 255 255 255 255 255 255 255 255 255 255 255 255 255 255 255 255 255 255 255 255 255 255 255 255 255 255 255 255 255 255 255 255 255 255 255 255 255 255 255 255 255 255 255 255 255 255 255 255 255 255 255 255 255 255 255 255 255 255 255 255 255 255 255 255 255 255 255 255 255 255 255 255 255 255 255 255 255 255 255 255 255 255 255 255 255 255 255 255 255 255 255 255 255 255 255 255 255 255 255 255 255 255 255 255 255 255 255 255 255 255 255 255 255 255 255 255 255 255 255 255 255 255 255 255 255 255 255 255 255 255 255 255 255 255 255 255 255 255 255 255 255 255 255 255 255 255 255 255 255 255 255 255 255 255 255 255 255 255 255 255 255 255 255 255 255 255 255 255 255 255 255 255 255 255 255 255 255 255 255 255 255 255 255 255 255 255 255 255 255 255 255 255 255 255 255 255 255 255 255 255 255 255 255 255 255 255 255 255 255 255 255 255 255 255 255 255 255 255 255 255 255 255 255 255 255 255 255 255 255 255 255 255 255 255 255 255 255 255 255 255 255 255 255 255 255 255 255 255 255 255 255 255 255 255 255 255 255 255 255 255 255 255 255 255 255 255 255 255 255 255 255 255 255 255 255 255 255 255 255 255 255 255 255 255 255 255 255 255 255 255 255 255 255 255 255 255 255 255 255 255 255 255 255 255 255 255 255 255 255 255 255 255 255 255 255 255 255 255 255 255 255 255 255 255 255 255 255 255 255 255 255 255 255 255 255 255 255 255 255 255 255 255 255 255 255 255 255 255 255 255 255 255 255 255 255 255 255 255 255 255 255 255 255 255 255 255 255 255 255 255 255 255 255 255 255 255 255 255 255 255 255 255 255 255 255 255 
255 255 255 255 255 255 255 255 255 255 255 255 255 255 255 255 255 255 255 255 255 255 255 255 255 255 255 255 255 255 255 255 255 255 255 255 255 255 255 255 255 255 255 255 255 255 255 255 255 255 255 255 255 255 255 255 255 255 255 255 255 255 255 255 255 255 255 255 255 255 255 255 255 255 255 255 255 255 255 255 255 255 255 255 255 255 255 255 255 255 255 255 255 255 255 255 255 255 255 255 255 255 255 255 255 255 255 255 255 255 255 255 255 255 255 255 255 255 255 255 255 255 255 255 255 255 255 255 255 255 255 255 255 255 255 255 255 255 255 255 255 255 255 255 255 255 255 255 255 255 255 255 255 255 255 255 255 255 255 255 255 255 255 255 255 255 255 255 255 255 255 255 255 255 255 255 255 255 255 255 255 255 255 255 255 255 255 255 255 255 255 255 255 255 255 255 255 255 255 255 255 255 255 255 255 255 255 255 255 255 255 255 255 255 255 255 255 255 255 255 255 255 255 255 255 255 255 255 255 255 255 255 255 255 255 255 255 255 255 255 255 255 255 255 255 255 255 255 255 255 255 255 255 255 255 255 255 255 255 255 255 255 255 255 255 255 255 255 255 255 255 255 255 255 255 255 255 255 255 255 255 255 255 255 255 255 255 255 255 255 255 255 255 255 255 255 255 255 255 255 255 255 255 255 255 255 255 255 255 255 255 255 255 255 255 255 255 255 255 255 255 255 255 255 255 255 255 255 255 255 255 255 255 255 255 255 255 255 255 255 255 255 255 255 255 255 255 255 255 255 255 255 255 255 255 255 255 255 255 255 255 255 255 255 255 255 255 255 255 255 255 255 255 255 255 255 255 255 255 255 255 255 255 255 255 255 255 255 255 255 255 255 255 255 255 255 255 255 255 255 255 255 255 255 255 255 255 255 255 255 255 255 255 255 255 255 255 255 255 255 255 255 255 255 255 255 255 255 255 255 255 255 255 255 255 255 255 255 255 255 255 255 255 255 255 255 255 255 255 255 255 255 255 255 255 
255 255 255 255 255 255 255 255 255 255 255 255 255 255 255 255 255 255 255 255 255 255 255 255 255 255 255 255 255 255 255 255 255 255 255 255 255 255 255 255 255 255 255 255 255 255 255 255 255 255 255 255 255 255 255 255 255 255 255 255 255 255 255 255 255 255 255 255 255 255 255 255 255 255 255 255 255 255 255 255 255 255 255 255 255 255 255 255 255 255 255 255 255 255 255 255 255 255 255 255 255 255 255 255 255 255 255 255 255 255 255 255 255 255 255 255 255 255 255 255 255 255 255 255 255 255 255 255 255 255 255 255 255 255 255 255 255 255 255 255 255 255 255 255 255 255 255 255 255 255 255 255 255 255 255 255 255 255 255 255 255 255 255 255 255 255 255 255 255 255 255 255 255 255 255 255 255 255 255 255 255 255 255 255 255 255 255 255 255 255 255 255 255 255 255 255 255 255 255 255 255 255 255 255 255 255 255 255 255 255 255 255 255 255 255 255 255 255 255 255 255 255 255 255 255 255 255 255 255 255 255 255 255 255 255 255 255 255 255 255 255 255 255 255 255 255 255 255 255 255 255 255 255 255 255 255 255 255 255 255 255 255 255 255 255 255 255 255 255 255 255 255 255 255 255 255 255 255 255 255 255 255 255 255 255 255 255 255 255 255 255 255 255 255 255 255 255 255 255 255 255 255 255 255 255 255 255 255 255 255 255 255 255 255 255 255 255 255 255 255 255 255 255 255 255 255 255 255 255 255 255 255 255 255 255 255 255 255 255 255 255 255 255 255 255 255 255 255 255 255 255 255 255 255 255 255 255 255 255 255 255 255 255 255 255 255 255 255 255 255 255 255 255 255 255 255 255 255 255 255 255 255 255 255 255 255 255 255 255 255 255 255 255 255 255 255 255 255 255 255 255 255 255 255 255 255 255 255 255 255 255 255 255 255 255 255 255 255 255 255 255 255 255 255 255 255 255 255 255 255 255 255 255 255 255 255 255 255 255 255 255 255 255 255 255 255 255 255 255 255 255 255 255 255 255 
255 255 255 255 255 255 255 255 255 255 255 255 255 255 255 255 255 255 255 255 255 255 255 255 255 255 255 255 255 255 255 255 255 255 255 255 255 255 255 255 255 255 255 255 255 255 255 255 255 255 255 255 255 255 255 255 255 255 255 255 255 255 255 255 255 255 255 255 255 255 255 255 255 255 255 255 255 255 255 255 255 255 255 255 255 255 255 255 255 255 255 255 255 255 255 255 255 255 255 255 255 255 255 255 255 255 255 255 255 255 255 255 255 255 255 255 255 255 255 255 255 255 255 255 255 255 255 255 255 255 255 255 255 255 255 255 255 255 255 255 255 255 255 255 255 255 255 255 255 255 255 255 255 255 255 255 255 255 255 255 255 255 255 255 255 255 255 255 255 255 255 255 255 255 255 255 255 255 255 255 255 255 255 255 255 255 255 255 255 255 255 255 255 255 255 255 255 255 255 255 255 255 255 255 255 255 255 255 255 255 255 255 255 255 255 255 255 255 255 255 255 255 255 255 255 255 255 255 255 255 255 255 255 255 255 255 255 255 255 255 255 255 255 255 255 255 255 255 255 255 255 255 255 255 255 255 255 255 255 255 255 255 255 255 255 255 255 255 255 255 255 255 255 255 255 255 255 255 255 255 255 255 255 255 255 255 255 255 255 255 255 255 255 255 255 255 255 255 255 255 255 255 255 255 255 255 255 255 255 255 255 255 255 255 255 255 255 255 255 255 255 255 255 255 255 255 255 255 255 255 255 255 255 255 255 255 255 255 255 255 255 255 255 255 255 255 255 255 255 255 255 255 255 255 255 255 255 255 255 255 255 255 255 255 255 255 255 255 255 255 255 255 255 255 255 255 255 255 255 255 255 255 255 255 255 255 255 255 255 255 255 255 255 255 255 255 255 255 255 255 255 255 255 255 255 255 255 255 255 255 255 255 255 255 255 255 255 255 255 255 255 255 255 255 255 255 255 255 255 255 255 255 255 255 255 255 255 255 255 255 255 255 255 255 255 255 255 255 255 255 255 255 255 255 255 
255 255 255 255 255 255 255 255 255 255 255 255 255 255 255 255 255 255 255 255 255 255 255 255 255 255 255 255 255 255 255 255 255 255 255 255 255 255 255 255 255 255 255 255 255 255 255 255 255 255 255 255 255 255 255 255 255 255 255 255 255 255 255 255 255 255 255 255 255 255 255 255 255 255 255 255 255 255 255 255 255 255 255 255 255 255 255 255 255 255 255 255 255 255 255 255 255 255 255 255 255 255 255 255 255 255 255 255 255 255 255 255 255 255 255 255 255 255 255 255 255 255 255 255 255 255 255 255 255 255 255 255 255 255 255 255 255 255 255 255 255 255 255 255 255 255 255 255 255 255 255 255 255 255 255 255 255 255 255 255 255 255 255 255 255 255 255 255 255 255 255 255 255 255 255 255 255 255 255 255 255 255 255 255 255 255 255 255 255 255 255 255 255 255 255 255 255 255 255 255 255 255 255 255 255 255 255 255 255 255 255 255 255 255 255 255 255 255 255 255 255 255 255 255 255 255 255 255 255 255 255 255 255 255 255 255 255 255 255 255 255 255 255 255 255 255 255 255 255 255 255 255 255 255 255 255 255 255 255 255 255 255 255 255 255 255 255 255 255 255 255 255 255 255 255 255 255 255 255 255 255 255 255 255 255 255 255 255 255 255 255 255 255 255 255 255 255 255 255 255 255 255 255 255 255 255 255 255 255 255 255 255 255 255 255 255 255 255 255 255 255 255 255 255 255 255 255 255 255 255 255 255 255 255 255 255 255 255 255 255 255 255 255 255 255 255 255 255 255 255 255 255 255 255 255 255 255 255 255 255 255 255 255 255 255 255 255 255 255 255 255 255 255 255 255 255 255 255 255 255 255 255 255 255 255 255 255 255 255 255 255 255 255 255 255 255 255 255 255 255 255 255 255 255 255 255 255 255 255 255 255 255 255 255 255 255 255 255 255 255 255 255 255 255 255 255 255 255 255 255 255 255 255 255 255 255 255 255 255 255 255 255 255 255 255 255 255 255 255 255 255 255 255 255 255 
255 255 255 255 255 255 255 255 255 255 255 255 255 255 255 255 255 255 255 255 255 255 255 255 255 255 255 255 255 255 255 255 255 255 255 255 255 255 255 255 255 255 255 255 255 255 255 255 255 255 255 255 255 255 255 255 255 255 255 255 255 255 255 255 255 255 255 255 255 255 255 255 255 255 255 255 255 255 255 255 255 255 255 255 255 255 255 255 255 255 255 255 255 255 255 255 255 255 255 255 255 255 255 255 255 255 255 255 255 255 255 255 255 255 255 255 255 255 255 255 255 255 255 255 255 255 255 255 255 255 255 255 255 255 255 255 255 255 255 255 255 255 255 255 255 255 255 255 255 255 255 255 255 255 255 255 255 255 255 255 255 255 255 255 255 255 255 255 255 255 255 255 255 255 255 255 255 255 255 255 255 255 255 255 255 255 255 255 255 255 255 255 255 255 255 255 255 255 255 255 255 255 255 255 255 255 255 255 255 255 255 255 255 255 255 255 255 255 255 255 255 255 255 255 255 255 255 255 255 255 255 255 255 255 255 255 255 255 255 255 255 255 255 255 255 255 255 255 255 255 255 255 255 255 255 255 255 255 255 255 255 255 255 255 255 255 255 255 255 255 255 255 255 255 255 255 255 255 255 255 255 255 255 255 255 255 255 255 255 255 255 255 255 255 255 255 255 255 255 255 255 255 255 255 255 255 255 255 255 255 255 255 255 255 255 255 255 255 255 255 255 255 255 255 255 255 255 255 255 255 255 255 255 255 255 255 255 255 255 255 255 255 255 255 255 255 255 255 255 255 255 255 255 255 255 255 255 255 255 255 255 255 255 255 255 255 255 255 255 255 255 255 255 255 255 255 255 255 255 255 255 255 255 255 255 255 255 255 255 255 255 255 255 255 255 255 255 255 255 255 255 255 255 255 255 255 255 255 255 255 255 255 255 255 255 255 255 255 255 255 255 255 255 255 255 255 255 255 255 255 255 255 255 255 255 255 255 255 255 255 255 255 255 255 255 255 255 255 255 255 255 255 255 255 255 
255 255 255 255 255 255 255 255 255 255 255 255 255 255 255 255 255 255 255 255 255 255 255 255 255 255 255 255 255 255 255 255 255 255 255 255 255 255 255 255 255 255 255 255 255 255 255 255 255 255 255 255 255 255 255 255 255 255 255 255 255 255 255 255 255 255 255 255 255 255 255 255 255 255 255 255 255 255 255 255 255 255 255 255 255 255 255 255 255 255 255 255 255 255 255 255 255 255 255 255 255 255 255 255 255 255 255 255 255 255 255 255 255 255 255 255 255 255 255 255 255 255 255 255 255 255 255 255 255 255 255 255 255 255 255 255 255 255 255 255 255 255 255 255 255 255 255 255 255 255 255 255 255 255 255 255 255 255 255 255 255 255 255 255 255 255 255 255 255 255 255 255 255 255 255 255 255 255 255 255 255 255 255 255 255 255 255 255 255 255 255 255 255 255 255 255 255 255 255 255 255 255 255 255 255 255 255 255 255 255 255 255 255 255 255 255 255 255 255 255 255 255 255 255 255 255 255 255 255 255 255 255 255 255 255 255 255 255 255 255 255 255 255 255 255 255 255 255 255 255 255 255 255 255 255 255 255 255 255 255 255 255 255 255 255 255 255 255 255 255 255 255 255 255 255 255 255 255 255 255 255 255 255 255 255 255 255 255 255 255 255 255 255 255 255 255 255 255 255 255 255 255 255 255 255 255 255 255 255 255 255 255 255 255 255 255 255 255 255 255 255 255 255 255 255 255 255 255 255 255 255 255 255 255 255 255 255 255 255 255 255 255 255 255 255 255 255 255 255 255 255 255 255 255 255 255 255 255 255 255 255 255 255 255 255 255 255 255 255 255 255 255 255 255 255 255 255 255 255 255 255 255 255 255 255 255 255 255 255 255 255 255 255 255 255 255 255 255 255 255 255 255 255 255 255 255 255 255 255 255 255 255 255 255 255 255 255 255 255 255 255 255 255 255 255 255 255 255 255 255 255 255 255 255 255 255 255 255 255 255 255 255 255 255 255 255 255 255 255 255 255 255 255 255 255 
255 255 255 255 255 255 255 255 255 255 255 255 255 255 255 255 255 255 255 255 255 255 255 255 255 255 255 255 255 255 255 255 255 255 255 255 255 255 255 255 255 255 255 255 255 255 255 255 255 255 255 255 255 255 255 255 255 255 255 255 255 255 255 255 255 255 255 255 255 255 255 255 255 255 255 255 255 255 255 255 255 255 255 255 255 255 255 255 255 255 255 255 255 255 255 255 255 255 255 255 255 255 255 255 255 255 255 255 255 255 255 255 255 255 255 255 255 255 255 255 255 255 255 255 255 255 255 255 255 255 255 255 255 255 255 255 255 255 255 255 255 255 255 255 255 255 255 255 255 255 255 255 255 255 255 255 255 255 255 255 255 255 255 255 255 255 255 255 255 255 255 255 255 255 255 255 255 255 255 255 255 255 255 255 255 255 255 255 255 255 255 255 255 255 255 255 255 255 255 255 255 255 255 255 255 255 255 255 255 255 255 255 255 255 255 255 255 255 255 255 255 255 255 255 255 255 255 255 255 255 255 255 255 255 255 255 255 255 255 255 255 255 255 255 255 255 255 255 255 255 255 255 255 255 255 255 255 255 255 255 255 255 255 255 255 255 255 255 255 255 255 255 255 255 255 255 255 255 255 255 255 255 255 255 255 255 255 255 255 255 255 255 255 255 255 255 255 255 255 255 255 255 255 255 255 255 255 255 255 255 255 255 255 255 255 255 255 255 255 255 255 255 255 255 255 255 255 255 255 255 255 255 255 255 255 255 255 255 255 255 255 255 255 255 255 255 255 255 255 255 255 255 255 255 255 255 255 255 255 255 255 255 255 255 255 255 255 255 255 255 255 255 255 255 255 255 255 255 255 255 255 255 255 255 255 255 255 255 255 255 255 255 255 255 255 255 255 255 255 255 255 255 255 255 255 255 255 255 255 255 255 255 255 255 255 255 255 255 255 255 255 255 255 255 255 255 255 255 255 255 255 255 255 255 255 255 255 255 255 255 255 255 255 255 255 255 255 255 255 255 255 255 255 255 255 
255 255 255 255 255 255 255 255 255 255 255 255 255 255 255 255 255 255 255 255 255 255 255 255 255 255 255 255 255 255 255 255 255 255 255 255 255 255 255 255 255 255 255 255 255 255 255 255 255 255 255 255 255 255 255 255 255 255 255 255 255 255 255 255 255 255 255 255 255 255 255 255 255 255 255 255 255 255 255 255 255 255 255 255 255 255 255 255 255 255 255 255 255 255 255 255 255 255 255 255 255 255 255 255 255 255 255 255 255 255 255 255 255 255 255 255 255 255 255 255 255 255 255 255 255 255 255 255 255 255 255 255 255 255 255 255 255 255 255 255 255 255 255 255 255 255 255 255 255 255 255 255 255 255 255 255 255 255 255 255 255 255 255 255 255 255 255 255 255 255 255 255 255 255 255 255 255 255 255 255 255 255 255 255 255 255 255 255 255 255 255 255 255 255 255 255 255 255 255 255 255 255 255 255 255 255 255 255 255 255 255 255 255 255 255 255 255 255 255 255 255 255 255 255 255 255 255 255 255 255 255 255 255 255 255 255 255 255 255 255 255 255 255 255 255 255 255 255 255 255 255 255 255 255 255 255 255 255 255 255 255 255 255 255 255 255 255 255 255 255 255 255 255 255 255 255 255 255 255 255 255 255 255 255 255 255 255 255 255 255 255 255 255 255 255 255 255 255 255 255 255 255 255 255 255 255 255 255 255 255 255 255 255 255 255 255 255 255 255 255 255 255 255 255 255 255 255 255 255 255 255 255 255 255 255 255 255 255 255 255 255 255 255 255 255 255 255 255 255 255 255 255 255 255 255 255 255 255 255 255 255 255 255 255 255 255 255 255 255 255 255 255 255 255 255 255 255 255 255 255 255 255 255 255 255 255 255 255 255 255 255 255 255 255 255 255 255 255 255 255 255 255 255 255 255 255 255 255 255 255 255 255 255 255 255 255 255 255 255 255 255 255 255 255 255 255 255 255 255 255 255 255 255 255 255 255 255 255 255 255 255 255 255 255 255 255 255 255 255 255 255 255 255 255 255 
255 255 255 255 255 255 255 255 255 255 255 255 255 255 255 255 255 255 255 255 255 255 255 255 255 255 255 255 255 255 255 255 255 255 255 255 255 255 255 255 255 255 255 255 255 255 255 255 255 255 255 255 255 255 255 255 255 255 255 255 255 255 255 255 255 255 255 255 255 255 255 255 255 255 255 255 255 255 255 255 255 255 255 255 255 255 255 255 255 255 255 255 255 255 255 255 255 255 255 255 255 255 255 255 255 255 255 255 255 255 255 255 255 255 255 255 255 255 255 255 255 255 255 255 255 255 255 255 255 255 255 255 255 255 255 255 255 255 255 255 255 255 255 255 255 255 255 255 255 255 255 255 255 255 255 255 255 255 255 255 255 255 255 255 255 255 255 255 255 255 255 255 255 255 255 255 255 255 255 255 255 255 255 255 255 255 255 255 255 255 255 255 255 255 255 255 255 255 255 255 255 255 255 255 255 255 255 255 255 255 255 255 255 255 255 255 255 255 255 255 255 255 255 255 255 255 255 255 255 255 255 255 255 255 255 255 255 255 255 255 255 255 255 255 255 255 255 255 255 255 255 255 255 255 255 255 255 255 255 255 255 255 255 255 255 255 255 255 255 255 255 255 255 255 255 255 255 255 255 255 255 255 255 255 255 255 255 255 255 255 255 255 255 255 255 255 255 255 255 255 255 255 255 255 255 255 255 255 255 255 255 255 255 255 255 255 255 255 255 255 255 255 255 255 255 255 255 255 255 255 255 255 255 255 255 255 255 255 255 255 255 255 255 255 255 255 255 255 255 255 255 255 255 255 255 255 255 255 255 255 255 255 255 255 255 255 255 255 255 255 255 255 255 255 255 255 255 255 255 255 255 255 255 255 255 255 255 255 255 255 255 255 255 255 255 255 255 255 255 255 255 255 255 255 255 255 255 255 255 255 255 255 255 255 255 255 255 255 255 255 255 255 255 255 255 255 255 255 255 255 255 255 255 255 255 255 255 255 255 255 255 255 255 255 255 255 255 255 255 255 255 255 255 255 255 
255 255 255 255 255 255 255 255 255 255 255 255 255 255 255 255 255 255 255 255 255 255 255 255 255 255 255 255 255 255 255 255 255 255 255 255 255 255 255 255 255 255 255 255 255 255 255 255 255 255 255 255 255 255 255 255 255 255 255 255 255 255 255 255 255 255 255 255 255 255 255 255 255 255 255 255 255 255 255 255 255 255 255 255 255 255 255 255 255 255 255 255 255 255 255 255 255 255 255 255 255 255 255 255 255 255 255 255 255 255 255 255 255 255 255 255 255 255 255 255 255 255 255 255 255 255 255 255 255 255 255 255 255 255 255 255 255 255 255 255 255 255 255 255 255 255 255 255 255 255 255 255 255 255 255 255 255 255 255 255 255 255 255 255 255 255 255 255 255 255 255 255 255 255 255 255 255 255 255 255 255 255 255 255 255 255 255 255 255 255 255 255 255 255 255 255 255 255 255 255 255 255 255 255 255 255 255 255 255 255 255 255 255 255 255 255 255 255 255 255 255 255 255 255 255 255 255 255 255 255 255 255 255 255 255 255 255 255 255 255 255 255 255 255 255 255 255 255 255 255 255 255 255 255 255 255 255 255 255 255 255 255 255 255 255 255 255 255 255 255 255 255 255 255 255 255 255 255 255 255 255 255 255 255 255 255 255 255 255 255 255 255 255 255 255 255 255 255 255 255 255 255 255 255 255 255 255 255 255 255 255 255 255 255 255 255 255 255 255 255 255 255 255 255 255 255 255 255 255 255 255 255 255 255 255 255 255 255 255 255 255 255 255 255 255 255 255 255 255 255 255 255 255 255 255 255 255 255 255 255 255 255 255 255 255 255 255 255 255 255 255 255 255 255 255 255 255 255 255 255 255 255 255 255 255 255 255 255 255 255 255 255 255 255 255 255 255 255 255 255 255 255 255 255 255 255 255 255 255 255 255 255 255 255 255 255 255 255 255 255 255 255 255 255 255 255 255 255 255 255 255 255 255 255 255 255 255 255 255 255 255 255 255 255 255 255 255 255 255 255 255 255 255 255 255 
255 255 255 255 255 255 255 255 255 255 255 255 255 255 255 255 255 255 255 255 255 255 255 255 255 255 255 255 255 255 255 255 255 255 255 255 255 255 255 255 255 255 255 255 255 255 255 255 255 255 255 255 255 255 255 255 255 255 255 255 255 255 255 255 255 255 255 255 255 255 255 255 255 255 255 255 255 255 255 255 255 255 255 255 255 255 255 255 255 255 255 255 255 255 255 255 255 255 255 255 255 255 255 255 255 255 255 255 255 255 255 255 255 255 255 255 255 255 255 255 255 255 255 255 255 255 255 255 255 255 255 255 255 255 255 255 255 255 255 255 255 255 255 255 255 255 255 255 255 255 255 255 255 255 255 255 255 255 255 255 255 255 255 255 255 255 255 255 255 255 255 255 255 255 255 255 255 255 255 255 255 255 255 255 255 255 255 255 255 255 255 255 255 255 255 255 255 255 255 255 255 255 255 255 255 255 255 255 255 255 255 255 255 255 255 255 255 255 255 255 255 255 255 255 255 255 255 255 255 255 255 255 255 255 255 255 255 255 255 255 255 255 255 255 255 255 255 255 255 255 255 255 255 255 255 255 255 255 255 255 255 255 255 255 255 255 255 255 255 255 255 255 255 255 255 255 255 255 255 255 255 255 255 255 255 255 255 255 255 255 255 255 255 255 255 255 255 255 255 255 255 255 255 255 255 255 255 255 255 255 255 255 255 255 255 255 255 255 255 255 255 255 255 255 255 255 255 255 255 255 255 255 255 255 255 255 255 255 255 255 255 255 255 255 255 255 255 255 255 255 255 255 255 255 255 255 255 255 255 255 255 255 255 255 255 255 255 255 255 255 255 255 255 255 255 255 255 255 255 255 255 255 255 255 255 255 255 255 255 255 255 255 255 255 255 255 255 255 255 255 255 255 255 255 255 255 255 255 255 255 255 255 255 255 255 255 255 255 255 255 255 255 255 255 255 255 255 255 255 255 255 255 255 255 255 255 255 255 255 255 255 255 255 255 255 255 255 255 255 255 255 255 255 255 255 
255 255 255 255 255 255 255 255 255 255 255 255 255 255 255 255 255 255 255 255 255 255 255 255 255 255 255 255 255 255 255 255 255 255 255 255 255 255 255 255 255 255 255 255 255 255 255 255 255 255 255 255 255 255 255 255 255 255 255 255 255 255 255 255 255 255 255 255 255 255 255 255 255 255 255 255 255 255 255 255 255 255 255 255 255 255 255 255 255 255 255 255 255 255 255 255 255 255 255 255 255 255 255 255 255 255 255 255 255 255 255 255 255 255 255 255 255 255 255 255 255 255 255 255 255 255 255 255 255 255 255 255 255 255 255 255 255 255 255 255 255 255 255 255 255 255 255 255 255 255 255 255 255 255 255 255 255 255 255 255 255 255 255 255 255 255 255 255 255 255 255 255 255 255 255 255 255 255 255 255 255 255 255 255 255 255 255 255 255 255 255 255 255 255 255 255 255 255 255 255 255 255 255 255 255 255 255 255 255 255 255 255 255 255 255 255 255 255 255 255 255 255 255 255 255 255 255 255 255 255 255 255 255 255 255 255 255 255 255 255 255 255 255 255 255 255 255 255 255 255 255 255 255 255 255 255 255 255 255 255 255 255 255 255 255 255 255 255 255 255 255 255 255 255 255 255 255 255 255 255 255 255 255 255 255 255 255 255 255 255 255 255 255 255 255 255 255 255 255 255 255 255 255 255 255 255 255 255 255 255 255 255 255 255 255 255 255 255 255 255 255 255 255 255 255 255 255 255 255 255 255 255 255 255 255 255 255 255 255 255 255 255 255 255 255 255 255 255 255 255 255 255 255 255 255 255 255 255 255 255 255 255 255 255 255 255 255 255 255 255 255 255 255 255 255 255 255 255 255 255 255 255 255 255 255 255 255 255 255 255 255 255 255 255 255 255 255 255 255 255 255 255 255 255 255 255 255 255 255 255 255 255 255 255 255 255 255 255 255 255 255 255 255 255 255 255 255 255 255 255 255 255 255 255 255 255 255 255 255 255 255 255 255 255 255 255 255 255 255 255 255 255 255 255 255 
255 255 255 255 255 255 255 255 255 255 255 255 255 255 255 255 255 255 255 255 255 255 255 255 255 255 255 255 255 255 255 255 255 255 255 255 255 255 255 255 255 255 255 255 255 255 255 255 255 255 255 255 255 255 255 255 255 255 255 255 255 255 255 255 255 255 255 255 255 255 255 255 255 255 255 255 255 255 255 255 255 255 255 255 255 255 255 255 255 255 255 255 255 255 255 255 255 255 255 255 255 255 255 255 255 255 255 255 255 255 255 255 255 255 255 255 255 255 255 255 255 255 255 255 255 255 255 255 255 255 255 255 255 255 255 255 255 255 255 255 255 255 255 255 255 255 255 255 255 255 255 255 255 255 255 255 255 255 255 255 255 255 255 255 255 255 255 255 255 255 255 255 255 255 255 255 255 255 255 255 255 255 255 255 255 255 255 255 255 255 255 255 255 255 255 255 255 255 255 255 255 255 255 255 255 255 255 255 255 255 255 255 255 255 255 255 255 255 255 255 255 255 255 255 255 255 255 255 255 255 255 255 255 255 255 255 255 255 255 255 255 255 255 255 255 255 255 255 255 255 255 255 255 255 255 255 255 255 255 255 255 255 255 255 255 255 255 255 255 255 255 255 255 255 255 255 255 255 255 255 255 255 255 255 255 255 255 255 255 255 255 255 255 255 255 255 255 255 255 255 255 255 255 255 255 255 255 255 255 255 255 255 255 255 255 255 255 255 255 255 255 255 255 255 255 255 255 255 255 255 255 255 255 255 255 255 255 255 255 255 255 255 255 255 255 255 255 255 255 255 255 255 255 255 255 255 255 255 255 255 255 255 255 255 255 255 255 255 255 255 255 255 255 255 255 255 255 255 255 255 255 255 255 255 255 255 255 255 255 255 255 255 255 255 255 255 255 255 255 255 255 255 255 255 255 255 255 255 255 255 255 255 255 255 255 255 255 255 255 255 255 255 255 255 255 255 255 255 255 255 255 255 255 255 255 255 255 255 255 255 255 255 255 255 255 255 255 255 255 255 255 255 255 255 255 
255 255 255 255 255 255 255 255 255 255 255 255 255 255 255 255 255 255 255 255 255 255 255 255 255 255 255 255 255 255 255 255 255 255 255 255 255 255 255 255 255 255 255 255 255 255 255 255 255 255 255 255 255 255 255 255 255 255 255 255 255 255 255 255 255 255 255 255 255 255 255 255 255 255 255 255 255 255 255 255 255 255 255 255 255 255 255 255 255 255 255 255 255 255 255 255 255 255 255 255 255 255 255 255 255 255 255 255 255 255 255 255 255 255 255 255 255 255 255 255 255 255 255 255 255 255 255 255 255 255 255 255 255 255 255 255 255 255 255 255 255 255 255 255 255 255 255 255 255 255 255 255 255 255 255 255 255 255 255 255 255 255 255 255 255 255 255 255 255 255 255 255 255 255 255 255 255 255 255 255 255 255 255 255 255 255 255 255 255 255 255 255 255 255 255 255 255 255 255 255 255 255 255 255 255 255 255 255 255 255 255 255 255 255 255 255 255 255 255 255 255 255 255 255 255 255 255 255 255 255 255 255 255 255 255 255 255 255 255 255 255 255 255 255 255 255 255 255 255 255 255 255 255 255 255 255 255 255 255 255 255 255 255 255 255 255 255 255 255 255 255 255 255 255 255 255 255 255 255 255 255 255 255 255 255 255 255 255 255 255 255 255 255 255 255 255 255 255 255 255 255 255 255 255 255 255 255 255 255 255 255 255 255 255 255 255 255 255 255 255 255 255 255 255 255 255 255 255 255 255 255 255 255 255 255 255 255 255 255 255 255 255 255 255 255 255 255 255 255 255 255 255 255 255 255 255 255 255 255 255 255 255 255 255 255 255 255 255 255 255 255 255 255 255 255 255 255 255 255 255 255 255 255 255 255 255 255 255 255 255 255 255 255 255 255 255 255 255 255 255 255 255 255 255 255 255 255 255 255 255 255 255 255 255 255 255 255 255 255 255 255 255 255 255 255 255 255 255 255 255 255 255 255 255 255 255 255 255 255 255 255 255 255 255 255 255 255 255 255 255 255 255 255 255 255 
255 255 255 255 255 255 255 255 255 255 255 255 255 255 255 255 255 255 255 255 255 255 255 255 255 255 255 255 255 255 255 255 255 255 255 255 255 255 255 255 255 255 255 255 255 255 255 255 255 255 255 255 255 255 255 255 255 255 255 255 255 255 255 255 255 255 255 255 255 255 255 255 255 255 255 255 255 255 255 255 255 255 255 255 255 255 255 255 255 255 255 255 255 255 255 255 255 255 255 255 255 255 255 255 255 255 255 255 255 255 255 255 255 255 255 255 255 255 255 255 255 255 255 255 255 255 255 255 255 255 255 255 255 255 255 255 255 255 255 255 255 255 255 255 255 255 255 255 255 255 255 255 255 255 255 255 255 255 255 255 255 255 255 255 255 255 255 255 255 255 255 255 255 255 255 255 255 255 255 255 255 255 255 255 255 255 255 255 255 255 255 255 255 255 255 255 255 255 255 255 255 255 255 255 255 255 255 255 255 255 255 255 255 255 255 255 255 255 255 255 255 255 255 255 255 255 255 255 255 255 255 255 255 255 255 255 255 255 255 255 255 255 255 255 255 255 255 255 255 255 255 255 255 255 255 255 255 255 255 255 255 255 255 255 255 255 255 255 255 255 255 255 255 255 255 255 255 255 255 255 255 255 255 255 255 255 255 255 255 255 255 255 255 255 255 255 255 255 255 255 255 255 255 255 255 255 255 255 255 255 255 255 255 255 255 255 255 255 255 255 255 255 255 255 255 255 255 255 255 255 255 255 255 255 255 255 255 255 255 255 255 255 255 255 255 255 255 255 255 255 255 255 255 255 255 255 255 255 255 255 255 255 255 255 255 255 255 255 255 255 255 255 255 255 255 255 255 255 255 255 255 255 255 255 255 255 255 255 255 255 255 255 255 255 255 255 255 255 255 255 255 255 255 255 255 255 255 255 255 255 255 255 255 255 255 255 255 255 255 255 255 255 255 255 255 255 255 255 255 255 255 255 255 255 255 255 255 255 255 255 255 255 255 255 255 255 255 255 255 255 255 255 255 255 255 
255 255 255 255 255 255 255 255 255 255 255 255 255 255 255 255 255 255 255 255 255 255 255 255 255 255 255 255 255 255 255 255 255 255 255 255 255 255 255 255 255 255 255 255 255 255 255 255 255 255 255 255 255 255 255 255 255 255 255 255 255 255 255 255 255 255 255 255 255 255 255 255 255 255 255 255 255 255 255 255 255 255 255 255 255 255 255 255 255 255 255 255 255 255 255 255 255 255 255 255 255 255 255 255 255 255 255 255 255 255 255 255 255 255 255 255 255 255 255 255 255 255 255 255 255 255 255 255 255 255 255 255 255 255 255 255 255 255 255 255 255 255 255 255 255 255 255 255 255 255 255 255 255 255 255 255 255 255 255 255 255 255 255 255 255 255 255 255 255 255 255 255 255 255 255 255 255 255 255 255 255 255 255 255 255 255 255 255 255 255 255 255 255 255 255 255 255 255 255 255 255 255 255 255 255 255 255 255 255 255 255 255 255 255 255 255 255 255 255 255 255 255 255 255 255 255 255 255 255 255 255 255 255 255 255 255 255 255 255 255 255 255 255 255 255 255 255 255 255 255 255 255 255 255 255 255 255 255 255 255 255 255 255 255 255 255 255 255 255 255 255 255 255 255 255 255 255 255 255 255 255 255 255 255 255 255 255 255 255 255 255 255 255 255 255 255 255 255 255 255 255 255 255 255 255 255 255 255 255 255 255 255 255 255 255 255 255 255 255 255 255 255 255 255 255 255 255 255 255 255 255 255 255 255 255 255 255 255 255 255 255 255 255 255 255 255 255 255 255 255 255 255 255 255 255 255 255 255 255 255 255 255 255 255 255 255 255 255 255 255 255 255 255 255 255 255 255 255 255 255 255 255 255 255 255 255 255 255 255 255 255 255 255 255 255 255 255 255 255 255 255 255 255 255 255 255 255 255 255 255 255 255 255 255 255 255 255 255 255 255 255 255 255 255 255 255 255 255 255 255 255 255 255 255 255 255 255 255 255 255 255 255 255 255 255 255 255 255 255 255 255 255 255 255 255 
